look-library/cubes/ads-clean_33.cube
TITLE "look-library ads-clean (ads)"
# look-library — baked by build_cubes.py from looks/<id>.yaml
# method: GUIDE.md section 4a
LUT_3D_SIZE 9
0.000000 0.000000 0.001805
0.103846 0.000000 0.000000
0.247975 0.000000 0.000000
0.406703 0.000000 0.000000
0.568153 0.000000 0.000000
0.719243 0.000000 0.000000
0.871791 0.000000 0.000000
0.991071 0.000000 0.000000
1.000000 0.000000 0.000000
0.000000 0.096155 0.000000
0.093541 0.092188 0.000000
0.231468 0.089883 0.000000
0.393680 0.087729 0.000000
0.563613 0.086565 0.000000
0.714916 0.087645 0.000000
0.866046 0.086994 0.000000
0.985342 0.086199 0.000000
1.000000 0.085976 0.000000
0.000000 0.231425 0.000000
0.078820 0.227947 0.000000
0.228015 0.223221 0.000000
0.387498 0.220151 0.000000
0.555316 0.219230 0.000000
0.712264 0.218797 0.000000
0.858800 0.219224 0.000000
0.977843 0.218588 0.000000
1.000000 0.218405 0.000000
0.000000 0.384788 0.000000
0.069488 0.381789 0.000000
0.215953 0.377864 0.000000
0.382524 0.373917 0.000000
0.553623 0.371241 0.000000
0.709271 0.370695 0.000000
0.858137 0.370553 0.000000
0.973704 0.370707 0.000000
1.000000 0.370670 0.000000
0.000000 0.547193 0.000000
0.069304 0.544721 0.000000
0.212703 0.541581 0.000000
0.375903 0.538679 0.000000
0.548371 0.536356 0.000000
0.707673 0.535185 0.000000
0.857574 0.534633 0.000000
0.974263 0.534449 0.000000
1.000000 0.534414 0.000000
0.000000 0.697627 0.000000
0.076764 0.696396 0.000000
0.214359 0.695357 0.000000
0.373495 0.694152 0.000000
0.544944 0.692826 0.000000
0.705857 0.691486 0.000000
0.858023 0.690277 0.000000
0.975718 0.689602 0.000000
1.000000 0.689466 0.000000
0.000000 0.843796 0.000000
0.073417 0.843060 0.000000
0.210939 0.842000 0.000000
0.369956 0.840759 0.000000
0.541229 0.839393 0.000000
0.702165 0.838050 0.000000
0.855395 0.836676 0.000000
0.974511 0.835634 0.000000
1.000000 0.835382 0.000000
0.000000 0.968596 0.000000
0.070267 0.967832 0.000000
0.207664 0.966724 0.000000
0.366546 0.965418 0.000000
0.537731 0.964005 0.000000
0.698638 0.962664 0.000000
0.852081 0.961344 0.000000
0.971863 0.960262 0.000000
1.000000 0.959971 0.000000
0.000000 1.000000 0.000000
0.069098 1.000000 0.000000
0.206462 1.000000 0.000000
0.365337 1.000000 0.000000
0.536522 1.000000 0.000000
0.697427 1.000000 0.000000
0.850885 1.000000 0.000000
0.970766 1.000000 0.000000
1.000000 1.000000 0.000000
0.000000 0.000000 0.107697
0.105180 0.000000 0.104430
0.252349 0.000000 0.097449
0.412025 0.000000 0.092083
0.572454 0.000000 0.089618
0.721531 0.000000 0.089229
0.874227 0.000000 0.088117
0.993593 0.000000 0.087264
1.000000 0.000000 0.087026
0.000000 0.094831 0.095454
0.092417 0.091017 0.091653
0.241014 0.086854 0.087453
0.404833 0.084211 0.084791
0.571770 0.083948 0.084508
0.719621 0.086144 0.086686
0.869440 0.085859 0.086398
0.988730 0.085061 0.085583
1.000000 0.084837 0.085350
0.000000 0.230233 0.079840
0.075028 0.228035 0.074284
0.227466 0.222558 0.071789
0.386160 0.219952 0.083855
0.558060 0.218321 0.082520
0.716586 0.217546 0.082806
0.861441 0.218452 0.085774
0.980787 0.217721 0.084684
1.000000 0.217516 0.084380
0.000000 0.383748 0.069542
0.062719 0.383419 0.061928
0.212412 0.378714 0.060005
0.382703 0.373856 0.060755
0.554294 0.370840 0.075005
0.710701 0.370269 0.080598
0.860462 0.369965 0.082006
0.974895 0.370380 0.084600
1.000000 0.370399 0.084792
0.000000 0.546330 0.067343
0.059355 0.548034 0.057468
0.205983 0.544112 0.057804
0.372913 0.540307 0.058945
0.549331 0.536958 0.063002
0.709182 0.534986 0.072762
0.857600 0.534511 0.079997
0.973480 0.534484 0.082680
1.000000 0.534451 0.082834
0.000000 0.696929 0.073850
0.065717 0.700483 0.062053
0.209291 0.697264 0.064674
0.372639 0.694266 0.068457
0.544723 0.692594 0.068488
0.705646 0.691258 0.068394
0.857639 0.690078 0.071479
0.975069 0.689478 0.074657
1.000000 0.689365 0.075444
0.000000 0.843556 0.068978
0.073199 0.842819 0.068060
0.210714 0.841758 0.066780
0.369719 0.840513 0.065354
0.540978 0.839144 0.063904
0.701907 0.837803 0.062803
0.855151 0.836433 0.063176
0.974196 0.835402 0.065369
1.000000 0.835159 0.066155
0.000000 0.968349 0.065048
0.070021 0.967582 0.064226
0.207411 0.966469 0.063072
0.366288 0.965161 0.061760
0.537472 0.963749 0.060354
0.698376 0.962412 0.059092
0.851827 0.961099 0.058305
0.971620 0.960019 0.058777
1.000000 0.959729 0.059176
0.000000 1.000000 0.063798
0.068844 1.000000 0.062995
0.206205 1.000000 0.061861
0.365080 1.000000 0.060552
0.536263 1.000000 0.059144
0.697165 1.000000 0.057861
0.850627 1.000000 0.056915
0.970521 1.000000 0.056937
1.000000 1.000000 0.057178
0.000000 0.000000 0.250226
0.100932 0.000000 0.248660
0.251540 0.000000 0.245622
0.412827 0.000000 0.234915
0.574649 0.000000 0.226561
0.722523 0.000000 0.222482
0.875642 0.000000 0.221223
0.995291 0.000000 0.220258
1.000000 0.000000 0.219990
0.000000 0.092783 0.243954
0.090737 0.089385 0.241468
0.243259 0.084059 0.237222
0.410166 0.081103 0.228575
0.577727 0.081242 0.222464
0.724205 0.084334 0.219821
0.872380 0.084619 0.218726
0.991870 0.083774 0.217795
1.000000 0.083539 0.217533
0.000000 0.228582 0.227569
0.073611 0.226216 0.225180
0.225801 0.221074 0.220093
0.396902 0.216465 0.215466
0.571695 0.214082 0.213079
0.726964 0.214295 0.213231
0.866930 0.216733 0.215530
0.985677 0.216154 0.214768
1.000000 0.215945 0.214501
0.000000 0.382314 0.212994
0.062005 0.381827 0.208510
0.206686 0.379248 0.200391
0.382310 0.373132 0.198006
0.553021 0.370500 0.211122
0.713665 0.369307 0.210468
0.864809 0.368719 0.210667
0.978860 0.369298 0.212781
1.000000 0.369534 0.213405
0.000000 0.545151 0.206121
0.059325 0.546759 0.199242
0.195711 0.547049 0.188055
0.367965 0.541956 0.186317
0.550057 0.537178 0.187836
0.711418 0.534452 0.200623
0.860163 0.533914 0.207493
0.977289 0.533649 0.208838
1.000000 0.533559 0.208905
0.000000 0.696543 0.207341
0.066098 0.699570 0.199134
0.194676 0.702464 0.185337
0.363341 0.698169 0.186283
0.541809 0.694396 0.188279
0.706229 0.691544 0.192829
0.858075 0.689813 0.201725
0.974095 0.689346 0.207657
1.000000 0.689282 0.208538
0.000000 0.843211 0.202392
0.072883 0.842472 0.201482
0.201498 0.844966 0.191128
0.366668 0.841377 0.194682
0.540614 0.838782 0.197359
0.701531 0.837445 0.196159
0.854799 0.836082 0.196389
0.973703 0.835076 0.198750
1.000000 0.834851 0.199584
0.000000 0.967990 0.198507
0.069663 0.967219 0.197691
0.207042 0.966099 0.196545
0.365916 0.964789 0.195235
0.537099 0.963378 0.193825
0.697999 0.962047 0.192527
0.851457 0.960744 0.191603
0.971268 0.959668 0.191987
1.000000 0.959378 0.192402
0.000000 1.000000 0.197267
0.068474 1.000000 0.196469
0.205833 1.000000 0.195336
0.364708 1.000000 0.194026
0.535891 1.000000 0.192616
0.696788 1.000000 0.191308
0.850252 1.000000 0.190255
0.970167 1.000000 0.190156
1.000000 1.000000 0.190387
0.000000 0.000000 0.402277
0.096997 0.000000 0.402660
0.242578 0.000000 0.402725
0.412624 0.000000 0.401113
0.575577 0.000000 0.386147
0.722356 0.000000 0.376885
0.875742 0.000000 0.375607
0.995630 0.000000 0.374605
1.000000 0.000000 0.374325
0.000000 0.090993 0.402482
0.089788 0.088494 0.401945
0.237165 0.084397 0.400683
0.409528 0.079239 0.397776
0.578603 0.079596 0.385045
0.726265 0.082973 0.376096
0.873057 0.083874 0.372982
0.992896 0.082936 0.371948
1.000000 0.082677 0.371656
0.000000 0.226751 0.397442
0.074194 0.223863 0.395627
0.224134 0.219195 0.392467
0.399810 0.213241 0.387704
0.577603 0.210696 0.378095
0.733243 0.211440 0.372032
0.871763 0.214858 0.368994
0.988907 0.214799 0.367873
1.000000 0.214573 0.367564
0.000000 0.380733 0.377914
0.061320 0.380044 0.377107
0.205010 0.377256 0.374080
0.380283 0.371587 0.368420
0.564266 0.366869 0.363227
0.728216 0.364863 0.360961
0.876432 0.365165 0.361009
0.986780 0.366903 0.362556
1.000000 0.367620 0.363221
0.000000 0.543867 0.365637
0.059594 0.545273 0.362455
0.194645 0.545483 0.356036
0.361259 0.542863 0.346452
0.549932 0.536495 0.344358
0.710338 0.533994 0.357708
0.862727 0.533030 0.358039
0.981337 0.532459 0.358004
1.000000 0.532409 0.358229
0.000000 0.696149 0.361630
0.067224 0.698347 0.357312
0.193979 0.701349 0.347809
0.351592 0.701688 0.335352
0.536671 0.696303 0.333774
0.707215 0.691877 0.335801
0.860978 0.689220 0.348114
0.977103 0.688660 0.354578
1.000000 0.688580 0.355542
0.000000 0.842811 0.356709
0.072511 0.842069 0.355808
0.201043 0.844282 0.348407
0.350129 0.847331 0.333451
0.531426 0.842683 0.334694
0.698769 0.839097 0.336785
0.855379 0.836295 0.341435
0.974406 0.834774 0.348527
1.000000 0.834522 0.350449
0.000000 0.967573 0.352875
0.069244 0.966796 0.352065
0.206612 0.965669 0.350927
0.354544 0.968758 0.338268
0.532765 0.964758 0.341776
0.697250 0.961814 0.345897
0.851026 0.960332 0.345812
0.970861 0.959262 0.346063
1.000000 0.958974 0.346504
0.000000 1.000000 0.351645
0.068044 1.000000 0.350851
0.205403 1.000000 0.349718
0.357327 1.000000 0.341217
0.534510 1.000000 0.345492
0.696355 1.000000 0.345675
0.849816 1.000000 0.344516
0.969757 1.000000 0.344247
1.000000 1.000000 0.344462
0.000000 0.000000 0.551717
0.093936 0.000000 0.554215
0.233743 0.000000 0.557335
0.398113 0.000000 0.560223
0.576347 0.000000 0.560478
0.721909 0.000000 0.544397
0.875353 0.000000 0.543129
0.995323 0.000000 0.542135
1.000000 0.000000 0.541856
0.000000 0.090259 0.558950
0.089968 0.088736 0.560529
0.231570 0.086047 0.562321
0.398017 0.082217 0.563673
0.578833 0.077907 0.562619
0.727576 0.081643 0.546917
0.872760 0.083358 0.540496
0.992753 0.082378 0.539450
1.000000 0.082107 0.539151
0.000000 0.223635 0.563983
0.079002 0.221716 0.564249
0.223168 0.218456 0.564144
0.392592 0.213966 0.563286
0.577142 0.208752 0.560280
0.734206 0.209770 0.547443
0.873898 0.213510 0.537885
0.989397 0.214103 0.535238
1.000000 0.213851 0.534907
0.000000 0.379112 0.555639
0.060679 0.378206 0.558819
0.205871 0.374739 0.558219
0.378913 0.369536 0.554622
0.567921 0.363359 0.549188
0.734570 0.361288 0.539684
0.883136 0.362133 0.533360
0.992444 0.364644 0.530334
1.000000 0.365614 0.529791
0.000000 0.542570 0.537498
0.059983 0.543756 0.538335
0.194163 0.543647 0.537688
0.359269 0.540860 0.534230
0.547574 0.534969 0.528497
0.720504 0.530609 0.523368
0.877518 0.528525 0.521126
0.994711 0.528387 0.520925
1.000000 0.528574 0.521102
0.000000 0.695721 0.529034
0.068538 0.697114 0.527734
0.194409 0.699791 0.524017
0.349867 0.700212 0.517054
0.529893 0.697156 0.507205
0.707088 0.691099 0.505691
0.859753 0.688684 0.518723
0.978827 0.687840 0.519218
1.000000 0.687604 0.519111
0.000000 0.842375 0.524147
0.072103 0.841630 0.523259
0.202292 0.842968 0.519548
0.348577 0.846347 0.509449
0.519445 0.846167 0.496990
0.693540 0.840940 0.495434
0.856467 0.836509 0.497621
0.977272 0.834150 0.507782
1.000000 0.833841 0.510319
0.000000 0.967117 0.520368
0.068785 0.966334 0.519564
0.206145 0.965203 0.518431
0.353220 0.968179 0.509407
0.516399 0.970503 0.494568
0.687646 0.965910 0.495105
0.848256 0.962249 0.496489
0.971741 0.959772 0.499928
1.000000 0.959186 0.501710
0.000000 1.000000 0.519148
0.067578 1.000000 0.518355
0.204937 1.000000 0.517222
0.356090 1.000000 0.510686
0.516641 1.000000 0.495025
0.686913 1.000000 0.496283
0.846585 1.000000 0.498273
0.969540 1.000000 0.501087
1.000000 1.000000 0.502370
0.000000 0.000000 0.709573
0.093156 0.000000 0.708789
0.230516 0.000000 0.707656
0.389390 0.000000 0.706346
0.560573 0.000000 0.704935
0.721466 0.000000 0.703609
0.874915 0.000000 0.702343
0.994898 0.000000 0.701353
1.000000 0.000000 0.701073
0.000000 0.090140 0.706967
0.090551 0.089356 0.706183
0.227910 0.088224 0.705051
0.387515 0.086501 0.705681
0.563216 0.083179 0.709892
0.728678 0.080306 0.710429
0.872338 0.082911 0.699693
0.992368 0.081928 0.698639
1.000000 0.081656 0.698337
0.000000 0.221833 0.707260
0.084739 0.220841 0.709537
0.223416 0.218920 0.712334
0.386501 0.215978 0.714823
0.565474 0.211948 0.716590
0.734616 0.208226 0.715290
0.875285 0.212306 0.699588
0.989117 0.213658 0.694386
1.000000 0.213400 0.694056
0.000000 0.376574 0.716260
0.069482 0.375138 0.716950
0.211250 0.372592 0.717419
0.377957 0.368943 0.717190
0.560856 0.364159 0.716023
0.734221 0.359487 0.712565
0.884021 0.360586 0.700125
0.994237 0.363315 0.692275
1.000000 0.364358 0.690399
0.000000 0.541430 0.699680
0.060446 0.542406 0.704344
0.193796 0.541994 0.709186
0.359734 0.538553 0.709773
0.546740 0.532896 0.705545
0.724635 0.527098 0.700000
0.884122 0.524933 0.691244
1.000000 0.525155 0.686298
1.000000 0.525497 0.685259
0.000000 0.695315 0.688153
0.069874 0.696031 0.688562
0.194905 0.698401 0.690345
0.349386 0.698463 0.689748
0.527658 0.695311 0.685935
0.704561 0.689673 0.681023
0.869265 0.685467 0.676231
0.992856 0.683503 0.674415
1.000000 0.683199 0.674162
0.000000 0.841959 0.683303
0.071708 0.841210 0.682426
0.203562 0.841807 0.681061
0.348864 0.844824 0.677327
0.517232 0.844843 0.670137
0.687409 0.841518 0.661272
0.856304 0.835622 0.660400
0.975725 0.833552 0.671781
1.000000 0.833360 0.672808
0.000000 0.966681 0.679572
0.068343 0.965892 0.678775
0.205702 0.964759 0.677643
0.354197 0.966858 0.673131
0.514263 0.969639 0.662925
0.677353 0.968637 0.651919
0.844083 0.963495 0.649947
0.972303 0.959812 0.651401
1.000000 0.958909 0.653764
0.000000 1.000000 0.678359
0.067134 1.000000 0.677567
0.204493 1.000000 0.676434
0.357308 1.000000 0.672982
0.514532 1.000000 0.661738
0.675191 1.000000 0.649998
0.840988 1.000000 0.648699
0.968769 1.000000 0.648918
1.000000 1.000000 0.649978
0.000000 0.000000 0.857348
0.092745 0.000000 0.856564
0.230104 0.000000 0.855431
0.388979 0.000000 0.854121
0.560161 0.000000 0.852710
0.721054 0.000000 0.851384
0.874503 0.000000 0.850119
0.994491 0.000000 0.849124
1.000000 0.000000 0.848841
0.000000 0.089729 0.854742
0.090139 0.088945 0.853958
0.227498 0.087812 0.852826
0.386373 0.086502 0.851516
0.557556 0.085091 0.850105
0.718457 0.083764 0.848765
0.871942 0.082500 0.847447
0.991990 0.081523 0.846378
1.000000 0.081253 0.846072
0.000000 0.221307 0.851021
0.086417 0.220522 0.850236
0.223780 0.219390 0.849098
0.382685 0.218080 0.847743
0.554511 0.216388 0.847522
0.719893 0.213266 0.851458
0.876467 0.211121 0.850674
0.988784 0.213272 0.842085
1.000000 0.213013 0.841753
0.000000 0.373504 0.846590
0.080577 0.372916 0.848955
0.217262 0.371618 0.852124
0.378086 0.369411 0.855024
0.554644 0.366178 0.857238
0.723677 0.362325 0.858465
0.884436 0.359173 0.855887
0.995349 0.362144 0.843592
1.000000 0.363250 0.840496
0.000000 0.540452 0.849191
0.060955 0.541232 0.857416
0.200303 0.539394 0.858756
0.364963 0.536389 0.858797
0.545613 0.532277 0.857969
0.718446 0.527582 0.856379
0.883726 0.523233 0.852137
1.000000 0.523620 0.842775
1.000000 0.524002 0.840543
0.000000 0.694937 0.835843
0.071192 0.695105 0.836828
0.195441 0.697188 0.843717
0.349014 0.696917 0.849029
0.527764 0.693159 0.849725
0.704030 0.687616 0.845641
0.873616 0.682020 0.840136
0.999210 0.679931 0.833576
1.000000 0.679660 0.832096
0.000000 0.841571 0.831032
0.071335 0.840819 0.830166
0.204814 0.840806 0.829964
0.349205 0.843486 0.832134
0.516597 0.843147 0.831300
0.685131 0.839799 0.827492
0.853622 0.834362 0.823261
0.982696 0.830978 0.819234
1.000000 0.830230 0.818518
0.000000 0.966273 0.827344
0.067931 0.965480 0.826550
0.205291 0.964348 0.825418
0.355182 0.965712 0.824077
0.514281 0.968139 0.820221
0.675025 0.967395 0.813569
0.839199 0.963625 0.805534
0.971821 0.958892 0.804419
1.000000 0.957836 0.807960
0.000000 1.000000 0.826134
0.066723 1.000000 0.825342
0.204082 1.000000 0.824209
0.358517 1.000000 0.822602
0.514774 1.000000 0.817708
0.672846 1.000000 0.810082
0.834781 1.000000 0.801426
0.967030 1.000000 0.798797
1.000000 1.000000 0.799325
0.000000 0.000000 0.988382
0.092380 0.000000 0.987597
0.229739 0.000000 0.986465
0.388614 0.000000 0.985155
0.559796 0.000000 0.983744
0.720689 0.000000 0.982417
0.874138 0.000000 0.981152
0.994132 0.000000 0.980150
1.000000 0.000000 0.979865
0.000000 0.089364 0.985776
0.089774 0.088580 0.984992
0.227134 0.087447 0.983859
0.386008 0.086137 0.982550
0.557191 0.084726 0.981138
0.718100 0.083400 0.979788
0.871596 0.082137 0.978455
0.991657 0.081167 0.977373
1.000000 0.080898 0.977064
0.000000 0.220942 0.982054
0.086053 0.220158 0.981270
0.223421 0.219025 0.980124
0.382335 0.217716 0.978756
0.553622 0.216329 0.977216
0.714677 0.215053 0.975708
0.868324 0.213856 0.974227
0.988487 0.212931 0.973047
1.000000 0.212674 0.972714
0.000000 0.373147 0.977588
0.081950 0.372385 0.976709
0.219459 0.371301 0.975410
0.378547 0.370066 0.973868
0.549996 0.368752 0.972174
0.713696 0.366226 0.975998
0.872639 0.363041 0.979106
0.996249 0.361050 0.978575
1.000000 0.362213 0.974401
0.000000 0.538183 0.972155
0.075477 0.537892 0.974510
0.210982 0.537021 0.977597
0.370414 0.535289 0.980433
0.545426 0.532547 0.982618
0.712958 0.529139 0.983863
0.875463 0.525134 0.984331
1.000000 0.522284 0.982311
1.000000 0.522722 0.979027
0.000000 0.694602 0.966803
0.072421 0.694347 0.967484
0.195977 0.696175 0.978901
0.353094 0.694832 0.984335
0.531814 0.691198 0.983803
0.702771 0.686939 0.982546
0.868509 0.682113 0.980644
0.998606 0.678340 0.977462
1.000000 0.678111 0.974938
0.000000 0.841226 0.962029
0.071000 0.840470 0.961175
0.205985 0.839980 0.961182
0.349568 0.842361 0.968586
0.516098 0.841706 0.973385
0.684790 0.837896 0.973697
0.853682 0.832340 0.969461
0.986954 0.827739 0.965124
1.000000 0.826902 0.963264
0.000000 0.965908 0.958377
0.067566 0.965116 0.957584
0.204926 0.963983 0.956451
0.356120 0.964758 0.957104
0.514360 0.966873 0.958877
0.674297 0.965834 0.957518
0.836954 0.962111 0.953490
0.969549 0.957634 0.949917
1.000000 0.956712 0.948577
0.000000 1.000000 0.957168
0.066358 1.000000 0.956375
0.203717 1.000000 0.955243
0.359654 1.000000 0.954453
0.515051 1.000000 0.955189
0.672317 1.000000 0.952855
0.832425 1.000000 0.947896
0.964637 1.000000 0.942422
1.000000 1.000000 0.941692
0.000000 0.000000 1.000000
0.092244 0.000000 1.000000
0.229603 0.000000 1.000000
0.388478 0.000000 1.000000
0.559661 0.000000 1.000000
0.720554 0.000000 1.000000
0.874003 0.000000 1.000000
0.993999 0.000000 1.000000
1.000000 0.000000 1.000000
0.000000 0.089228 1.000000
0.089639 0.088444 1.000000
0.226998 0.087312 1.000000
0.385873 0.086002 1.000000
0.557055 0.084590 1.000000
0.717967 0.083264 1.000000
0.871469 0.082003 1.000000
0.991535 0.081034 1.000000
1.000000 0.080766 1.000000
0.000000 0.220806 1.000000
0.085917 0.220022 1.000000
0.223288 0.218889 1.000000
0.382206 0.217581 1.000000
0.553501 0.216197 1.000000
0.714560 0.214923 1.000000
0.868211 0.213727 1.000000
0.988376 0.212803 1.000000
1.000000 0.212546 1.000000
0.000000 0.373014 1.000000
0.081830 0.372254 1.000000
0.219343 0.371171 1.000000
0.378435 0.369937 1.000000
0.549885 0.368624 1.000000
0.711050 0.367400 1.000000
0.867080 0.365211 1.000000
0.991718 0.362586 1.000000
1.000000 0.361799 1.000000
0.000000 0.538056 1.000000
0.077972 0.537325 1.000000
0.215267 0.536318 1.000000
0.372709 0.535071 1.000000
0.545558 0.532855 1.000000
0.711054 0.529940 1.000000
0.871617 0.526406 1.000000
0.999004 0.523129 1.000000
1.000000 0.522216 1.000000
0.000000 0.694473 1.000000
0.072909 0.694071 1.000000
0.196198 0.695802 1.000000
0.357018 0.693760 1.000000
0.533571 0.690650 1.000000
0.702490 0.686883 1.000000
0.866288 0.682526 1.000000
0.996201 0.678604 1.000000
1.000000 0.677514 1.000000
0.000000 0.841093 1.000000
0.070870 0.840335 1.000000
0.206449 0.839678 1.000000
0.349722 0.841945 1.000000
0.515922 0.841169 1.000000
0.686049 0.837039 1.000000
0.853005 0.831955 1.000000
0.985408 0.827479 1.000000
1.000000 0.826226 1.000000
0.000000 0.965768 1.000000
0.067426 0.964975 1.000000
0.204786 0.963843 1.000000
0.356496 0.964408 1.000000
0.514407 0.966402 1.000000
0.674034 0.965250 1.000000
0.836395 0.961420 1.000000
0.970143 0.956646 1.000000
1.000000 0.955255 1.000000
0.000000 1.000000 1.000000
0.066218 1.000000 1.000000
0.203577 1.000000 1.000000
0.360106 1.000000 1.000000
0.515174 1.000000 1.000000
0.672130 1.000000 1.000000
0.831943 1.000000 1.000000
0.963786 1.000000 1.000000
1.000000 1.000000 0.998808
