look-library/cubes/ads-clean_33.cube
TITLE "look-library ads-clean (ads)"
# look-library — baked by build_cubes.py from looks/<id>.yaml
# method: GUIDE.md section 4a
LUT_3D_SIZE 33
0.000000 0.000000 0.001805
0.017065 0.000000 0.001157
0.042623 0.000000 0.000330
0.071922 0.000000 0.000000
0.103846 0.000000 0.000000
0.137773 0.000000 0.000000
0.173293 0.000000 0.000000
0.210104 0.000000 0.000000
0.247975 0.000000 0.000000
0.286717 0.000000 0.000000
0.326173 0.000000 0.000000
0.366207 0.000000 0.000000
0.406703 0.000000 0.000000
0.447555 0.000000 0.000000
0.488665 0.000000 0.000000
0.529084 0.000000 0.000000
0.568153 0.000000 0.000000
0.605871 0.000000 0.000000
0.642232 0.000000 0.000000
0.680659 0.000000 0.000000
0.719243 0.000000 0.000000
0.756787 0.000000 0.000000
0.793211 0.000000 0.000000
0.828443 0.000000 0.000000
0.871791 0.000000 0.000000
0.909110 0.000000 0.000000
0.941112 0.000000 0.000000
0.968322 0.000000 0.000000
0.991071 0.000000 0.000000
1.000000 0.000000 0.000000
1.000000 0.000000 0.000000
1.000000 0.000000 0.000000
1.000000 0.000000 0.000000
0.000000 0.016371 0.000000
0.014914 0.015682 0.000000
0.038577 0.015207 0.000357
0.067252 0.014557 0.000000
0.099300 0.013682 0.000000
0.133502 0.012778 0.000000
0.169338 0.011907 0.000000
0.206483 0.011101 0.000000
0.244699 0.010380 0.000000
0.283795 0.009763 0.000000
0.323613 0.009265 0.000000
0.364018 0.008900 0.000000
0.404891 0.008680 0.000000
0.446128 0.008616 0.000000
0.487629 0.008721 0.000000
0.528439 0.008997 0.000000
0.567891 0.009433 0.000000
0.605982 0.010021 0.000000
0.642709 0.010750 0.000000
0.679712 0.011168 0.000000
0.718297 0.010910 0.000000
0.755841 0.010658 0.000000
0.792266 0.010414 0.000000
0.827498 0.010178 0.000000
0.870846 0.009888 0.000000
0.908165 0.009638 0.000000
0.940167 0.009423 0.000000
0.967377 0.009241 0.000000
0.990127 0.009089 0.000000
1.000000 0.008966 0.000000
1.000000 0.008878 0.000000
1.000000 0.008865 0.000000
1.000000 0.008865 0.000000
0.000000 0.039729 0.000000
0.011606 0.039063 0.000000
0.037884 0.038022 0.000000
0.065538 0.037248 0.000000
0.095036 0.036950 0.000000
0.128112 0.036377 0.000000
0.163719 0.035607 0.000000
0.201040 0.034780 0.000000
0.239616 0.033977 0.000000
0.279163 0.033246 0.000000
0.319481 0.032613 0.000000
0.360415 0.032100 0.000000
0.401838 0.031724 0.000000
0.443639 0.031498 0.000000
0.485717 0.031436 0.000000
0.527100 0.031543 0.000000
0.567113 0.031814 0.000000
0.605753 0.032239 0.000000
0.643015 0.032809 0.000000
0.678891 0.033512 0.000000
0.716910 0.033403 0.000000
0.754457 0.033151 0.000000
0.790883 0.032907 0.000000
0.826117 0.032671 0.000000
0.869466 0.032380 0.000000
0.906787 0.032130 0.000000
0.938790 0.031916 0.000000
0.966001 0.031734 0.000000
0.988751 0.031581 0.000000
1.000000 0.031458 0.000000
1.000000 0.031370 0.000000
1.000000 0.031357 0.000000
1.000000 0.031357 0.000000
0.000000 0.066657 0.000000
0.008000 0.066007 0.000000
0.034222 0.065014 0.000000
0.064414 0.063836 0.000000
0.095360 0.062821 0.000000
0.126478 0.062470 0.000000
0.160138 0.062139 0.000000
0.196310 0.061622 0.000000
0.234453 0.060962 0.000000
0.274010 0.060254 0.000000
0.314599 0.059568 0.000000
0.355961 0.058953 0.000000
0.397908 0.058441 0.000000
0.440296 0.058057 0.000000
0.483003 0.057821 0.000000
0.525030 0.057748 0.000000
0.565684 0.057836 0.000000
0.604957 0.058079 0.000000
0.642841 0.058469 0.000000
0.679326 0.058994 0.000000
0.715280 0.059417 0.000000
0.752827 0.059166 0.000000
0.789255 0.058922 0.000000
0.824490 0.058687 0.000000
0.867842 0.058397 0.000000
0.905164 0.058147 0.000000
0.937168 0.057932 0.000000
0.964381 0.057750 0.000000
0.987132 0.057598 0.000000
1.000000 0.057475 0.000000
1.000000 0.057387 0.000000
1.000000 0.057374 0.000000
1.000000 0.057374 0.000000
0.000000 0.096155 0.000000
0.004310 0.095523 0.000000
0.030438 0.094551 0.000000
0.060586 0.093444 0.000000
0.093541 0.092188 0.000000
0.127047 0.091037 0.000000
0.160190 0.090504 0.000000
0.194710 0.090236 0.000000
0.231468 0.089883 0.000000
0.270050 0.089422 0.000000
0.310200 0.088867 0.000000
0.351513 0.088283 0.000000
0.393680 0.087729 0.000000
0.436469 0.087250 0.000000
0.479701 0.086880 0.000000
0.522326 0.086648 0.000000
0.563613 0.086565 0.000000
0.603535 0.086629 0.000000
0.642072 0.086835 0.000000
0.679206 0.087177 0.000000
0.714916 0.087645 0.000000
0.751038 0.087757 0.000000
0.787463 0.087516 0.000000
0.822696 0.087282 0.000000
0.866046 0.086994 0.000000
0.903368 0.086745 0.000000
0.935374 0.086532 0.000000
0.962588 0.086351 0.000000
0.985342 0.086199 0.000000
1.000000 0.086077 0.000000
1.000000 0.085989 0.000000
1.000000 0.085976 0.000000
1.000000 0.085976 0.000000
0.000000 0.127683 0.000000
0.000674 0.127070 0.000000
0.026700 0.126121 0.000000
0.056728 0.125043 0.000000
0.089658 0.123874 0.000000
0.124750 0.122578 0.000000
0.160304 0.121359 0.000000
0.195409 0.120658 0.000000
0.231147 0.120331 0.000000
0.268496 0.120071 0.000000
0.307726 0.119716 0.000000
0.348272 0.119316 0.000000
0.390081 0.118861 0.000000
0.432841 0.118401 0.000000
0.476293 0.117985 0.000000
0.519311 0.117657 0.000000
0.561098 0.117446 0.000000
0.601589 0.117360 0.000000
0.640736 0.117402 0.000000
0.678501 0.117571 0.000000
0.714852 0.117862 0.000000
0.749752 0.118268 0.000000
0.785587 0.118175 0.000000
0.820810 0.117947 0.000000
0.864153 0.117664 0.000000
0.901472 0.117419 0.000000
0.933476 0.117209 0.000000
0.960690 0.117030 0.000000
0.983444 0.116880 0.000000
1.000000 0.116759 0.000000
1.000000 0.116672 0.000000
1.000000 0.116659 0.000000
1.000000 0.116659 0.000000
0.000000 0.160893 0.000000
0.000000 0.160301 0.000000
0.023110 0.159376 0.000000
0.053013 0.158326 0.000000
0.085801 0.157195 0.000000
0.120888 0.155994 0.000000
0.157711 0.154687 0.000000
0.194952 0.153444 0.000000
0.231812 0.152623 0.000000
0.268906 0.152198 0.000000
0.307084 0.151944 0.000000
0.346786 0.151686 0.000000
0.388074 0.151341 0.000000
0.430261 0.151011 0.000000
0.473468 0.150657 0.000000
0.516515 0.150327 0.000000
0.558535 0.150061 0.000000
0.599399 0.149881 0.000000
0.639017 0.149802 0.000000
0.677318 0.149830 0.000000
0.714246 0.149967 0.000000
0.749749 0.150209 0.000000
0.783774 0.150553 0.000000
0.818928 0.150346 0.000000
0.862248 0.150074 0.000000
0.899552 0.149837 0.000000
0.931546 0.149633 0.000000
0.958754 0.149460 0.000000
0.981505 0.149315 0.000000
0.999841 0.149198 0.000000
1.000000 0.149115 0.000000
1.000000 0.149102 0.000000
1.000000 0.149102 0.000000
0.000000 0.195537 0.000000
0.000000 0.194966 0.000000
0.019748 0.194066 0.000000
0.049523 0.193045 0.000000
0.082166 0.191947 0.000000
0.117094 0.190795 0.000000
0.153925 0.189586 0.000000
0.192191 0.188291 0.000000
0.230852 0.187054 0.000000
0.269242 0.186160 0.000000
0.307684 0.185641 0.000000
0.346839 0.185349 0.000000
0.387170 0.185127 0.000000
0.428866 0.184877 0.000000
0.471906 0.184556 0.000000
0.514561 0.184307 0.000000
0.556450 0.184069 0.000000
0.597394 0.183869 0.000000
0.637253 0.183730 0.000000
0.675913 0.183668 0.000000
0.713285 0.183690 0.000000
0.749290 0.183802 0.000000
0.783854 0.184003 0.000000
0.817150 0.184237 0.000000
0.860426 0.183985 0.000000
0.897701 0.183766 0.000000
0.929676 0.183576 0.000000
0.956871 0.183414 0.000000
0.979611 0.183278 0.000000
0.997941 0.183169 0.000000
1.000000 0.183090 0.000000
1.000000 0.183078 0.000000
1.000000 0.183078 0.000000
0.000000 0.231425 0.000000
0.000000 0.230877 0.000000
0.016685 0.230002 0.000000
0.046325 0.229011 0.000000
0.078820 0.227947 0.000000
0.113585 0.226833 0.000000
0.150247 0.225682 0.000000
0.188527 0.224485 0.000000
0.228015 0.223221 0.000000
0.267889 0.222012 0.000000
0.307605 0.221085 0.000000
0.347315 0.220495 0.000000
0.387498 0.220151 0.000000
0.428580 0.219928 0.000000
0.470790 0.219729 0.000000
0.513279 0.219501 0.000000
0.555316 0.219230 0.000000
0.596067 0.219064 0.000000
0.635878 0.218930 0.000000
0.674651 0.218836 0.000000
0.712264 0.218797 0.000000
0.748608 0.218825 0.000000
0.783585 0.218925 0.000000
0.817119 0.219098 0.000000
0.858800 0.219224 0.000000
0.896023 0.219030 0.000000
0.927959 0.218859 0.000000
0.955124 0.218712 0.000000
0.977843 0.218588 0.000000
0.996156 0.218488 0.000000
1.000000 0.218415 0.000000
1.000000 0.218405 0.000000
1.000000 0.218405 0.000000
0.000000 0.268408 0.000000
0.000000 0.267882 0.000000
0.013981 0.267035 0.000000
0.043482 0.266074 0.000000
0.075824 0.265044 0.000000
0.110424 0.263968 0.000000
0.146907 0.262862 0.000000
0.185009 0.261729 0.000000
0.224509 0.260561 0.000000
0.265046 0.259344 0.000000
0.305966 0.258182 0.000000
0.346833 0.257254 0.000000
0.387701 0.256620 0.000000
0.428909 0.256231 0.000000
0.470807 0.255989 0.000000
0.512728 0.255814 0.000000
0.554097 0.255648 0.000000
0.594899 0.255465 0.000000
0.635063 0.255259 0.000000
0.673939 0.255141 0.000000
0.711559 0.255097 0.000000
0.748036 0.255093 0.000000
0.783246 0.255137 0.000000
0.817091 0.255234 0.000000
0.858391 0.255441 0.000000
0.894606 0.255482 0.000000
0.926480 0.255335 0.000000
0.953597 0.255207 0.000000
0.976279 0.255098 0.000000
0.994565 0.255009 0.000000
1.000000 0.254944 0.000000
1.000000 0.254935 0.000000
1.000000 0.254935 0.000000
0.000000 0.306363 0.000000
0.000000 0.305861 0.000000
0.011692 0.305040 0.000000
0.041049 0.304112 0.000000
0.073234 0.303117 0.000000
0.107663 0.302079 0.000000
0.143965 0.301014 0.000000
0.181874 0.299932 0.000000
0.221193 0.298833 0.000000
0.261734 0.297709 0.000000
0.303181 0.296553 0.000000
0.345016 0.295453 0.000000
0.386889 0.294550 0.000000
0.428803 0.293901 0.000000
0.470988 0.293481 0.000000
0.512826 0.293227 0.000000
0.553870 0.293065 0.000000
0.594218 0.292940 0.000000
0.633877 0.292822 0.000000
0.672797 0.292695 0.000000
0.710899 0.292557 0.000000
0.747910 0.292441 0.000000
0.783151 0.292470 0.000000
0.817124 0.292533 0.000000
0.858702 0.292668 0.000000
0.894252 0.292849 0.000000
0.925315 0.292886 0.000000
0.952365 0.292781 0.000000
0.974994 0.292689 0.000000
0.993240 0.292614 0.000000
1.000000 0.292559 0.000000
1.000000 0.292550 0.000000
1.000000 0.292550 0.000000
0.000000 0.345185 0.000000
0.000000 0.344708 0.000000
0.009867 0.343916 0.000000
0.039077 0.343021 0.000000
0.071100 0.342062 0.000000
0.105358 0.341063 0.000000
0.141478 0.340039 0.000000
0.179196 0.339002 0.000000
0.218316 0.337958 0.000000
0.258676 0.336907 0.000000
0.300113 0.335842 0.000000
0.342355 0.334761 0.000000
0.384991 0.333740 0.000000
0.427748 0.332888 0.000000
0.470598 0.332257 0.000000
0.512796 0.331841 0.000000
0.553909 0.331587 0.000000
0.594113 0.331432 0.000000
0.633494 0.331329 0.000000
0.672063 0.331250 0.000000
0.709786 0.331177 0.000000
0.746589 0.331103 0.000000
0.782380 0.331024 0.000000
0.817065 0.330940 0.000000
0.859150 0.330962 0.000000
0.894858 0.331096 0.000000
0.925336 0.331250 0.000000
0.951484 0.331338 0.000000
0.974047 0.331266 0.000000
0.992241 0.331205 0.000000
1.000000 0.331161 0.000000
1.000000 0.331154 0.000000
1.000000 0.331154 0.000000
0.000000 0.384788 0.000000
0.000000 0.384336 0.000000
0.008563 0.383573 0.000000
0.037627 0.382711 0.000000
0.069488 0.381789 0.000000
0.103573 0.380829 0.000000
0.139509 0.379848 0.000000
0.177035 0.378856 0.000000
0.215953 0.377864 0.000000
0.256108 0.376876 0.000000
0.297367 0.375891 0.000000
0.339584 0.374904 0.000000
0.382524 0.373917 0.000000
0.425864 0.372992 0.000000
0.469389 0.372213 0.000000
0.512151 0.371633 0.000000
0.553623 0.371241 0.000000
0.593977 0.370993 0.000000
0.633337 0.370842 0.000000
0.671766 0.370752 0.000000
0.709271 0.370695 0.000000
0.745815 0.370656 0.000000
0.781329 0.370623 0.000000
0.815737 0.370592 0.000000
0.858137 0.370553 0.000000
0.894686 0.370517 0.000000
0.926051 0.370486 0.000000
0.952120 0.370581 0.000000
0.973704 0.370707 0.000000
0.991603 0.370709 0.000000
1.000000 0.370675 0.000000
1.000000 0.370670 0.000000
1.000000 0.370670 0.000000
0.000000 0.425094 0.000000
0.000000 0.424665 0.000000
0.007841 0.423932 0.000000
0.036755 0.423105 0.000000
0.068454 0.422223 0.000000
0.102366 0.421307 0.000000
0.138121 0.420373 0.000000
0.175457 0.419432 0.000000
0.214175 0.418494 0.000000
0.254120 0.417565 0.000000
0.295165 0.416648 0.000000
0.337195 0.415743 0.000000
0.380081 0.414846 0.000000
0.423623 0.413962 0.000000
0.467568 0.413143 0.000000
0.510832 0.412465 0.000000
0.552747 0.411956 0.000000
0.593419 0.411601 0.000000
0.632956 0.411369 0.000000
0.671435 0.411226 0.000000
0.708894 0.411145 0.000000
0.745323 0.411102 0.000000
0.780678 0.411082 0.000000
0.814903 0.411075 0.000000
0.857055 0.411076 0.000000
0.893382 0.411082 0.000000
0.924554 0.411088 0.000000
0.951071 0.411096 0.000000
0.973260 0.411100 0.000000
0.991331 0.411068 0.000000
1.000000 0.411044 0.000000
1.000000 0.411041 0.000000
1.000000 0.411041 0.000000
0.000000 0.466044 0.000000
0.000000 0.465637 0.000000
0.007764 0.464938 0.000000
0.036531 0.464150 0.000000
0.068067 0.463311 0.000000
0.101804 0.462441 0.000000
0.137372 0.461556 0.000000
0.174512 0.460666 0.000000
0.213024 0.459782 0.000000
0.252753 0.458909 0.000000
0.293573 0.458054 0.000000
0.335377 0.457219 0.000000
0.378063 0.456404 0.000000
0.421518 0.455607 0.000000
0.465573 0.454836 0.000000
0.509106 0.454146 0.000000
0.551360 0.453581 0.000000
0.592352 0.453151 0.000000
0.632139 0.452844 0.000000
0.670781 0.452640 0.000000
0.708317 0.452514 0.000000
0.744753 0.452443 0.000000
0.780060 0.452412 0.000000
0.814200 0.452405 0.000000
0.856434 0.452386 0.000000
0.892983 0.452350 0.000000
0.924352 0.452319 0.000000
0.951047 0.452291 0.000000
0.973383 0.452266 0.000000
0.991395 0.452245 0.000000
1.000000 0.452228 0.000000
1.000000 0.452226 0.000000
1.000000 0.452226 0.000000
0.000000 0.507079 0.000000
0.000000 0.506692 0.000000
0.008373 0.506026 0.000000
0.036989 0.505278 0.000000
0.068359 0.504481 0.000000
0.101916 0.503657 0.000000
0.137294 0.502820 0.000000
0.174233 0.501981 0.000000
0.212535 0.501150 0.000000
0.252045 0.500332 0.000000
0.292637 0.499535 0.000000
0.334204 0.498763 0.000000
0.376654 0.498019 0.000000
0.419899 0.497302 0.000000
0.463833 0.496614 0.000000
0.507389 0.495976 0.000000
0.549778 0.495422 0.000000
0.590963 0.494971 0.000000
0.630948 0.494627 0.000000
0.669757 0.494380 0.000000
0.707537 0.494210 0.000000
0.744410 0.494079 0.000000
0.780114 0.493982 0.000000
0.814607 0.493909 0.000000
0.857016 0.493841 0.000000
0.893523 0.493795 0.000000
0.924837 0.493762 0.000000
0.951475 0.493735 0.000000
0.973756 0.493713 0.000000
0.991721 0.493696 0.000000
1.000000 0.493683 0.000000
1.000000 0.493682 0.000000
1.000000 0.493682 0.000000
0.000000 0.547193 0.000000
0.000000 0.546819 0.000000
0.009634 0.546186 0.000000
0.038100 0.545476 0.000000
0.069304 0.544721 0.000000
0.102682 0.543941 0.000000
0.137870 0.543151 0.000000
0.174609 0.542362 0.000000
0.212703 0.541581 0.000000
0.251995 0.540817 0.000000
0.292361 0.540075 0.000000
0.333694 0.539361 0.000000
0.375903 0.538679 0.000000
0.418907 0.538030 0.000000
0.462623 0.537418 0.000000
0.506032 0.536856 0.000000
0.548371 0.536356 0.000000
0.589769 0.535996 0.000000
0.630163 0.535684 0.000000
0.669479 0.535412 0.000000
0.707673 0.535185 0.000000
0.744706 0.535000 0.000000
0.780530 0.534854 0.000000
0.815106 0.534741 0.000000
0.857574 0.534633 0.000000
0.894095 0.534561 0.000000
0.925398 0.534511 0.000000
0.952011 0.534475 0.000000
0.974263 0.534449 0.000000
0.992198 0.534428 0.000000
1.000000 0.534415 0.000000
1.000000 0.534414 0.000000
1.000000 0.534414 0.000000
0.000000 0.586335 0.000000
0.000000 0.585971 0.000000
0.011502 0.585370 0.000000
0.039818 0.584696 0.000000
0.070857 0.583981 0.000000
0.104058 0.583245 0.000000
0.139057 0.582501 0.000000
0.175597 0.581758 0.000000
0.213483 0.581027 0.000000
0.252560 0.580314 0.000000
0.292702 0.579625 0.000000
0.333803 0.578966 0.000000
0.375772 0.578341 0.000000
0.418516 0.577769 0.000000
0.461847 0.577431 0.000000
0.505108 0.577086 0.000000
0.547549 0.576736 0.000000
0.589091 0.576386 0.000000
0.629650 0.576050 0.000000
0.669152 0.575740 0.000000
0.707536 0.575466 0.000000
0.744745 0.575231 0.000000
0.780722 0.575035 0.000000
0.815421 0.574876 0.000000
0.858002 0.574716 0.000000
0.894587 0.574607 0.000000
0.925920 0.574531 0.000000
0.952543 0.574476 0.000000
0.974792 0.574436 0.000000
0.992719 0.574407 0.000000
1.000000 0.574388 0.000000
1.000000 0.574387 0.000000
1.000000 0.574387 0.000000
0.000000 0.624476 0.000000
0.000000 0.624119 0.000000
0.013930 0.623548 0.000000
0.042097 0.622910 0.000000
0.072972 0.622234 0.000000
0.105996 0.621540 0.000000
0.140808 0.620839 0.000000
0.177152 0.620143 0.000000
0.214832 0.619459 0.000000
0.253695 0.618795 0.000000
0.293402 0.618274 0.000000
0.333789 0.617969 0.000000
0.375220 0.617655 0.000000
0.417631 0.617331 0.000000
0.460962 0.616997 0.000000
0.504229 0.616657 0.000000
0.546695 0.616316 0.000000
0.588301 0.615972 0.000000
0.628967 0.615628 0.000000
0.668610 0.615296 0.000000
0.707155 0.614989 0.000000
0.744530 0.614714 0.000000
0.780664 0.614474 0.000000
0.815505 0.614269 0.000000
0.858234 0.614055 0.000000
0.894920 0.613902 0.000000
0.926318 0.613791 0.000000
0.952980 0.613711 0.000000
0.975252 0.613651 0.000000
0.993191 0.613608 0.000000
1.000000 0.613580 0.000000
1.000000 0.613579 0.000000
1.000000 0.613579 0.000000
0.000000 0.661584 0.000000
0.000000 0.661230 0.000000
0.016869 0.660689 0.000000
0.044889 0.660085 0.000000
0.075602 0.659447 0.000000
0.108451 0.658793 0.000000
0.143078 0.658135 0.000000
0.178451 0.657839 0.000000
0.215204 0.657561 0.000000
0.253269 0.657274 0.000000
0.292538 0.656977 0.000000
0.332924 0.656672 0.000000
0.374352 0.656358 0.000000
0.416760 0.656035 0.000000
0.460086 0.655703 0.000000
0.503351 0.655366 0.000000
0.545823 0.655030 0.000000
0.587452 0.654691 0.000000
0.628175 0.654351 0.000000
0.667912 0.654013 0.000000
0.706577 0.653687 0.000000
0.744091 0.653383 0.000000
0.780370 0.653107 0.000000
0.815350 0.652863 0.000000
0.858241 0.652596 0.000000
0.895049 0.652398 0.000000
0.926536 0.652250 0.000000
0.953261 0.652140 0.000000
0.975575 0.652057 0.000000
0.993541 0.651996 0.000000
1.000000 0.651956 0.000000
1.000000 0.651955 0.000000
1.000000 0.651955 0.000000
0.000000 0.697627 0.000000
0.000000 0.697267 0.000000
0.020102 0.696823 0.000000
0.047090 0.696620 0.000000
0.076764 0.696396 0.000000
0.108610 0.696155 0.000000
0.142301 0.695901 0.000000
0.177608 0.695634 0.000000
0.214359 0.695357 0.000000
0.252422 0.695069 0.000000
0.291688 0.694772 0.000000
0.332071 0.694466 0.000000
0.373495 0.694152 0.000000
0.415897 0.693828 0.000000
0.459217 0.693496 0.000000
0.502475 0.693161 0.000000
0.544944 0.692826 0.000000
0.586578 0.692491 0.000000
0.627323 0.692156 0.000000
0.667111 0.691819 0.000000
0.705857 0.691486 0.000000
0.743474 0.691164 0.000000
0.779871 0.690863 0.000000
0.814976 0.690588 0.000000
0.858023 0.690277 0.000000
0.894959 0.690036 0.000000
0.926547 0.689852 0.000000
0.953347 0.689710 0.000000
0.975718 0.689602 0.000000
0.993725 0.689522 0.000000
1.000000 0.689468 0.000000
1.000000 0.689466 0.000000
1.000000 0.689466 0.000000
0.000000 0.733951 0.000000
0.000000 0.733828 0.000000
0.019281 0.733652 0.000000
0.046268 0.733448 0.000000
0.075941 0.733224 0.000000
0.107786 0.732984 0.000000
0.141475 0.732729 0.000000
0.176779 0.732462 0.000000
0.213527 0.732184 0.000000
0.251586 0.731895 0.000000
0.290849 0.731597 0.000000
0.331226 0.731290 0.000000
0.372644 0.730974 0.000000
0.415039 0.730649 0.000000
0.458351 0.730315 0.000000
0.501600 0.729979 0.000000
0.544061 0.729645 0.000000
0.585690 0.729312 0.000000
0.626439 0.728979 0.000000
0.666247 0.728645 0.000000
0.705038 0.728312 0.000000
0.742725 0.727983 0.000000
0.779211 0.727666 0.000000
0.814416 0.727368 0.000000
0.857600 0.727021 0.000000
0.894659 0.726745 0.000000
0.926350 0.726526 0.000000
0.953235 0.726355 0.000000
0.975673 0.726222 0.000000
0.993730 0.726122 0.000000
1.000000 0.726054 0.000000
1.000000 0.726052 0.000000
1.000000 0.726052 0.000000
0.000000 0.769743 0.000000
0.000000 0.769619 0.000000
0.018478 0.769443 0.000000
0.045463 0.769239 0.000000
0.075134 0.769014 0.000000
0.106976 0.768773 0.000000
0.140661 0.768518 0.000000
0.175962 0.768250 0.000000
0.212705 0.767970 0.000000
0.250759 0.767680 0.000000
0.290016 0.767380 0.000000
0.330386 0.767071 0.000000
0.371797 0.766753 0.000000
0.414183 0.766426 0.000000
0.457485 0.766090 0.000000
0.500724 0.765752 0.000000
0.543174 0.765416 0.000000
0.584794 0.765082 0.000000
0.625537 0.764750 0.000000
0.665348 0.764418 0.000000
0.704157 0.764086 0.000000
0.741884 0.763756 0.000000
0.778430 0.763431 0.000000
0.813714 0.763119 0.000000
0.857015 0.762746 0.000000
0.894186 0.762440 0.000000
0.925976 0.762193 0.000000
0.952946 0.761995 0.000000
0.975452 0.761839 0.000000
0.993563 0.761720 0.000000
1.000000 0.761638 0.000000
1.000000 0.761636 0.000000
1.000000 0.761636 0.000000
0.000000 0.804412 0.000000
0.000000 0.804288 0.000000
0.017690 0.804111 0.000000
0.044673 0.803906 0.000000
0.074340 0.803681 0.000000
0.106178 0.803438 0.000000
0.139859 0.803181 0.000000
0.175154 0.802912 0.000000
0.211891 0.802631 0.000000
0.249939 0.802338 0.000000
0.289188 0.802036 0.000000
0.329550 0.801725 0.000000
0.370951 0.801404 0.000000
0.413328 0.801073 0.000000
0.456619 0.800734 0.000000
0.499846 0.800393 0.000000
0.542283 0.800055 0.000000
0.583891 0.799719 0.000000
0.624624 0.799386 0.000000
0.664430 0.799053 0.000000
0.703245 0.798722 0.000000
0.740993 0.798392 0.000000
0.777580 0.798066 0.000000
0.812921 0.797745 0.000000
0.856312 0.797354 0.000000
0.893577 0.797027 0.000000
0.925458 0.796759 0.000000
0.952508 0.796542 0.000000
0.975084 0.796368 0.000000
0.993251 0.796235 0.000000
1.000000 0.796143 0.000000
1.000000 0.796140 0.000000
1.000000 0.796140 0.000000
0.000000 0.843796 0.000000
0.000000 0.843671 0.000000
0.016777 0.843493 0.000000
0.043755 0.843287 0.000000
0.073417 0.843060 0.000000
0.105249 0.842816 0.000000
0.138923 0.842557 0.000000
0.174210 0.842284 0.000000
0.210939 0.842000 0.000000
0.248977 0.841705 0.000000
0.288216 0.841400 0.000000
0.328567 0.841084 0.000000
0.369956 0.840759 0.000000
0.412318 0.840425 0.000000
0.455595 0.840081 0.000000
0.498806 0.839735 0.000000
0.541229 0.839393 0.000000
0.582826 0.839053 0.000000
0.623550 0.838717 0.000000
0.663350 0.838382 0.000000
0.702165 0.838050 0.000000
0.739921 0.837719 0.000000
0.776534 0.837394 0.000000
0.811920 0.837074 0.000000
0.855395 0.836676 0.000000
0.892754 0.836338 0.000000
0.924726 0.836055 0.000000
0.951861 0.835822 0.000000
0.974511 0.835634 0.000000
0.992738 0.835487 0.000000
1.000000 0.835385 0.000000
1.000000 0.835382 0.000000
1.000000 0.835382 0.000000
0.000000 0.882502 0.000000
0.000000 0.882376 0.000000
0.015855 0.882196 0.000000
0.042827 0.881988 0.000000
0.072482 0.881759 0.000000
0.104306 0.881512 0.000000
0.137972 0.881251 0.000000
0.173249 0.880975 0.000000
0.209968 0.880688 0.000000
0.247995 0.880389 0.000000
0.287221 0.880079 0.000000
0.327559 0.879759 0.000000
0.368934 0.879429 0.000000
0.411284 0.879090 0.000000
0.454548 0.878740 0.000000
0.497750 0.878389 0.000000
0.540163 0.878041 0.000000
0.581749 0.877697 0.000000
0.622464 0.877356 0.000000
0.662259 0.877020 0.000000
0.701074 0.876689 0.000000
0.738839 0.876363 0.000000
0.775468 0.876042 0.000000
0.810882 0.875727 0.000000
0.854416 0.875333 0.000000
0.891844 0.874991 0.000000
0.923889 0.874700 0.000000
0.951094 0.874457 0.000000
0.973806 0.874258 0.000000
0.992088 0.874101 0.000000
1.000000 0.873991 0.000000
1.000000 0.873988 0.000000
1.000000 0.873988 0.000000
0.000000 0.915850 0.000000
0.000000 0.915723 0.000000
0.015035 0.915542 0.000000
0.042001 0.915332 0.000000
0.071649 0.915100 0.000000
0.103465 0.914851 0.000000
0.137122 0.914586 0.000000
0.172390 0.914308 0.000000
0.209098 0.914017 0.000000
0.247113 0.913714 0.000000
0.286329 0.913400 0.000000
0.326658 0.913075 0.000000
0.368025 0.912741 0.000000
0.410367 0.912396 0.000000
0.453623 0.912041 0.000000
0.496815 0.911684 0.000000
0.539223 0.911333 0.000000
0.580805 0.910988 0.000000
0.621520 0.910648 0.000000
0.661315 0.910314 0.000000
0.700132 0.909986 0.000000
0.737900 0.909663 0.000000
0.774536 0.909345 0.000000
0.809964 0.909034 0.000000
0.853529 0.908645 0.000000
