look-library/cubes/ads-warm_33.cube
TITLE "look-library ads-warm (ads)"
# look-library — baked by build_cubes.py from looks/<id>.yaml
# method: GUIDE.md section 4a
LUT_3D_SIZE 5
0.007841 0.008496 0.013644
0.291217 0.001487 0.006253
0.627406 0.001234 0.005703
0.957374 0.000000 0.003476
1.000000 0.000000 0.002700
0.000000 0.244410 0.000000
0.270594 0.234853 0.000000
0.612012 0.231311 0.001959
0.938124 0.230591 0.002304
1.000000 0.230149 0.000810
0.000000 0.551943 0.000000
0.255627 0.545851 0.000000
0.613758 0.541130 0.000000
0.943672 0.540565 0.000000
1.000000 0.540781 0.000000
0.000000 0.871379 0.000000
0.258421 0.869175 0.000000
0.610999 0.865618 0.000000
0.947238 0.861258 0.000000
1.000000 0.860486 0.000000
0.000000 1.000000 0.000000
0.253990 1.000000 0.000000
0.604984 1.000000 0.000000
0.941984 1.000000 0.000000
1.000000 1.000000 0.000000
0.005615 0.006239 0.238136
0.295311 0.000000 0.229255
0.634181 0.000000 0.212786
0.963123 0.000000 0.207824
1.000000 0.000000 0.206905
0.000000 0.241809 0.212348
0.266997 0.233342 0.206406
0.627153 0.226686 0.198837
0.948668 0.227635 0.198951
1.000000 0.227123 0.197629
0.000000 0.550178 0.187595
0.244486 0.549718 0.168644
0.617104 0.541174 0.170185
0.945208 0.540378 0.185980
1.000000 0.540553 0.185974
0.000000 0.870875 0.170152
0.257214 0.868950 0.164088
0.610232 0.864849 0.160138
0.946393 0.860507 0.161011
1.000000 0.859772 0.163106
0.000000 1.000000 0.161682
0.253184 1.000000 0.158328
0.604172 1.000000 0.154059
0.941206 1.000000 0.151191
1.000000 1.000000 0.151688
0.005238 0.005819 0.513773
0.281753 0.000000 0.516056
0.635753 0.000000 0.504068
0.963378 0.000000 0.493204
1.000000 0.000000 0.492234
0.000000 0.237649 0.515018
0.266366 0.230007 0.511665
0.636874 0.220980 0.498103
0.955892 0.224769 0.481139
1.000000 0.224166 0.479540
0.000000 0.547990 0.480535
0.239829 0.548419 0.472709
0.614953 0.540155 0.464697
0.958123 0.537198 0.456628
1.000000 0.537207 0.456115
0.000000 0.870105 0.454861
0.247231 0.871286 0.444355
0.599538 0.868395 0.426872
0.947782 0.859779 0.434503
1.000000 0.858815 0.439558
0.000000 1.000000 0.447037
0.252012 1.000000 0.443743
0.595954 1.000000 0.428269
0.940024 1.000000 0.433536
1.000000 1.000000 0.435801
0.004707 0.005277 0.804854
0.274150 0.001995 0.801572
0.625136 0.000000 0.797297
0.962192 0.000000 0.793191
1.000000 0.000000 0.792207
0.000000 0.234241 0.795194
0.264442 0.230732 0.794317
0.623289 0.223628 0.798371
0.955889 0.223836 0.780320
1.000000 0.223233 0.778673
0.000000 0.545996 0.785057
0.241759 0.545089 0.791987
0.618782 0.536419 0.782580
0.974737 0.530572 0.764087
1.000000 0.531014 0.760350
0.000000 0.869244 0.754203
0.248791 0.868899 0.750276
0.589337 0.868476 0.740259
0.946040 0.858196 0.739462
1.000000 0.857726 0.741456
0.000000 1.000000 0.747008
0.250781 1.000000 0.743713
0.582097 1.000000 0.728824
0.936281 1.000000 0.715764
1.000000 1.000000 0.716553
0.003754 0.004324 1.000000
0.273197 0.001042 1.000000
0.624183 0.000000 1.000000
0.961250 0.000000 1.000000
1.000000 0.000000 1.000000
0.000000 0.233288 1.000000
0.263590 0.230006 1.000000
0.615717 0.226123 1.000000
0.955750 0.223216 1.000000
1.000000 0.222648 1.000000
0.000000 0.543280 1.000000
0.256260 0.541689 1.000000
0.615571 0.537254 1.000000
0.972065 0.529471 1.000000
1.000000 0.528876 1.000000
0.000000 0.868536 0.986077
0.250068 0.867174 0.984873
0.587765 0.865683 0.992576
0.951420 0.854033 0.984880
1.000000 0.851821 0.982010
0.000000 1.000000 0.979276
0.249828 1.000000 0.975982
0.581551 1.000000 0.975063
0.931378 1.000000 0.965196
1.000000 1.000000 0.962793
