look-library/cubes/ads-warm_33.cube
TITLE "look-library ads-warm (ads)"
# look-library — baked by build_cubes.py from looks/<id>.yaml
# method: GUIDE.md section 4a
LUT_3D_SIZE 9
0.007841 0.008496 0.013644
0.132568 0.004666 0.009581
0.291217 0.001487 0.006253
0.461220 0.000148 0.004765
0.627406 0.001234 0.005703
0.802893 0.000579 0.005009
0.957374 0.000000 0.003476
1.000000 0.000000 0.002702
1.000000 0.000000 0.002700
0.000000 0.109812 0.000000
0.121326 0.105036 0.000000
0.272728 0.102906 0.006103
0.447275 0.100400 0.002794
0.621756 0.099142 0.002536
0.793824 0.099275 0.004096
0.948324 0.097756 0.002385
1.000000 0.096985 0.001496
1.000000 0.096984 0.001494
0.000000 0.244410 0.000000
0.106334 0.240216 0.000000
0.270594 0.234853 0.000000
0.439017 0.232332 0.000135
0.612012 0.231311 0.001959
0.786978 0.230797 0.002753
0.938124 0.230591 0.002304
1.000000 0.230150 0.000813
1.000000 0.230149 0.000810
0.000000 0.394123 0.000000
0.095439 0.390462 0.000000
0.258066 0.385981 0.000000
0.437512 0.381714 0.000000
0.612314 0.379858 0.000000
0.786714 0.380028 0.000000
0.938063 0.380383 0.000000
1.000000 0.380781 0.000000
1.000000 0.380782 0.000000
0.000000 0.551943 0.000000
0.094738 0.549079 0.000000
0.255627 0.545851 0.000000
0.433721 0.543095 0.000000
0.613758 0.541130 0.000000
0.792419 0.540409 0.000000
0.943672 0.540565 0.000000
1.000000 0.540780 0.000000
1.000000 0.540781 0.000000
0.000000 0.701004 0.000000
0.103636 0.699472 0.000000
0.259349 0.698420 0.000000
0.434255 0.697208 0.000000
0.614439 0.695819 0.000000
0.796231 0.694173 0.000000
0.949448 0.693075 0.000000
1.000000 0.692816 0.000000
1.000000 0.692816 0.000000
0.000000 0.871379 0.000000
0.103354 0.870470 0.000000
0.258421 0.869175 0.000000
0.432247 0.867547 0.000000
0.610999 0.865618 0.000000
0.792239 0.863332 0.000000
0.947238 0.861258 0.000000
1.000000 0.860486 0.000000
1.000000 0.860486 0.000000
0.000000 0.982405 0.000000
0.101288 0.981241 0.000000
0.255401 0.979537 0.000000
0.428206 0.977441 0.000000
0.606416 0.975264 0.000000
0.787665 0.973007 0.000000
0.943334 0.970970 0.000000
1.000000 0.970132 0.000000
1.000000 0.970132 0.000000
0.000000 1.000000 0.000000
0.100200 1.000000 0.000000
0.253990 1.000000 0.000000
0.426776 1.000000 0.000000
0.604984 1.000000 0.000000
0.786235 1.000000 0.000000
0.941984 1.000000 0.000000
1.000000 1.000000 0.000000
1.000000 1.000000 0.000000
0.006707 0.007349 0.110432
0.134068 0.002787 0.105866
0.295790 0.000000 0.098816
0.466494 0.000000 0.093783
0.631711 0.000000 0.091736
0.806142 0.000000 0.090326
0.960795 0.000000 0.088684
1.000000 0.000000 0.087864
1.000000 0.000000 0.087863
0.000000 0.108599 0.097120
0.119224 0.104297 0.094076
0.282031 0.100041 0.089181
0.457608 0.097160 0.086543
0.629523 0.096659 0.086347
0.798499 0.097735 0.087681
0.952995 0.096202 0.086112
1.000000 0.095428 0.085272
1.000000 0.095427 0.085270
0.000000 0.243303 0.081405
0.103405 0.240096 0.075384
0.270126 0.234112 0.076077
0.438463 0.232078 0.086375
0.615282 0.230296 0.084482
0.791440 0.229570 0.084458
0.942024 0.229556 0.084293
1.000000 0.229052 0.082866
1.000000 0.229051 0.082863
0.000000 0.393136 0.070166
0.090183 0.391554 0.062689
0.255770 0.386413 0.059934
0.438183 0.381409 0.063510
0.612597 0.379648 0.077124
0.788653 0.379664 0.079541
0.939590 0.380128 0.079985
1.000000 0.380586 0.080374
1.000000 0.380586 0.080373
0.000000 0.551183 0.063692
0.087316 0.551576 0.054300
0.251139 0.547671 0.052971
0.432523 0.544146 0.052381
0.615280 0.541288 0.057692
0.792802 0.540346 0.068369
0.942886 0.540719 0.072957
1.000000 0.540945 0.073126
1.000000 0.540946 0.073125
0.000000 0.700832 0.061848
0.095920 0.702448 0.052329
0.256930 0.699380 0.053284
0.434262 0.697026 0.053599
0.614416 0.695639 0.050422
0.796091 0.693985 0.052039
0.948883 0.692955 0.057354
1.000000 0.692735 0.059519
1.000000 0.692736 0.059519
0.000000 0.871187 0.050668
0.103304 0.870267 0.048353
0.258312 0.868951 0.045539
0.432054 0.867293 0.042771
0.610712 0.865325 0.040386
0.791934 0.863034 0.039149
0.946914 0.860964 0.041460
1.000000 0.860204 0.043425
1.000000 0.860204 0.043425
0.000000 0.982163 0.043735
0.101072 0.980974 0.041998
0.255103 0.979231 0.039950
0.427891 0.977127 0.037845
0.606098 0.974952 0.035700
0.787347 0.972704 0.033820
0.943036 0.970673 0.033667
1.000000 0.969835 0.034569
1.000000 0.969835 0.034569
0.000000 1.000000 0.041931
0.099908 1.000000 0.040395
0.253675 1.000000 0.038519
0.426461 1.000000 0.036415
0.604667 1.000000 0.034263
0.785915 1.000000 0.032295
0.941681 1.000000 0.031692
1.000000 1.000000 0.032231
1.000000 1.000000 0.032231
0.005615 0.006239 0.238136
0.130591 0.002182 0.235581
0.295311 0.000000 0.229255
0.467801 0.000000 0.219645
0.634181 0.000000 0.212786
0.807952 0.000000 0.209672
0.963123 0.000000 0.207824
1.000000 0.000000 0.206907
1.000000 0.000000 0.206905
0.000000 0.106820 0.229683
0.119134 0.102453 0.226097
0.286954 0.096864 0.219649
0.464784 0.093809 0.212096
0.636344 0.093859 0.207490
0.802732 0.096013 0.205757
0.957543 0.094409 0.203986
1.000000 0.093607 0.203057
1.000000 0.093606 0.203055
0.000000 0.241809 0.212348
0.101437 0.238697 0.208530
0.266997 0.233342 0.206406
0.447470 0.229271 0.201154
0.627153 0.226686 0.198837
0.800722 0.226813 0.198935
0.948668 0.227635 0.198951
1.000000 0.227124 0.197631
1.000000 0.227123 0.197629
0.000000 0.391807 0.197824
0.088000 0.390645 0.191711
0.252164 0.386540 0.183716
0.438191 0.380652 0.186185
0.612198 0.379479 0.195808
0.791893 0.378920 0.193691
0.944063 0.379161 0.192980
1.000000 0.379763 0.193442
1.000000 0.379764 0.193440
0.000000 0.550178 0.187595
0.084687 0.551568 0.178104
0.244486 0.549718 0.168644
0.430388 0.545145 0.165389
0.617104 0.541174 0.170185
0.794598 0.540060 0.182587
0.945208 0.540378 0.185980
1.000000 0.540552 0.185975
1.000000 0.540553 0.185974
0.000000 0.700069 0.182436
0.091564 0.703621 0.170269
0.247146 0.703167 0.161256
0.429426 0.699400 0.160790
0.613891 0.696262 0.161860
0.796284 0.693748 0.169307
0.947781 0.692806 0.176935
1.000000 0.692661 0.178845
1.000000 0.692661 0.178845
0.000000 0.870875 0.170152
0.103171 0.869934 0.167887
0.257214 0.868950 0.164088
0.431711 0.866874 0.162481
0.610232 0.864849 0.160138
0.791453 0.862567 0.158676
0.946393 0.860507 0.161011
1.000000 0.859772 0.163106
1.000000 0.859772 0.163106
0.000000 0.981763 0.163415
0.100693 0.980537 0.161733
0.254613 0.978741 0.159757
0.427399 0.976636 0.157653
0.605602 0.974463 0.155492
0.786849 0.972228 0.153492
0.942569 0.970208 0.153134
1.000000 0.969371 0.154038
1.000000 0.969371 0.154038
0.000000 1.000000 0.161682
0.099421 1.000000 0.160200
0.253184 1.000000 0.158328
0.425969 1.000000 0.156223
0.604172 1.000000 0.154059
0.785415 1.000000 0.151997
0.941206 1.000000 0.151191
1.000000 1.000000 0.151688
1.000000 1.000000 0.151688
0.005043 0.005647 0.375102
0.126608 0.002422 0.374352
0.290214 0.000000 0.372808
0.467688 0.000000 0.363940
0.635123 0.000000 0.351841
0.808084 0.000000 0.346297
0.963706 0.000000 0.344375
1.000000 0.000000 0.343407
1.000000 0.000000 0.343405
0.000000 0.104974 0.371920
0.117581 0.101439 0.370139
0.283040 0.096194 0.367225
0.464626 0.092107 0.358847
0.637890 0.092190 0.348882
0.803813 0.094987 0.342166
0.959298 0.093208 0.340155
1.000000 0.092332 0.339098
1.000000 0.092331 0.339096
0.000000 0.240158 0.360993
0.100659 0.236732 0.359702
0.268614 0.230932 0.354942
0.455747 0.225138 0.347158
0.636511 0.222771 0.339803
0.808772 0.223868 0.335206
0.954241 0.225731 0.332969
1.000000 0.225201 0.331514
1.000000 0.225201 0.331513
0.000000 0.390345 0.342712
0.087217 0.389017 0.339947
0.249398 0.385403 0.333836
0.434969 0.380111 0.332588
0.619936 0.377338 0.326481
0.803444 0.375837 0.322951
0.953874 0.376606 0.322398
1.000000 0.377659 0.322812
1.000000 0.377660 0.322810
0.000000 0.549095 0.328210
0.084947 0.550316 0.322121
0.240145 0.549964 0.311760
0.427309 0.545612 0.302878
0.617840 0.540568 0.307144
0.794718 0.539895 0.316868
0.948257 0.539748 0.315976
1.000000 0.539829 0.315612
1.000000 0.539830 0.315611
0.000000 0.699491 0.319029
0.092524 0.702609 0.310590
0.240171 0.704967 0.296972
0.422664 0.701798 0.289659
0.612316 0.697375 0.287697
0.798686 0.693541 0.295797
0.949551 0.692359 0.306900
1.000000 0.692255 0.309586
1.000000 0.692255 0.309585
0.000000 0.870512 0.306424
0.102993 0.869544 0.304219
0.246493 0.872539 0.291397
0.423031 0.870032 0.287139
0.607052 0.865851 0.288995
0.790822 0.862325 0.292348
0.945768 0.859992 0.297379
1.000000 0.859302 0.299648
1.000000 0.859302 0.299648
0.000000 0.981293 0.299917
0.100225 0.980021 0.298295
0.252710 0.978703 0.295146
0.425289 0.976746 0.292190
0.605039 0.973904 0.292106
0.786278 0.971682 0.289999
0.942035 0.969678 0.289371
1.000000 0.968843 0.290280
1.000000 0.968843 0.290280
0.000000 1.000000 0.298262
0.098861 1.000000 0.296823
0.252623 1.000000 0.294950
0.425408 1.000000 0.292845
0.603609 1.000000 0.290676
0.784845 1.000000 0.288534
0.940662 1.000000 0.287474
1.000000 1.000000 0.287909
1.000000 1.000000 0.287909
0.005238 0.005819 0.513773
0.123086 0.003501 0.514988
0.281753 0.000000 0.516056
0.462805 0.000000 0.516513
0.635753 0.000000 0.504068
0.807581 0.000000 0.495114
0.963378 0.000000 0.493204
1.000000 0.000000 0.492236
1.000000 0.000000 0.492234
0.000000 0.103779 0.516332
0.116707 0.101151 0.516516
0.277226 0.097111 0.516214
0.460360 0.091827 0.515131
0.638126 0.090713 0.503769
0.803502 0.094285 0.490986
0.959305 0.092421 0.488907
1.000000 0.091513 0.487775
1.000000 0.091511 0.487773
0.000000 0.237649 0.515018
0.103351 0.234603 0.513813
0.266366 0.230007 0.511665
0.452363 0.224097 0.508403
0.636874 0.220980 0.498103
0.811044 0.222239 0.487388
0.955892 0.224769 0.481139
1.000000 0.224166 0.479541
1.000000 0.224166 0.479540
0.000000 0.388817 0.499678
0.086479 0.387330 0.500534
0.248614 0.383404 0.498584
0.439216 0.377274 0.491693
0.632373 0.372532 0.481648
0.815716 0.371593 0.473522
0.963877 0.373427 0.469340
1.000000 0.375051 0.468180
1.000000 0.375052 0.468179
0.000000 0.547990 0.480535
0.085313 0.549026 0.478158
0.239829 0.548419 0.472709
0.423979 0.545018 0.463500
0.614953 0.540155 0.464697
0.800412 0.538399 0.459703
0.958123 0.537198 0.456628
1.000000 0.537206 0.456117
1.000000 0.537207 0.456115
0.000000 0.699150 0.467293
0.093624 0.701567 0.462631
0.240505 0.703632 0.454005
0.415752 0.703100 0.441532
0.609753 0.697769 0.435158
0.799256 0.692836 0.444105
0.949492 0.691971 0.453034
1.000000 0.691700 0.453499
1.000000 0.691700 0.453499
0.000000 0.870105 0.454861
0.102765 0.869106 0.452726
0.247231 0.871286 0.444355
0.411420 0.873424 0.429428
0.599538 0.868395 0.426872
0.789145 0.863458 0.427013
0.947782 0.859779 0.434503
1.000000 0.858815 0.439558
1.000000 0.858815 0.439558
0.000000 0.980760 0.448605
0.099670 0.979437 0.447052
0.253442 0.977569 0.445173
0.410969 0.981475 0.428462
0.596213 0.977104 0.427352
0.783348 0.972753 0.428960
0.941643 0.969612 0.432126
1.000000 0.968496 0.434973
1.000000 0.968496 0.434973
0.000000 1.000000 0.447037
0.098250 1.000000 0.445616
0.252012 1.000000 0.443743
0.411578 1.000000 0.428949
0.595954 1.000000 0.428269
0.782328 1.000000 0.430421
0.940024 1.000000 0.433536
1.000000 1.000000 0.435801
1.000000 1.000000 0.435801
0.005328 0.005898 0.653599
0.121009 0.004489 0.652190
0.274771 0.002616 0.650317
0.449652 0.000000 0.651685
0.633712 0.000000 0.654358
0.806979 0.000000 0.643834
0.962808 0.000000 0.641934
1.000000 0.000000 0.640968
1.000000 0.000000 0.640966
0.001156 0.103436 0.649732
0.116683 0.101714 0.651880
0.272265 0.098878 0.654190
0.449852 0.094946 0.656041
0.636059 0.090067 0.657125
0.804516 0.093085 0.640774
0.958837 0.091796 0.637554
1.000000 0.090906 0.636363
1.000000 0.090905 0.636361
0.000000 0.235467 0.656148
0.106892 0.233326 0.656908
0.264976 0.229934 0.657360
0.445450 0.225375 0.656995
0.635048 0.219959 0.655464
0.811852 0.220978 0.640416
0.955995 0.224263 0.629488
1.000000 0.223641 0.627860
1.000000 0.223642 0.627859
0.000000 0.387374 0.655674
0.089731 0.385065 0.655332
0.251552 0.381375 0.652861
0.436723 0.376642 0.648931
0.631339 0.371048 0.643661
0.817197 0.369944 0.630188
0.966894 0.371867 0.620779
1.000000 0.373608 0.617248
1.000000 0.373609 0.617246
0.000000 0.546963 0.631935
0.085761 0.547810 0.633276
0.239588 0.546944 0.632745
0.423033 0.543220 0.628987
0.621911 0.536989 0.620432
0.816201 0.533099 0.610328
0.972442 0.532540 0.604828
1.000000 0.533005 0.603285
1.000000 0.533006 0.603284
0.000000 0.698810 0.615484
0.094779 0.700587 0.613783
0.240887 0.702355 0.610152
0.415231 0.701478 0.603321
0.606332 0.697281 0.593599
0.796074 0.692484 0.599604
0.953337 0.690631 0.596723
1.000000 0.689759 0.595581
1.000000 0.689759 0.595581
0.000000 0.869685 0.603249
0.102498 0.868652 0.601191
0.247991 0.870080 0.596434
0.411192 0.871831 0.587170
0.591180 0.870084 0.575622
0.786596 0.863759 0.572409
0.948628 0.859004 0.580559
1.000000 0.858088 0.586616
1.000000 0.858088 0.586616
0.000000 0.980207 0.597244
0.099070 0.978832 0.595761
0.252832 0.976959 0.593888
0.411184 0.980004 0.583275
0.584882 0.980327 0.569654
0.777829 0.974564 0.568152
0.941156 0.970199 0.568622
1.000000 0.968548 0.571636
1.000000 0.968548 0.571636
0.000000 1.000000 0.595753
0.097640 1.000000 0.594331
0.251402 1.000000 0.592459
0.411948 1.000000 0.582843
0.583704 1.000000 0.568579
0.775892 1.000000 0.567635
0.938611 1.000000 0.567991
1.000000 1.000000 0.569738
1.000000 1.000000 0.569738
0.004707 0.005277 0.804854
0.120388 0.003868 0.803445
0.274150 0.001995 0.801572
0.446935 0.000000 0.799467
0.625136 0.000000 0.797297
0.806359 0.000000 0.795089
0.962192 0.000000 0.793191
1.000000 0.000000 0.792209
1.000000 0.000000 0.792207
0.000591 0.102824 0.800738
0.116272 0.101415 0.799329
0.270034 0.099542 0.797456
0.442820 0.097437 0.795352
0.621020 0.095267 0.793181
0.805469 0.091803 0.793970
0.958342 0.091209 0.788677
1.000000 0.090351 0.787425
1.000000 0.090349 0.787422
0.000000 0.234241 0.795194
0.110728 0.232832 0.793785
0.264442 0.230732 0.794317
0.439314 0.227555 0.796898
0.623289 0.223628 0.798371
0.812552 0.219678 0.796852
0.955889 0.223836 0.780320
1.000000 0.223232 0.778674
1.000000 0.223233 0.778673
0.000000 0.384130 0.797657
0.098518 0.382615 0.798418
0.255435 0.380200 0.798602
0.435066 0.376883 0.797715
0.623938 0.372733 0.795640
0.817490 0.368549 0.790375
0.968084 0.370734 0.775874
1.000000 0.372569 0.770052
1.000000 0.372569 0.770050
0.000000 0.545996 0.785057
0.086299 0.546649 0.790186
0.241759 0.545089 0.791987
0.425745 0.541259 0.787801
0.618782 0.536419 0.782580
0.816336 0.531290 0.774822
0.974737 0.530572 0.764087
1.000000 0.531014 0.760351
1.000000 0.531014 0.760350
0.000000 0.698463 0.766210
0.096007 0.699652 0.766686
0.241320 0.701115 0.768140
0.414736 0.699884 0.767054
0.604753 0.695367 0.762968
0.805710 0.688569 0.754810
0.969794 0.684950 0.748355
1.000000 0.684182 0.746631
1.000000 0.684182 0.746631
0.000000 0.869244 0.754203
0.102185 0.868173 0.752227
0.248791 0.868899 0.750276
0.410980 0.870255 0.746769
0.589337 0.868476 0.740259
0.783124 0.863178 0.731674
0.946040 0.858196 0.739462
1.000000 0.857726 0.741456
1.000000 0.857726 0.741456
0.000000 0.979622 0.748452
0.098449 0.978211 0.747016
0.252211 0.976338 0.745143
0.411471 0.978575 0.739859
0.583219 0.979004 0.730937
0.771349 0.975528 0.720964
0.939798 0.969965 0.718215
1.000000 0.967800 0.721477
1.000000 0.967800 0.721477
0.000000 1.000000 0.747008
0.097019 1.000000 0.745586
0.250781 1.000000 0.743713
0.412393 1.000000 0.738493
0.582097 1.000000 0.728824
0.768477 1.000000 0.718422
0.936281 1.000000 0.715764
1.000000 1.000000 0.716553
1.000000 1.000000 0.716553
0.004111 0.004681 0.950115
0.119792 0.003272 0.948706
0.273554 0.001399 0.946833
0.446339 0.000000 0.944729
0.624540 0.000000 0.942558
0.805763 0.000000 0.940351
0.961601 0.000000 0.938443
1.000000 0.000000 0.937439
1.000000 0.000000 0.937437
0.000000 0.102228 0.946000
0.115676 0.100819 0.944591
0.269438 0.098946 0.942718
0.442224 0.096841 0.940613
0.620429 0.094671 0.938433
0.801729 0.092463 0.936070
0.957910 0.090669 0.933768
1.000000 0.089843 0.932459
1.000000 0.089842 0.932456
0.000000 0.233645 0.940455
0.110132 0.232236 0.939046
0.263932 0.230363 0.937096
0.436914 0.228296 0.934703
0.615892 0.226410 0.931770
0.798458 0.224733 0.928355
0.956396 0.223209 0.925715
1.000000 0.222863 0.923483
1.000000 0.222864 0.923482
0.000000 0.382510 0.933569
0.104932 0.381320 0.931584
0.259827 0.379895 0.928691
0.434307 0.377952 0.930038
0.617649 0.375183 0.931053
0.807744 0.371532 0.930989
0.969037 0.369624 0.925595
1.000000 0.371567 0.917615
1.000000 0.371568 0.917614
0.000000 0.545041 0.930785
0.094398 0.544273 0.931139
0.250593 0.542720 0.930921
0.429145 0.540202 0.929804
0.616544 0.536700 0.927769
0.810359 0.532154 0.924889
0.974881 0.529175 0.918053
1.000000 0.529688 0.912380
1.000000 0.529689 0.912379
0.000000 0.698128 0.910970
0.097236 0.698812 0.912743
0.241778 0.699980 0.919087
0.415984 0.698093 0.921624
0.606114 0.693459 0.917608
0.802221 0.687637 0.913088
0.969828 0.682870 0.906636
1.000000 0.682006 0.902882
1.000000 0.682006 0.902882
0.000000 0.868806 0.899208
0.101841 0.867696 0.897316
0.249583 0.867808 0.897227
0.410830 0.868800 0.899223
0.588335 0.866710 0.898302
0.780635 0.861403 0.894184
0.952877 0.855086 0.887744
1.000000 0.853255 0.885340
1.000000 0.853255 0.885340
0.000000 0.979036 0.893699
0.097853 0.977615 0.892278
0.251615 0.975742 0.890405
0.411811 0.977268 0.889410
0.582707 0.977386 0.886077
0.768285 0.974325 0.879505
0.937626 0.968926 0.872512
1.000000 0.966525 0.876242
1.000000 0.966525 0.876242
0.000000 1.000000 0.892269
0.096423 1.000000 0.890848
0.250185 1.000000 0.888975
0.412884 1.000000 0.887146
0.581736 1.000000 0.883066
0.765236 1.000000 0.875736
0.933201 1.000000 0.868486
1.000000 1.000000 0.867603
1.000000 1.000000 0.867603
0.003754 0.004324 1.000000
0.119435 0.002915 1.000000
0.273197 0.001042 1.000000
0.445982 0.000000 1.000000
0.624183 0.000000 1.000000
0.805406 0.000000 1.000000
0.961250 0.000000 1.000000
1.000000 0.000000 1.000000
1.000000 0.000000 1.000000
0.000000 0.101871 1.000000
0.115319 0.100462 1.000000
0.269081 0.098589 1.000000
0.441867 0.096484 1.000000
0.620078 0.094314 1.000000
0.801398 0.092108 1.000000
0.957673 0.090356 1.000000
1.000000 0.089548 1.000000
1.000000 0.089547 1.000000
0.000000 0.233288 1.000000
0.109777 0.231879 1.000000
0.263590 0.230006 1.000000
0.436643 0.227968 1.000000
0.615717 0.226123 1.000000
0.798362 0.224481 1.000000
0.955750 0.223216 1.000000
1.000000 0.222647 1.000000
1.000000 0.222648 1.000000
0.000000 0.382201 1.000000
0.104762 0.381036 1.000000
0.259724 0.379640 1.000000
0.434218 0.378230 1.000000
0.614466 0.376905 1.000000
0.800965 0.374220 1.000000
0.964340 0.371073 1.000000
1.000000 0.370937 1.000000
1.000000 0.370938 1.000000
0.000000 0.543280 1.000000
0.102951 0.542538 1.000000
0.256260 0.541689 1.000000
0.431553 0.539955 1.000000
0.615571 0.537254 1.000000
0.805926 0.533515 1.000000
0.972065 0.529471 1.000000
1.000000 0.528875 1.000000
1.000000 0.528876 1.000000
0.000000 0.697926 0.997682
0.097994 0.698336 0.999858
0.242293 0.699281 1.000000
0.420594 0.696552 1.000000
0.607292 0.692697 1.000000
0.799895 0.687662 1.000000
0.967629 0.682416 1.000000
1.000000 0.680965 0.996926
1.000000 0.680965 0.996926
0.000000 0.868536 0.986077
0.101614 0.867402 0.984237
0.250068 0.867174 0.984873
0.410770 0.867959 0.990150
0.587765 0.865683 0.992576
0.780620 0.860074 0.989811
0.951420 0.854033 0.984880
1.000000 0.851821 0.982010
1.000000 0.851821 0.982010
0.000000 0.978679 0.980705
0.097496 0.977258 0.979284
0.251258 0.975385 0.977411
0.412045 0.976515 0.978597
0.582430 0.976447 0.978611
0.767490 0.973196 0.975444
0.936123 0.967836 0.970155
1.000000 0.965352 0.967615
1.000000 0.965352 0.967615
0.000000 1.000000 0.979276
0.096066 1.000000 0.977854
0.249828 1.000000 0.975982
0.413209 1.000000 0.975795
0.581551 1.000000 0.975063
0.764531 1.000000 0.971137
0.931378 1.000000 0.965196
1.000000 1.000000 0.962793
1.000000 1.000000 0.962793
