look-library/cubes/ads-warm_33.cube
TITLE "look-library ads-warm (ads)"
# look-library — baked by build_cubes.py from looks/<id>.yaml
# method: GUIDE.md section 4a
LUT_3D_SIZE 33
0.007841 0.008496 0.013644
0.031541 0.007601 0.012700
0.062334 0.006618 0.011630
0.096325 0.005631 0.010589
0.132568 0.004666 0.009581
0.170504 0.003749 0.008625
0.209762 0.002902 0.007741
0.250070 0.002143 0.006946
0.291217 0.001487 0.006253
0.333036 0.000948 0.005678
0.375386 0.000538 0.005231
0.418148 0.000268 0.004923
0.461220 0.000148 0.004765
0.504457 0.000187 0.004766
0.546771 0.000386 0.004928
0.587756 0.000739 0.005243
0.627406 0.001234 0.005703
0.665713 0.001865 0.006297
0.706663 0.001534 0.005965
0.747890 0.001125 0.005555
0.802893 0.000579 0.005009
0.850360 0.000108 0.004538
0.891389 0.000000 0.004131
0.926840 0.000000 0.003779
0.957374 0.000000 0.003476
0.983472 0.000000 0.003217
1.000000 0.000000 0.002999
1.000000 0.000000 0.002823
1.000000 0.000000 0.002702
1.000000 0.000000 0.002700
1.000000 0.000000 0.002700
1.000000 0.000000 0.002700
1.000000 0.000000 0.002700
0.005107 0.027320 0.010896
0.028847 0.026368 0.010398
0.057275 0.025882 0.011366
0.091004 0.025004 0.010026
0.127476 0.023990 0.008824
0.165734 0.022988 0.007768
0.205343 0.022042 0.006833
0.246015 0.021177 0.006012
0.287537 0.020410 0.005311
0.329739 0.019757 0.004737
0.372480 0.019230 0.004299
0.415641 0.018840 0.004006
0.459118 0.018597 0.003866
0.502767 0.018512 0.003888
0.545488 0.018588 0.004072
0.586873 0.018819 0.004412
0.626915 0.019196 0.004896
0.665604 0.019710 0.005516
0.705038 0.019784 0.005640
0.746266 0.019375 0.005229
0.801269 0.018829 0.004682
0.848736 0.018358 0.004210
0.889766 0.017951 0.003802
0.925217 0.017599 0.003449
0.955751 0.017296 0.003146
0.981850 0.017037 0.002887
1.000000 0.016819 0.002668
1.000000 0.016643 0.002492
1.000000 0.016522 0.002370
1.000000 0.016520 0.002369
1.000000 0.016520 0.002369
1.000000 0.016520 0.002369
1.000000 0.016520 0.002369
0.001668 0.052025 0.007431
0.025409 0.051115 0.006516
0.056769 0.049852 0.006550
0.087991 0.049252 0.009829
0.122178 0.048822 0.009572
0.159696 0.048064 0.008281
0.199287 0.047160 0.006980
0.240241 0.046242 0.005855
0.282180 0.045375 0.004923
0.324864 0.044596 0.004179
0.368122 0.043927 0.003617
0.411820 0.043386 0.003233
0.455849 0.042986 0.003028
0.500060 0.042739 0.003004
0.543337 0.042653 0.003159
0.585266 0.042724 0.003480
0.625840 0.042943 0.003956
0.665049 0.043303 0.004573
0.702875 0.043792 0.005321
0.744066 0.043394 0.004915
0.799074 0.042848 0.004358
0.846544 0.042376 0.003878
0.887577 0.041969 0.003464
0.923030 0.041617 0.003107
0.953566 0.041314 0.002800
0.979665 0.041055 0.002538
1.000000 0.040837 0.002317
1.000000 0.040660 0.002139
1.000000 0.040539 0.002016
1.000000 0.040537 0.002014
1.000000 0.040537 0.002014
1.000000 0.040537 0.002014
1.000000 0.040537 0.002014
0.000000 0.079817 0.003736
0.021643 0.078934 0.002845
0.053156 0.077736 0.001783
0.087894 0.076350 0.002498
0.121869 0.075533 0.006705
0.156902 0.075225 0.008265
0.194751 0.074757 0.007773
0.234867 0.074086 0.006665
0.276586 0.073309 0.005492
0.319407 0.072518 0.004460
0.363007 0.071775 0.003631
0.407169 0.071120 0.003019
0.451735 0.070579 0.002626
0.496530 0.070173 0.002451
0.540407 0.069920 0.002486
0.582937 0.069822 0.002715
0.624108 0.069872 0.003119
0.663904 0.070062 0.003681
0.702305 0.070385 0.004387
0.741542 0.070492 0.004725
0.796552 0.069948 0.004144
0.844026 0.069477 0.003647
0.885061 0.069070 0.003219
0.920516 0.068719 0.002852
0.951054 0.068416 0.002536
0.977155 0.068157 0.002266
0.999106 0.067939 0.002038
1.000000 0.067763 0.001852
1.000000 0.067642 0.001722
1.000000 0.067640 0.001721
1.000000 0.067640 0.001721
1.000000 0.067640 0.001721
1.000000 0.067640 0.001721
0.000000 0.109812 0.000000
0.017821 0.108958 0.000000
0.049229 0.107785 0.000000
0.084256 0.106485 0.000000
0.121326 0.105036 0.000000
0.157572 0.104068 0.003015
0.193941 0.103694 0.005950
0.232285 0.103373 0.006601
0.272728 0.102906 0.006103
0.314825 0.102316 0.005214
0.358176 0.101659 0.004262
0.402415 0.101003 0.003429
0.447275 0.100400 0.002794
0.492506 0.099887 0.002388
0.536904 0.099501 0.002220
0.579998 0.099252 0.002277
0.621756 0.099142 0.002536
0.662149 0.099167 0.002979
0.701147 0.099322 0.003585
0.739634 0.099609 0.004358
0.793824 0.099275 0.004096
0.841293 0.098810 0.003570
0.882325 0.098406 0.003119
0.917782 0.098057 0.002727
0.948324 0.097756 0.002385
0.974432 0.097498 0.002091
0.996388 0.097281 0.001841
1.000000 0.097106 0.001637
1.000000 0.096985 0.001496
1.000000 0.096984 0.001494
1.000000 0.096984 0.001494
1.000000 0.096984 0.001494
1.000000 0.096984 0.001494
0.000000 0.141533 0.000000
0.014055 0.140710 0.000000
0.045355 0.139562 0.000000
0.080254 0.138301 0.000000
0.117736 0.136942 0.000000
0.156581 0.135471 0.000000
0.194687 0.134411 0.000000
0.232528 0.133924 0.003039
0.271584 0.133640 0.004814
0.312483 0.133293 0.005045
0.354909 0.132856 0.004645
0.398584 0.132348 0.003998
0.443250 0.131808 0.003311
0.488565 0.131287 0.002740
0.533240 0.130838 0.002370
0.576737 0.130491 0.002222
0.618976 0.130257 0.002289
0.659898 0.130142 0.002559
0.699456 0.130147 0.003012
0.738529 0.130272 0.003648
0.791012 0.130361 0.004235
0.838463 0.129907 0.003657
0.879489 0.129511 0.003153
0.914944 0.129168 0.002716
0.945486 0.128871 0.002337
0.971595 0.128617 0.002011
0.993552 0.128404 0.001736
1.000000 0.128231 0.001512
1.000000 0.128113 0.001356
1.000000 0.128111 0.001354
1.000000 0.128111 0.001354
1.000000 0.128111 0.001354
1.000000 0.128111 0.001354
0.000000 0.174675 0.000000
0.010428 0.173885 0.000000
0.041614 0.172762 0.000000
0.076384 0.171531 0.000000
0.113730 0.170228 0.000000
0.153075 0.168838 0.000000
0.193347 0.167374 0.000000
0.233001 0.166266 0.000000
0.272261 0.165674 0.000000
0.312224 0.165363 0.002565
0.353585 0.165090 0.003667
0.396527 0.164733 0.003691
0.440524 0.164345 0.003460
0.485436 0.163925 0.003074
0.530002 0.163511 0.002688
0.573608 0.163142 0.002423
0.616111 0.162846 0.002329
0.657406 0.162639 0.002423
0.697410 0.162529 0.002697
0.736996 0.162522 0.003149
0.789135 0.162685 0.004029
0.835683 0.162458 0.003859
0.876679 0.162078 0.003299
0.912119 0.161749 0.002812
0.942668 0.161473 0.002380
0.968798 0.161243 0.002002
0.990784 0.161054 0.001678
1.000000 0.160903 0.001411
1.000000 0.160801 0.001225
1.000000 0.160800 0.001223
1.000000 0.160800 0.001223
1.000000 0.160800 0.001223
1.000000 0.160800 0.001223
0.000000 0.209022 0.000000
0.007003 0.208266 0.000000
0.038072 0.207169 0.000000
0.072710 0.205967 0.000000
0.109908 0.204701 0.000000
0.149127 0.203384 0.000000
0.189946 0.201987 0.000000
0.231407 0.200550 0.000000
0.272369 0.199426 0.000000
0.312929 0.198754 0.000000
0.353875 0.198390 0.000130
0.395850 0.198138 0.001964
0.439137 0.197866 0.002674
0.483711 0.197515 0.002604
0.527802 0.197203 0.002600
0.571155 0.196894 0.002496
0.613626 0.196608 0.002397
0.655060 0.196371 0.002387
0.695330 0.196199 0.002507
0.735280 0.196102 0.002782
0.788027 0.196113 0.003411
0.833129 0.196254 0.004117
0.874121 0.195932 0.003471
0.909586 0.195661 0.002896
0.940162 0.195432 0.002390
0.966316 0.195241 0.001949
0.988325 0.195083 0.001573
1.000000 0.194957 0.001265
1.000000 0.194872 0.001051
1.000000 0.194871 0.001048
1.000000 0.194871 0.001048
1.000000 0.194871 0.001048
1.000000 0.194871 0.001048
0.000000 0.244410 0.000000
0.003836 0.243690 0.000000
0.034783 0.242619 0.000000
0.069284 0.241448 0.000000
0.106334 0.240216 0.000000
0.145391 0.238943 0.000000
0.186107 0.237629 0.000000
0.228122 0.236245 0.000000
0.270594 0.234853 0.000000
0.312680 0.233735 0.000000
0.354405 0.233011 0.000000
0.396336 0.232594 0.000000
0.439017 0.232332 0.000135
0.482712 0.232105 0.001434
0.526467 0.231847 0.001889
0.569823 0.231538 0.001789
0.612012 0.231311 0.001959
0.653303 0.231104 0.002076
0.693604 0.230934 0.002191
0.733752 0.230824 0.002362
0.786978 0.230797 0.002753
0.832514 0.230905 0.003281
0.872104 0.230975 0.003512
0.907554 0.230768 0.002870
0.938124 0.230591 0.002304
0.964278 0.230441 0.001813
0.986287 0.230317 0.001394
1.000000 0.230218 0.001051
1.000000 0.230150 0.000813
1.000000 0.230149 0.000810
1.000000 0.230149 0.000810
1.000000 0.230149 0.000810
1.000000 0.230149 0.000810
0.000000 0.280711 0.000000
0.000973 0.280027 0.000000
0.031794 0.278984 0.000000
0.066155 0.277844 0.000000
0.103053 0.276646 0.000000
0.141946 0.275412 0.000000
0.182490 0.274151 0.000000
0.224432 0.272856 0.000000
0.267437 0.271504 0.000000
0.310782 0.270169 0.000000
0.353844 0.269076 0.000000
0.396617 0.268325 0.000000
0.439506 0.267865 0.000000
0.482899 0.267582 0.000000
0.526058 0.267377 0.000000
0.568712 0.267185 0.000867
0.610877 0.266988 0.001158
0.652471 0.266773 0.001044
0.692802 0.266658 0.001219
0.732957 0.266605 0.001468
0.786392 0.266608 0.001803
0.832262 0.266700 0.002190
0.871659 0.266863 0.002643
0.906141 0.266925 0.002655
0.936668 0.266803 0.002056
0.962790 0.266698 0.001534
0.984776 0.266610 0.001088
1.000000 0.266538 0.000723
1.000000 0.266490 0.000470
1.000000 0.266491 0.000469
1.000000 0.266491 0.000469
1.000000 0.266491 0.000469
1.000000 0.266491 0.000469
0.000000 0.317819 0.000000
0.000000 0.317172 0.000000
0.029147 0.316159 0.000000
0.063364 0.315051 0.000000
0.100106 0.313887 0.000000
0.138834 0.312690 0.000000
0.179202 0.311473 0.000000
0.220971 0.310239 0.000000
0.263939 0.308977 0.000000
0.307789 0.307672 0.000000
0.351913 0.306405 0.000000
0.395842 0.305352 0.000000
0.439563 0.304600 0.000000
0.483340 0.304133 0.000000
0.526491 0.303875 0.000000
0.568885 0.303733 0.000000
0.610637 0.303642 0.000000
0.651756 0.303566 0.000012
0.692184 0.303486 0.000187
0.732798 0.303394 0.000068
0.786563 0.303391 0.000244
0.832531 0.303510 0.000691
0.872125 0.303668 0.001106
0.906185 0.303855 0.001525
0.935882 0.303950 0.001550
0.961940 0.303892 0.001028
0.983876 0.303841 0.000578
1.000000 0.303798 0.000208
1.000000 0.303778 0.000000
1.000000 0.303778 0.000000
1.000000 0.303778 0.000000
1.000000 0.303778 0.000000
1.000000 0.303778 0.000000
0.000000 0.355648 0.000000
0.000000 0.355039 0.000000
0.026880 0.354055 0.000000
0.060952 0.352980 0.000000
0.097542 0.351852 0.000000
0.136112 0.350692 0.000000
0.176316 0.349515 0.000000
0.217913 0.348329 0.000000
0.260718 0.347134 0.000000
0.304562 0.345921 0.000000
0.349172 0.344696 0.000000
0.394050 0.343542 0.000000
0.438848 0.342599 0.000000
0.483486 0.341933 0.000000
0.527130 0.341534 0.000000
0.569675 0.341329 0.000000
0.611332 0.341244 0.000000
0.652199 0.341224 0.000000
0.692291 0.341233 0.000000
0.732524 0.341250 0.000000
0.786444 0.341272 0.000000
0.833172 0.341282 0.000000
0.873157 0.341389 0.000000
0.907302 0.341578 0.000000
0.936629 0.341770 0.000000
0.961779 0.341925 0.000188
0.983641 0.341911 0.000000
1.000000 0.341897 0.000000
1.000000 0.341903 0.000000
1.000000 0.341904 0.000000
1.000000 0.341904 0.000000
1.000000 0.341904 0.000000
1.000000 0.341904 0.000000
0.000000 0.394123 0.000000
0.000000 0.393552 0.000000
0.025062 0.392597 0.000000
0.058997 0.391555 0.000000
0.095439 0.390462 0.000000
0.133851 0.389340 0.000000
0.173902 0.388210 0.000000
0.215367 0.387088 0.000000
0.258066 0.385981 0.000000
0.301850 0.384888 0.000000
0.346559 0.383799 0.000000
0.391914 0.382715 0.000000
0.437512 0.381714 0.000000
0.483039 0.380904 0.000000
0.527417 0.380346 0.000000
0.570437 0.380016 0.000000
0.612314 0.379858 0.000000
0.653198 0.379815 0.000000
0.693165 0.379842 0.000000
0.733177 0.379909 0.000000
0.786714 0.380028 0.000000
0.833073 0.380139 0.000000
0.873255 0.380236 0.000000
0.908046 0.380317 0.000000
0.938063 0.380383 0.000000
0.963378 0.380512 0.000000
0.984391 0.380680 0.000000
1.000000 0.380753 0.000000
1.000000 0.380781 0.000000
1.000000 0.380782 0.000000
1.000000 0.380782 0.000000
1.000000 0.380782 0.000000
1.000000 0.380782 0.000000
0.000000 0.433181 0.000000
0.000000 0.432643 0.000000
0.023764 0.431723 0.000000
0.057590 0.430728 0.000000
0.093937 0.429696 0.000000
0.132272 0.428650 0.000000
0.172252 0.427604 0.000000
0.213635 0.426571 0.000000
0.256238 0.425557 0.000000
0.299919 0.424565 0.000000
0.344551 0.423594 0.000000
0.389985 0.422636 0.000000
0.435966 0.421698 0.000000
0.482123 0.420851 0.000000
0.527194 0.420190 0.000000
0.570809 0.419738 0.000000
0.613109 0.419475 0.000000
0.654234 0.419359 0.000000
0.694284 0.419348 0.000000
0.734256 0.419408 0.000000
0.787605 0.419556 0.000000
0.833727 0.419717 0.000000
0.873673 0.419867 0.000000
0.908247 0.420001 0.000000
0.938065 0.420116 0.000000
0.963578 0.420215 0.000000
0.985135 0.420281 0.000000
1.000000 0.420314 0.000000
1.000000 0.420358 0.000000
1.000000 0.420359 0.000000
1.000000 0.420359 0.000000
1.000000 0.420359 0.000000
1.000000 0.420359 0.000000
0.000000 0.472835 0.000000
0.000000 0.472341 0.000000
0.023291 0.471485 0.000000
0.057056 0.470561 0.000000
0.093332 0.469604 0.000000
0.131585 0.468636 0.000000
0.171472 0.467671 0.000000
0.212752 0.466720 0.000000
0.255239 0.465792 0.000000
0.298792 0.464892 0.000000
0.343291 0.464020 0.000000
0.388626 0.463174 0.000000
0.434654 0.462350 0.000000
0.481097 0.461560 0.000000
0.526629 0.460880 0.000000
0.570756 0.460359 0.000000
0.613515 0.460007 0.000000
0.654992 0.459806 0.000000
0.695274 0.459727 0.000000
0.735364 0.459741 0.000000
0.788716 0.459862 0.000000
0.834729 0.460028 0.000000
0.874804 0.460156 0.000000
0.909534 0.460262 0.000000
0.939485 0.460353 0.000000
0.965117 0.460429 0.000000
0.986695 0.460490 0.000000
1.000000 0.460537 0.000000
1.000000 0.460591 0.000000
1.000000 0.460592 0.000000
1.000000 0.460592 0.000000
1.000000 0.460592 0.000000
1.000000 0.460592 0.000000
0.000000 0.512701 0.000000
0.000000 0.512224 0.000000
0.023753 0.511428 0.000000
0.057439 0.510570 0.000000
0.093624 0.509683 0.000000
0.131775 0.508789 0.000000
0.171550 0.507900 0.000000
0.212705 0.507027 0.000000
0.255057 0.506177 0.000000
0.298461 0.505358 0.000000
0.342800 0.504573 0.000000
0.387973 0.503821 0.000000
0.433878 0.503101 0.000000
0.480327 0.502411 0.000000
0.526044 0.501782 0.000000
0.570484 0.501257 0.000000
0.613603 0.500861 0.000000
0.655414 0.500597 0.000000
0.695960 0.500455 0.000000
0.736468 0.500398 0.000000
0.790440 0.500408 0.000000
0.836896 0.500480 0.000000
0.877016 0.500573 0.000000
0.911681 0.500668 0.000000
0.941551 0.500756 0.000000
0.967098 0.500832 0.000000
0.988595 0.500896 0.000000
1.000000 0.500947 0.000000
1.000000 0.501006 0.000000
1.000000 0.501007 0.000000
1.000000 0.501007 0.000000
1.000000 0.501007 0.000000
1.000000 0.501007 0.000000
0.000000 0.551943 0.000000
0.000000 0.551440 0.000000
0.025069 0.550699 0.000000
0.058661 0.549901 0.000000
0.094738 0.549079 0.000000
0.132771 0.548252 0.000000
0.172415 0.547432 0.000000
0.213429 0.546629 0.000000
0.255627 0.545851 0.000000
0.298866 0.545105 0.000000
0.343028 0.544394 0.000000
0.388006 0.543725 0.000000
0.433721 0.543095 0.000000
0.480028 0.542500 0.000000
0.525717 0.541953 0.000000
0.570251 0.541469 0.000000
0.613758 0.541130 0.000000
0.656124 0.540855 0.000000
0.697282 0.540647 0.000000
0.738178 0.540503 0.000000
0.792419 0.540409 0.000000
0.839012 0.540404 0.000000
0.879180 0.540443 0.000000
0.913838 0.540502 0.000000
0.943672 0.540565 0.000000
0.969167 0.540625 0.000000
0.990609 0.540678 0.000000
1.000000 0.540722 0.000000
1.000000 0.540780 0.000000
1.000000 0.540781 0.000000
1.000000 0.540781 0.000000
1.000000 0.540781 0.000000
1.000000 0.540781 0.000000
0.000000 0.590484 0.000000
0.000000 0.589923 0.000000
0.027142 0.589231 0.000000
0.060624 0.588489 0.000000
0.096580 0.587726 0.000000
0.134478 0.586960 0.000000
0.173976 0.586202 0.000000
0.214832 0.585463 0.000000
0.256840 0.584758 0.000000
0.299879 0.584085 0.000000
0.343837 0.583447 0.000000
0.388614 0.582847 0.000000
0.434127 0.582286 0.000000
0.480143 0.581934 0.000000
0.525769 0.581590 0.000000
0.570512 0.581237 0.000000
0.614251 0.580886 0.000000
0.656880 0.580564 0.000000
0.698319 0.580288 0.000000
0.739489 0.580065 0.000000
0.794043 0.579856 0.000000
0.840833 0.579756 0.000000
0.881109 0.579721 0.000000
0.915815 0.579722 0.000000
0.945657 0.579742 0.000000
0.971137 0.579769 0.000000
0.992551 0.579798 0.000000
1.000000 0.579826 0.000000
1.000000 0.579881 0.000000
1.000000 0.579882 0.000000
1.000000 0.579882 0.000000
1.000000 0.579882 0.000000
1.000000 0.579882 0.000000
0.000000 0.628147 0.000000
0.000000 0.627622 0.000000
0.029876 0.626976 0.000000
0.063235 0.626284 0.000000
0.099040 0.625580 0.000000
0.136757 0.624880 0.000000
0.176066 0.624190 0.000000
0.216727 0.623518 0.000000
0.258555 0.622870 0.000000
0.301408 0.622254 0.000000
0.344729 0.621942 0.000000
0.389010 0.621640 0.000000
0.434212 0.621328 0.000000
0.480214 0.621004 0.000000
0.525855 0.620670 0.000000
0.570650 0.620326 0.000000
0.614507 0.619973 0.000000
0.657312 0.619621 0.000000
0.698967 0.619296 0.000000
0.740372 0.619004 0.000000
0.795232 0.618685 0.000000
0.842245 0.618483 0.000000
0.882669 0.618361 0.000000
0.917463 0.618291 0.000000
0.947351 0.618254 0.000000
0.972848 0.618236 0.000000
0.994261 0.618229 0.000000
1.000000 0.618235 0.000000
1.000000 0.618282 0.000000
1.000000 0.618283 0.000000
1.000000 0.618283 0.000000
1.000000 0.618283 0.000000
1.000000 0.618283 0.000000
0.000000 0.664992 0.000000
0.003305 0.664509 0.000000
0.033081 0.663916 0.000000
0.066275 0.663282 0.000000
0.101916 0.662631 0.000000
0.139478 0.661980 0.000000
0.178482 0.661402 0.000000
0.218235 0.661133 0.000000
0.259285 0.660855 0.000000
0.301507 0.660570 0.000000
0.344798 0.660277 0.000000
0.389073 0.659975 0.000000
0.434263 0.659663 0.000000
0.480249 0.659338 0.000000
0.525875 0.659004 0.000000
0.570669 0.658661 0.000000
0.614563 0.658307 0.000000
0.657462 0.657943 0.000000
0.699256 0.657581 0.000000
0.740838 0.657235 0.000000
0.795959 0.656818 0.000000
0.843190 0.656517 0.000000
0.883775 0.656304 0.000000
0.918680 0.656156 0.000000
0.948639 0.656052 0.000000
0.974178 0.655979 0.000000
0.995613 0.655928 0.000000
1.000000 0.655907 0.000000
1.000000 0.655945 0.000000
1.000000 0.655945 0.000000
1.000000 0.655945 0.000000
1.000000 0.655945 0.000000
1.000000 0.655945 0.000000
0.000000 0.701004 0.000000
0.007032 0.700550 0.000000
0.036686 0.699993 0.000000
0.069004 0.699707 0.000000
0.103636 0.699472 0.000000
0.140255 0.699225 0.000000
0.178551 0.698967 0.000000
0.218303 0.698698 0.000000
0.259349 0.698420 0.000000
0.301561 0.698133 0.000000
0.344837 0.697835 0.000000
0.389091 0.697528 0.000000
0.434255 0.697208 0.000000
0.480207 0.696874 0.000000
0.525798 0.696532 0.000000
0.570561 0.696181 0.000000
0.614439 0.695819 0.000000
0.657360 0.695445 0.000000
0.699223 0.695061 0.000000
0.740916 0.694672 0.000000
0.796231 0.694173 0.000000
0.843646 0.693780 0.000000
0.884384 0.693479 0.000000
0.919406 0.693250 0.000000
0.949448 0.693075 0.000000
0.975044 0.692943 0.000000
0.996514 0.692842 0.000000
1.000000 0.692789 0.000000
1.000000 0.692816 0.000000
1.000000 0.692816 0.000000
1.000000 0.692816 0.000000
1.000000 0.692816 0.000000
1.000000 0.692816 0.000000
0.000000 0.737608 0.000000
0.008154 0.737455 0.000000
0.036919 0.737261 0.000000
0.069073 0.737044 0.000000
0.103702 0.736810 0.000000
0.140316 0.736562 0.000000
0.178603 0.736301 0.000000
0.218341 0.736028 0.000000
0.259369 0.735744 0.000000
0.301557 0.735448 0.000000
0.344803 0.735141 0.000000
0.389023 0.734820 0.000000
0.434144 0.734486 0.000000
0.480049 0.734137 0.000000
0.525587 0.733778 0.000000
0.570296 0.733410 0.000000
0.614128 0.733032 0.000000
0.657019 0.732642 0.000000
0.698889 0.732240 0.000000
0.740630 0.731818 0.000000
0.796065 0.731250 0.000000
0.843618 0.730775 0.000000
0.884485 0.730390 0.000000
0.919615 0.730082 0.000000
0.949745 0.729836 0.000000
0.975408 0.729641 0.000000
0.996928 0.729487 0.000000
1.000000 0.729399 0.000000
1.000000 0.729413 0.000000
1.000000 0.729413 0.000000
1.000000 0.729413 0.000000
1.000000 0.729413 0.000000
1.000000 0.729413 0.000000
0.000000 0.788336 0.000000
0.008230 0.788182 0.000000
0.036983 0.787985 0.000000
0.069122 0.787763 0.000000
0.103730 0.787522 0.000000
0.140317 0.787264 0.000000
0.178570 0.786991 0.000000
0.218269 0.786704 0.000000
0.259249 0.786402 0.000000
0.301382 0.786085 0.000000
0.344565 0.785754 0.000000
0.388713 0.785406 0.000000
0.433753 0.785041 0.000000
0.479567 0.784659 0.000000
0.525008 0.784265 0.000000
0.569616 0.783863 0.000000
0.613348 0.783451 0.000000
0.656150 0.783027 0.000000
0.697953 0.782591 0.000000
0.739669 0.782131 0.000000
0.795155 0.781485 0.000000
0.842819 0.780913 0.000000
0.883819 0.780425 0.000000
0.919079 0.780014 0.000000
0.949321 0.779672 0.000000
0.975076 0.779391 0.000000
0.996677 0.779167 0.000000
1.000000 0.779034 0.000000
1.000000 0.779034 0.000000
1.000000 0.779034 0.000000
1.000000 0.779034 0.000000
1.000000 0.779034 0.000000
1.000000 0.779034 0.000000
0.000000 0.832644 0.000000
0.008208 0.832483 0.000000
0.036937 0.832277 0.000000
0.069045 0.832044 0.000000
0.103617 0.831789 0.000000
0.140162 0.831516 0.000000
0.178367 0.831224 0.000000
0.218010 0.830916 0.000000
0.258927 0.830589 0.000000
0.300991 0.830246 0.000000
0.344097 0.829884 0.000000
0.388159 0.829503 0.000000
0.433106 0.829102 0.000000
0.478818 0.828680 0.000000
0.524151 0.828246 0.000000
0.568647 0.827802 0.000000
0.612267 0.827348 0.000000
0.654964 0.826883 0.000000
0.696677 0.826406 0.000000
0.738324 0.825905 0.000000
0.793770 0.825197 0.000000
0.841462 0.824555 0.000000
0.882553 0.824004 0.000000
0.917941 0.823542 0.000000
0.948326 0.823159 0.000000
0.974223 0.822845 0.000000
0.995947 0.822592 0.000000
1.000000 0.822440 0.000000
1.000000 0.822440 0.000000
1.000000 0.822440 0.000000
1.000000 0.822440 0.000000
1.000000 0.822440 0.000000
1.000000 0.822440 0.000000
0.000000 0.871379 0.000000
0.008061 0.871209 0.000000
0.036758 0.870990 0.000000
0.068827 0.870742 0.000000
0.103354 0.870470 0.000000
0.139848 0.870176 0.000000
0.177994 0.869862 0.000000
0.217574 0.869529 0.000000
0.258421 0.869175 0.000000
0.300407 0.868800 0.000000
0.343428 0.868405 0.000000
0.387399 0.867988 0.000000
0.432247 0.867547 0.000000
0.477854 0.867083 0.000000
0.523083 0.866605 0.000000
0.567478 0.866117 0.000000
0.610999 0.865618 0.000000
0.653596 0.865108 0.000000
0.695213 0.864588 0.000000
0.736797 0.864056 0.000000
0.792239 0.863332 0.000000
0.840016 0.862694 0.000000
0.881222 0.862136 0.000000
0.916733 0.861659 0.000000
0.947238 0.861258 0.000000
0.973246 0.860924 0.000000
0.995068 0.860652 0.000000
1.000000 0.860486 0.000000
1.000000 0.860486 0.000000
1.000000 0.860486 0.000000
1.000000 0.860486 0.000000
1.000000 0.860486 0.000000
1.000000 0.860486 0.000000
0.000000 0.905231 0.000000
0.007795 0.905050 0.000000
0.036454 0.904817 0.000000
0.068480 0.904552 0.000000
0.102957 0.904260 0.000000
0.139395 0.903944 0.000000
0.177480 0.903606 0.000000
0.216991 0.903245 0.000000
0.257764 0.902861 0.000000
0.299670 0.902455 0.000000
0.342606 0.902025 0.000000
0.386489 0.901570 0.000000
0.431248 0.901089 0.000000
0.476766 0.900582 0.000000
0.521901 0.900060 0.000000
0.566199 0.899526 0.000000
0.609640 0.898991 0.000000
0.652194 0.898464 0.000000
0.693805 0.897943 0.000000
0.735396 0.897416 0.000000
0.790863 0.896701 0.000000
0.838688 0.896071 0.000000
0.879966 0.895517 0.000000
0.915561 0.895035 0.000000
0.946152 0.894624 0.000000
0.972243 0.894278 0.000000
0.994141 0.893993 0.000000
1.000000 0.893819 0.000000
1.000000 0.893819 0.000000
1.000000 0.893819 0.000000
1.000000 0.893819 0.000000
1.000000 0.893819 0.000000
1.000000 0.893819 0.000000
0.000000 0.934753 0.000000
0.007430 0.934561 0.000000
0.036051 0.934313 0.000000
0.068031 0.934029 0.000000
0.102457 0.933717 0.000000
0.138837 0.933379 0.000000
0.176859 0.933015 0.000000
0.216302 0.932627 0.000000
0.257004 0.932213 0.000000
0.298837 0.931775 0.000000
0.341700 0.931310 0.000000
0.385506 0.930818 0.000000
0.430184 0.930298 0.000000
0.475615 0.929749 0.000000
0.520690 0.929199 0.000000
0.564969 0.928657 0.000000
0.608408 0.928123 0.000000
0.650962 0.927597 0.000000
0.692573 0.927079 0.000000
0.734167 0.926556 0.000000
0.789647 0.925847 0.000000
0.837499 0.925224 0.000000
0.878819 0.924676 0.000000
0.914470 0.924196 0.000000
0.945122 0.923781 0.000000
