look-library/cubes/ads-clean_33.cube
TITLE "look-library ads-clean (ads)"
# look-library — baked by build_cubes.py from looks/<id>.yaml
# method: GUIDE.md section 4a
LUT_3D_SIZE 5
0.000000 0.000000 0.001805
0.247975 0.000000 0.000000
0.568153 0.000000 0.000000
0.871791 0.000000 0.000000
1.000000 0.000000 0.000000
0.000000 0.231425 0.000000
0.228015 0.223221 0.000000
0.555316 0.219230 0.000000
0.858800 0.219224 0.000000
1.000000 0.218405 0.000000
0.000000 0.547193 0.000000
0.212703 0.541581 0.000000
0.548371 0.536356 0.000000
0.857574 0.534633 0.000000
1.000000 0.534414 0.000000
0.000000 0.843796 0.000000
0.210939 0.842000 0.000000
0.541229 0.839393 0.000000
0.855395 0.836676 0.000000
1.000000 0.835382 0.000000
0.000000 1.000000 0.000000
0.206462 1.000000 0.000000
0.536522 1.000000 0.000000
0.850885 1.000000 0.000000
1.000000 1.000000 0.000000
0.000000 0.000000 0.250226
0.251540 0.000000 0.245622
0.574649 0.000000 0.226561
0.875642 0.000000 0.221223
1.000000 0.000000 0.219990
0.000000 0.228582 0.227569
0.225801 0.221074 0.220093
0.571695 0.214082 0.213079
0.866930 0.216733 0.215530
1.000000 0.215945 0.214501
0.000000 0.545151 0.206121
0.195711 0.547049 0.188055
0.550057 0.537178 0.187836
0.860163 0.533914 0.207493
1.000000 0.533559 0.208905
0.000000 0.843211 0.202392
0.201498 0.844966 0.191128
0.540614 0.838782 0.197359
0.854799 0.836082 0.196389
1.000000 0.834851 0.199584
0.000000 1.000000 0.197267
0.205833 1.000000 0.195336
0.535891 1.000000 0.192616
0.850252 1.000000 0.190255
1.000000 1.000000 0.190387
0.000000 0.000000 0.551717
0.233743 0.000000 0.557335
0.576347 0.000000 0.560478
0.875353 0.000000 0.543129
1.000000 0.000000 0.541856
0.000000 0.223635 0.563983
0.223168 0.218456 0.564144
0.577142 0.208752 0.560280
0.873898 0.213510 0.537885
1.000000 0.213851 0.534907
0.000000 0.542570 0.537498
0.194163 0.543647 0.537688
0.547574 0.534969 0.528497
0.877518 0.528525 0.521126
1.000000 0.528574 0.521102
0.000000 0.842375 0.524147
0.202292 0.842968 0.519548
0.519445 0.846167 0.496990
0.856467 0.836509 0.497621
1.000000 0.833841 0.510319
0.000000 1.000000 0.519148
0.204937 1.000000 0.517222
0.516641 1.000000 0.495025
0.846585 1.000000 0.498273
1.000000 1.000000 0.502370
0.000000 0.000000 0.857348
0.230104 0.000000 0.855431
0.560161 0.000000 0.852710
0.874503 0.000000 0.850119
1.000000 0.000000 0.848841
0.000000 0.221307 0.851021
0.223780 0.219390 0.849098
0.554511 0.216388 0.847522
0.876467 0.211121 0.850674
1.000000 0.213013 0.841753
0.000000 0.540452 0.849191
0.200303 0.539394 0.858756
0.545613 0.532277 0.857969
0.883726 0.523233 0.852137
1.000000 0.524002 0.840543
0.000000 0.841571 0.831032
0.204814 0.840806 0.829964
0.516597 0.843147 0.831300
0.853622 0.834362 0.823261
1.000000 0.830230 0.818518
0.000000 1.000000 0.826134
0.204082 1.000000 0.824209
0.514774 1.000000 0.817708
0.834781 1.000000 0.801426
1.000000 1.000000 0.799325
0.000000 0.000000 1.000000
0.229603 0.000000 1.000000
0.559661 0.000000 1.000000
0.874003 0.000000 1.000000
1.000000 0.000000 1.000000
0.000000 0.220806 1.000000
0.223288 0.218889 1.000000
0.553501 0.216197 1.000000
0.868211 0.213727 1.000000
1.000000 0.212546 1.000000
0.000000 0.538056 1.000000
0.215267 0.536318 1.000000
0.545558 0.532855 1.000000
0.871617 0.526406 1.000000
1.000000 0.522216 1.000000
0.000000 0.841093 1.000000
0.206449 0.839678 1.000000
0.515922 0.841169 1.000000
0.853005 0.831955 1.000000
1.000000 0.826226 1.000000
0.000000 1.000000 1.000000
0.203577 1.000000 1.000000
0.515174 1.000000 1.000000
0.831943 1.000000 1.000000
1.000000 1.000000 0.998808
