look-library/cubes/film-teal-orange_33.cube
TITLE "look-library film-teal-orange (film)"
# look-library — baked by build_cubes.py from looks/<id>.yaml
# method: GUIDE.md section 4a
LUT_3D_SIZE 33
0.002652 0.021911 0.058690
0.002649 0.021931 0.058694
0.002637 0.022007 0.058708
0.002618 0.022125 0.058707
0.002583 0.022342 0.058738
0.002535 0.022643 0.058753
0.002464 0.023087 0.058731
0.007893 0.023543 0.058427
0.027346 0.023593 0.057551
0.060830 0.023531 0.056840
0.090573 0.023450 0.057048
0.122578 0.023439 0.057776
0.156755 0.023336 0.059219
0.200839 0.025362 0.061876
0.246123 0.029524 0.065718
0.294925 0.035128 0.070936
0.335593 0.040124 0.075590
0.382835 0.046241 0.081292
0.431807 0.052899 0.087506
0.482998 0.060218 0.094349
0.515088 0.065135 0.098959
0.548322 0.070531 0.104030
0.579610 0.075903 0.109089
0.611632 0.081706 0.114563
0.640422 0.087199 0.119754
0.663314 0.091761 0.124070
0.692883 0.104816 0.129510
0.713234 0.117259 0.133286
0.734436 0.132683 0.141228
0.752131 0.146660 0.155042
0.772479 0.164204 0.169499
0.791201 0.180330 0.184571
0.815673 0.200469 0.200146
0.002632 0.022038 0.058708
0.002625 0.022081 0.058714
0.002608 0.022186 0.058729
0.002580 0.022362 0.058746
0.002532 0.022655 0.058776
0.002456 0.023133 0.058785
0.002356 0.023758 0.058744
0.009678 0.024353 0.058322
0.029606 0.024588 0.057412
0.063360 0.024649 0.056668
0.091564 0.024845 0.056854
0.127946 0.024921 0.057743
0.166404 0.025416 0.059476
0.205886 0.025945 0.062219
0.252084 0.030171 0.066320
0.299918 0.035727 0.071494
0.342638 0.041016 0.076421
0.389673 0.047152 0.082142
0.441086 0.054194 0.088716
0.485882 0.060648 0.094752
0.523424 0.066459 0.100203
0.557353 0.072052 0.105462
0.585851 0.077009 0.110132
0.615351 0.082401 0.115219
0.644696 0.088037 0.120547
0.669968 0.100896 0.124904
0.696982 0.112852 0.129959
0.718326 0.128061 0.133898
0.738291 0.141741 0.141095
0.756066 0.156349 0.154812
0.776452 0.174602 0.169126
0.795209 0.191315 0.184058
0.818519 0.206201 0.199758
0.002554 0.022521 0.058774
0.002543 0.022587 0.058779
0.002515 0.022760 0.058791
0.002476 0.023008 0.058799
0.002422 0.023340 0.058818
0.002341 0.023849 0.058807
0.002216 0.024634 0.058733
0.010544 0.025342 0.058234
0.031565 0.025658 0.057251
0.064338 0.026120 0.056443
0.094945 0.026776 0.056619
0.131885 0.027322 0.057546
0.171122 0.028647 0.059339
0.210780 0.029629 0.062198
0.257798 0.030976 0.066902
0.303347 0.036140 0.071879
0.350564 0.042028 0.077364
0.399995 0.048539 0.083435
0.448183 0.055192 0.089648
0.494159 0.061896 0.095921
0.532655 0.067948 0.101602
0.563815 0.073155 0.106500
0.593635 0.078406 0.111449
0.621525 0.086406 0.116141
0.651375 0.097521 0.121315
0.674247 0.108874 0.125357
0.701154 0.121339 0.130439
0.722206 0.136790 0.134392
0.740130 0.151169 0.140964
0.760956 0.168946 0.154376
0.778404 0.179874 0.168901
0.798073 0.196972 0.183724
0.824182 0.217934 0.198857
0.002434 0.023268 0.058832
0.002412 0.023404 0.058835
0.002381 0.023599 0.058836
0.002327 0.023934 0.058856
0.002261 0.024341 0.058858
0.002142 0.025094 0.058784
0.001974 0.026147 0.058651
0.012758 0.027056 0.058018
0.033697 0.028120 0.056963
0.068800 0.029291 0.055967
0.099585 0.030182 0.056196
0.138016 0.032266 0.057105
0.177493 0.034384 0.059031
0.214408 0.036347 0.061755
0.261940 0.038761 0.066590
0.312910 0.041728 0.072545
0.361461 0.046049 0.078445
0.410700 0.050347 0.084762
0.455916 0.056286 0.090671
0.505132 0.063579 0.097499
0.540938 0.069305 0.102877
0.573178 0.077701 0.107834
0.598809 0.086640 0.111879
0.628196 0.097643 0.116762
0.657245 0.108319 0.121911
0.680394 0.121118 0.126041
0.707947 0.136156 0.131279
0.728004 0.150485 0.135115
0.745583 0.163592 0.145362
0.765479 0.179529 0.158987
0.784976 0.196526 0.173426
0.805298 0.211220 0.182721
0.829856 0.230141 0.197784
0.002189 0.024793 0.058873
0.002178 0.024858 0.058870
0.002118 0.025236 0.058853
0.002062 0.025586 0.058854
0.001951 0.026277 0.058787
0.001759 0.027486 0.058671
0.001517 0.029001 0.058474
0.014865 0.030651 0.057705
0.037326 0.032096 0.056481
0.072113 0.034546 0.055175
0.104094 0.037136 0.055264
0.143096 0.040789 0.056213
0.182531 0.043482 0.058338
0.224415 0.047819 0.061561
0.272255 0.050450 0.066756
0.324841 0.055457 0.072897
0.367916 0.058658 0.078287
0.418545 0.065265 0.084718
0.469286 0.071610 0.091509
0.517543 0.077790 0.098502
0.553170 0.086089 0.103864
0.581359 0.095092 0.108251
0.608946 0.103881 0.112803
0.637951 0.115730 0.117752
0.668137 0.130298 0.123148
0.689018 0.139895 0.127106
0.715624 0.154277 0.132264
0.732640 0.167881 0.135330
0.753510 0.184239 0.146879
0.771566 0.195877 0.160715
0.789867 0.210614 0.172480
0.814755 0.229398 0.186830
0.835418 0.242556 0.196568
0.001660 0.028091 0.058735
0.001648 0.028166 0.058727
0.001592 0.028516 0.058689
0.001416 0.029615 0.058602
0.001285 0.030435 0.058480
0.001003 0.032200 0.058237
0.000611 0.034626 0.058034
0.017900 0.037372 0.056863
0.040715 0.040991 0.055248
0.078355 0.044527 0.053688
0.111632 0.049149 0.053885
0.150549 0.052244 0.055395
0.191717 0.057126 0.057882
0.233729 0.061361 0.061552
0.279601 0.066641 0.066568
0.331984 0.071264 0.072800
0.380712 0.076235 0.078892
0.432594 0.085009 0.085525
0.482487 0.090760 0.092381
0.529827 0.096742 0.099443
0.561405 0.105984 0.104272
0.593954 0.117898 0.109482
0.620693 0.126595 0.114058
0.648487 0.137734 0.118998
0.675863 0.147739 0.124153
0.695997 0.162967 0.127833
0.721967 0.176912 0.132654
0.740334 0.188549 0.135935
0.759123 0.200478 0.145900
0.780187 0.221274 0.158850
0.800578 0.234469 0.173112
0.825085 0.251338 0.187511
0.845592 0.265565 0.196926
0.000639 0.034448 0.058155
0.000618 0.034579 0.058136
0.000462 0.035579 0.058030
0.000328 0.036456 0.057883
0.000000 0.038788 0.057580
0.000000 0.041416 0.057298
0.000000 0.045321 0.056796
0.019379 0.049129 0.055311
0.044784 0.053939 0.053323
0.081354 0.059105 0.052572
0.114769 0.063581 0.053326
0.155230 0.068901 0.055051
0.197166 0.075028 0.057819
0.239364 0.078974 0.061666
0.290356 0.086089 0.067285
0.344336 0.092480 0.073661
0.393099 0.096797 0.079782
0.444091 0.104067 0.086427
0.491146 0.114023 0.092853
0.539463 0.122426 0.100099
0.574454 0.131370 0.105680
0.605965 0.143210 0.110931
0.632750 0.153615 0.115634
0.659738 0.164742 0.120585
0.685087 0.178489 0.125166
0.706379 0.190776 0.128917
0.731306 0.202958 0.133344
0.750745 0.218678 0.136345
0.769856 0.231877 0.145787
0.788473 0.245463 0.159211
0.813631 0.262827 0.170018
0.836181 0.277231 0.184490
0.852327 0.285481 0.200537
0.000000 0.045780 0.056789
0.000000 0.045780 0.056789
0.000000 0.046859 0.056669
0.000000 0.048205 0.056571
0.000000 0.051332 0.056177
0.000000 0.054845 0.055742
0.000765 0.060033 0.054754
0.021615 0.063486 0.053232
0.046080 0.069144 0.050851
0.087485 0.075689 0.050902
0.120953 0.081957 0.053632
0.162373 0.089493 0.055901
0.204853 0.095475 0.058887
0.248460 0.101197 0.062991
0.299593 0.106910 0.068481
0.351295 0.116987 0.074527
0.401107 0.123152 0.080621
0.453464 0.132551 0.087376
0.504151 0.141255 0.094441
0.552842 0.151927 0.101859
0.586249 0.158613 0.107324
0.616805 0.169940 0.112583
0.641684 0.184625 0.116926
0.666823 0.191683 0.121358
0.694315 0.204732 0.126077
0.716424 0.220281 0.129593
0.741729 0.233827 0.133561
0.758595 0.241862 0.136175
0.779559 0.259897 0.147911
0.801020 0.273718 0.155838
0.822764 0.288648 0.169687
0.842477 0.297468 0.185003
0.864370 0.316586 0.196447
0.000000 0.059810 0.055243
0.000000 0.059810 0.055243
0.000000 0.060831 0.055138
0.000000 0.063382 0.054762
0.000000 0.067558 0.054308
0.000000 0.071143 0.053756
0.000000 0.076527 0.052776
0.021055 0.082956 0.050337
0.050841 0.087651 0.047589
0.090163 0.096393 0.046139
0.131724 0.104038 0.050707
0.168381 0.111679 0.055249
0.210032 0.118093 0.059594
0.253676 0.125572 0.064263
0.305168 0.133234 0.069888
0.362833 0.146371 0.076631
0.413913 0.154163 0.082792
0.465726 0.161936 0.089394
0.515889 0.170556 0.096423
0.563952 0.181027 0.103820
0.595356 0.193829 0.109000
0.625182 0.201400 0.113899
0.652943 0.217481 0.118330
0.678371 0.226452 0.122452
0.706152 0.240371 0.126658
0.726085 0.249558 0.129587
0.752986 0.267571 0.132917
0.770116 0.276039 0.135196
0.791231 0.291710 0.146392
0.810626 0.300276 0.157939
0.836396 0.319854 0.170982
0.857827 0.336213 0.179418
0.875624 0.345988 0.195266
0.000000 0.078076 0.053213
0.000000 0.078076 0.053213
0.000000 0.078668 0.053091
0.000000 0.080732 0.052787
0.000000 0.084889 0.052206
0.000000 0.091513 0.051085
0.000000 0.098305 0.049585
0.016943 0.103137 0.047500
0.048689 0.111402 0.044277
0.097201 0.120230 0.042879
0.137873 0.128919 0.044828
0.177692 0.137672 0.050835
0.219814 0.143768 0.058497
0.264557 0.154671 0.064824
0.325898 0.165261 0.072697
0.372960 0.174463 0.078482
0.425605 0.186131 0.085048
0.487835 0.196597 0.093188
0.523123 0.205588 0.098275
0.570945 0.215391 0.105336
0.606294 0.226637 0.110643
0.636478 0.236370 0.115195
0.663703 0.251186 0.118984
0.689500 0.260167 0.122637
0.717118 0.273506 0.126184
0.737351 0.282848 0.128734
0.763857 0.298910 0.131571
0.780182 0.311827 0.132851
0.805493 0.328702 0.140533
0.827594 0.338641 0.154676
0.848449 0.348771 0.169342
0.871396 0.370122 0.180115
0.888071 0.379965 0.189885
0.000000 0.098447 0.050616
0.000000 0.098447 0.050616
0.000000 0.098567 0.050589
0.000000 0.101194 0.050276
0.000000 0.108660 0.048900
0.000000 0.113708 0.047948
0.000000 0.120130 0.046594
0.014462 0.128254 0.044704
0.045625 0.137772 0.042470
0.097690 0.146690 0.039938
0.138098 0.158293 0.039808
0.183880 0.164757 0.044799
0.230327 0.175519 0.053313
0.282427 0.183237 0.064285
0.332552 0.196874 0.072005
0.380066 0.208181 0.078763
0.442663 0.220039 0.087331
0.495366 0.233962 0.094546
0.533978 0.239589 0.099895
0.582025 0.249995 0.106563
0.616907 0.260459 0.111318
0.648522 0.273049 0.115317
0.674667 0.284084 0.118448
0.701056 0.294143 0.121628
0.727386 0.310835 0.123962
0.749907 0.325777 0.125697
0.774711 0.336648 0.128349
0.794725 0.347307 0.130080
0.819012 0.357622 0.140664
0.845354 0.379189 0.152860
0.864968 0.389287 0.161860
0.883182 0.400372 0.177759
0.900097 0.411587 0.194159
0.000000 0.123272 0.047377
0.000000 0.123272 0.047377
0.000000 0.123272 0.047377
0.000000 0.125405 0.046864
0.000000 0.129481 0.046024
0.000000 0.135654 0.045640
0.000000 0.144913 0.045169
0.005524 0.155609 0.043594
0.042398 0.165030 0.041217
0.093293 0.174582 0.039051
0.138380 0.186344 0.037317
0.190325 0.196493 0.039825
0.233126 0.207816 0.045782
0.288499 0.216277 0.058124
0.343431 0.229955 0.068997
0.392404 0.244505 0.077336
0.453875 0.253986 0.087368
0.506166 0.266270 0.094430
0.547953 0.281146 0.099413
0.594711 0.287635 0.105929
0.630402 0.299202 0.110082
0.661888 0.311149 0.113446
0.686805 0.325109 0.115381
0.713922 0.336914 0.117926
0.741561 0.348668 0.120572
0.763028 0.359753 0.122289
0.789533 0.374832 0.124155
0.813876 0.386195 0.125115
0.837477 0.397746 0.134542
0.858433 0.409335 0.149290
0.879703 0.424874 0.164009
0.897187 0.436297 0.176997
0.916180 0.455707 0.185551
0.000000 0.146768 0.045084
0.000000 0.146768 0.045084
0.000000 0.146768 0.045084
0.000000 0.148281 0.045016
0.000000 0.155178 0.044734
0.000000 0.161599 0.044508
0.000000 0.171296 0.044237
0.000000 0.184786 0.043210
0.034585 0.193222 0.040882
0.094905 0.207315 0.038646
0.136762 0.215441 0.037414
0.191029 0.229414 0.036338
0.243823 0.241034 0.041894
0.295457 0.255239 0.050530
0.352526 0.264444 0.063424
0.402388 0.278119 0.072894
0.465981 0.290563 0.084334
0.518940 0.305299 0.091682
0.570655 0.319062 0.098136
0.603522 0.325175 0.102385
0.641898 0.340642 0.105827
0.681052 0.354175 0.109626
0.702218 0.365628 0.110965
0.727112 0.371081 0.113964
0.756482 0.387640 0.115793
0.778266 0.399771 0.117225
0.806925 0.412500 0.119130
0.831356 0.424819 0.120052
0.856125 0.440794 0.130295
0.876532 0.453066 0.145398
0.895170 0.464278 0.154994
0.912326 0.476423 0.171551
0.927614 0.492381 0.188662
0.000000 0.171833 0.044224
0.000000 0.171833 0.044224
0.000000 0.171833 0.044224
0.000000 0.172327 0.044213
0.000000 0.177803 0.044102
0.000000 0.191439 0.043945
0.000000 0.200582 0.043935
0.000000 0.213002 0.043931
0.023366 0.222908 0.041544
0.085459 0.236013 0.039424
0.135622 0.252873 0.038667
0.189062 0.263754 0.037935
0.244120 0.274094 0.037965
0.298574 0.291510 0.044720
0.359438 0.301818 0.056010
0.417356 0.317021 0.066449
0.471864 0.326353 0.076908
0.527749 0.344575 0.084218
0.578558 0.354192 0.091997
0.619551 0.368214 0.096263
0.654841 0.375536 0.100954
0.695838 0.393286 0.104165
0.723616 0.407071 0.105983
0.745383 0.419885 0.106992
0.770790 0.426253 0.110310
0.793886 0.441437 0.111248
0.826024 0.454935 0.113047
0.849678 0.467806 0.115013
0.869020 0.472934 0.132154
0.885908 0.484242 0.141714
0.905863 0.499719 0.154284
0.922272 0.511613 0.171572
0.937198 0.522527 0.182978
0.000000 0.199471 0.043932
0.000000 0.199471 0.043932
0.000000 0.199471 0.043932
0.000000 0.199471 0.043932
0.000000 0.208733 0.043992
0.000000 0.217119 0.044116
0.000000 0.230317 0.044446
0.000000 0.241307 0.044849
0.011508 0.255004 0.043234
0.075824 0.269444 0.041191
0.129161 0.285783 0.040796
0.180684 0.300424 0.040580
0.238208 0.311023 0.040099
0.294085 0.327827 0.040137
0.357750 0.339077 0.047573
0.424693 0.353258 0.058031
0.484010 0.369550 0.066687
0.539044 0.378698 0.076438
0.594765 0.398346 0.082610
0.634108 0.406956 0.088400
0.680780 0.423619 0.093212
0.710023 0.430860 0.097171
0.739326 0.448473 0.098330
0.758244 0.453961 0.100799
0.786472 0.468028 0.103036
0.813291 0.481340 0.104885
0.838841 0.492938 0.106251
0.860650 0.501514 0.112223
0.882022 0.513033 0.121566
0.901317 0.525592 0.138276
0.919278 0.538018 0.155765
0.932296 0.541778 0.168664
0.948019 0.557153 0.183230
0.000000 0.228879 0.044402
0.000000 0.228879 0.044402
0.000000 0.228879 0.044402
0.000000 0.228879 0.044402
0.000000 0.234578 0.044589
0.000000 0.244315 0.044980
0.000000 0.255828 0.045562
0.000000 0.274580 0.046777
0.000000 0.287502 0.046374
0.070671 0.304496 0.043481
0.120198 0.318620 0.043291
0.182850 0.333017 0.042843
0.234497 0.348655 0.042386
0.293370 0.362534 0.041417
0.360349 0.375039 0.041209
0.431698 0.393317 0.048819
0.493229 0.406875 0.057253
0.550534 0.417999 0.066339
0.606646 0.435402 0.073321
0.646884 0.443500 0.079752
0.695377 0.464179 0.084105
0.724988 0.472035 0.088360
0.749638 0.484561 0.090218
0.768667 0.490930 0.092722
0.798048 0.508675 0.094573
0.827652 0.514535 0.098937
0.852719 0.527650 0.101796
0.875422 0.539514 0.111400
0.893602 0.544516 0.126858
0.912039 0.556177 0.137609
0.930267 0.571242 0.147663
0.943131 0.576294 0.168474
0.956421 0.585716 0.181052
0.000000 0.262417 0.045955
0.000000 0.262417 0.045955
0.000000 0.262417 0.045955
0.000000 0.262417 0.045955
0.000000 0.263720 0.046037
0.000000 0.274130 0.046746
0.000000 0.290120 0.047902
0.000000 0.302894 0.048889
0.000000 0.320304 0.049866
0.055629 0.337059 0.046141
0.117611 0.350815 0.045676
0.175445 0.371718 0.045319
0.229168 0.384309 0.044201
0.302617 0.397844 0.041979
0.375171 0.413415 0.039903
0.436851 0.431445 0.040575
0.500432 0.442288 0.048542
0.559839 0.454305 0.056965
0.618651 0.475592 0.063178
0.654841 0.484567 0.068514
0.703670 0.500709 0.074763
0.734648 0.509027 0.079509
0.760045 0.515894 0.083512
0.789135 0.533422 0.085592
0.808291 0.538680 0.088878
0.842267 0.552038 0.092325
0.865902 0.562429 0.097978
0.886343 0.569903 0.109468
0.906114 0.581272 0.127807
0.921538 0.585602 0.140990
0.937567 0.595492 0.153042
0.951595 0.605797 0.169572
0.962919 0.609666 0.183849
0.000000 0.294085 0.048203
0.000000 0.294085 0.048203
0.000000 0.294085 0.048203
0.000000 0.294085 0.048203
0.000000 0.294085 0.048203
0.000000 0.304102 0.048985
0.000000 0.317295 0.049945
0.000000 0.336047 0.051356
0.000000 0.351086 0.052557
0.040978 0.370346 0.049336
0.099987 0.384995 0.048245
0.161871 0.404265 0.047242
0.229931 0.418128 0.045119
0.295875 0.434221 0.042652
0.370268 0.448567 0.039724
0.433712 0.460065 0.037839
0.500450 0.481239 0.038680
0.562715 0.492493 0.046663
0.620510 0.503136 0.055376
0.674964 0.520562 0.062312
0.712630 0.531175 0.067922
0.745615 0.545133 0.071835
0.771194 0.551412 0.076327
0.796626 0.557685 0.080961
0.817584 0.569854 0.083177
0.851741 0.578812 0.089785
0.875063 0.589943 0.107811
0.894135 0.594114 0.117272
0.913067 0.603788 0.129379
0.932901 0.608819 0.142502
0.944589 0.621260 0.162686
0.957903 0.630406 0.175958
0.968865 0.633791 0.187001
0.000000 0.321525 0.050255
0.000000 0.321525 0.050255
0.000000 0.321525 0.050255
0.000000 0.321525 0.050255
0.000000 0.321525 0.050255
0.000000 0.333268 0.051141
0.000000 0.348221 0.052324
0.000000 0.363787 0.053619
0.000000 0.380909 0.055060
0.021817 0.401137 0.053028
0.094578 0.416834 0.050012
0.152230 0.431836 0.048435
0.225034 0.445107 0.045725
0.293654 0.463776 0.042857
0.371002 0.478239 0.039529
0.436699 0.492822 0.037139
0.517078 0.508703 0.035806
0.567947 0.522888 0.039996
0.627025 0.533789 0.048450
0.681630 0.546520 0.056705
0.720279 0.559455 0.062088
0.751755 0.568052 0.067312
0.777464 0.574447 0.071967
0.805175 0.588231 0.075610
0.825621 0.594977 0.085242
0.858934 0.601201 0.097550
0.881714 0.611240 0.109103
0.900658 0.616106 0.122705
0.925321 0.630219 0.133792
0.939800 0.635233 0.151775
0.950423 0.644896 0.165262
0.960320 0.648686 0.180271
0.972710 0.658786 0.194665
0.000000 0.353855 0.052785
0.000000 0.353855 0.052785
0.000000 0.353855 0.052785
0.000000 0.353855 0.052785
0.000000 0.353855 0.052785
0.000000 0.355736 0.052941
0.000000 0.369495 0.054109
0.000000 0.386103 0.055469
0.000000 0.404251 0.056788
0.014232 0.424986 0.055222
0.078271 0.446884 0.051628
0.153367 0.460515 0.048910
0.218124 0.474262 0.046228
0.289639 0.490809 0.043078
0.370328 0.504086 0.039553
0.451328 0.518097 0.036584
0.520964 0.534903 0.035198
0.585111 0.549060 0.037048
0.631933 0.559131 0.043331
0.686392 0.571040 0.051695
0.725583 0.584849 0.057183
0.758174 0.595073 0.062480
0.784020 0.601552 0.067330
0.811549 0.613853 0.075444
0.833323 0.619349 0.088463
0.868422 0.630904 0.094970
0.889979 0.640285 0.115912
0.905542 0.644780 0.130400
0.929421 0.656275 0.142912
0.943416 0.660172 0.154302
0.957768 0.670448 0.167965
0.965511 0.674001 0.183618
0.977913 0.687111 0.198135
0.000000 0.377881 0.057822
0.000000 0.377881 0.057822
0.000000 0.377881 0.057822
0.000000 0.377881 0.057822
0.000000 0.377881 0.057822
0.000000 0.377881 0.057822
0.000000 0.394661 0.056591
0.000000 0.413849 0.057419
0.000000 0.431026 0.058439
0.000000 0.455652 0.059569
0.064393 0.470516 0.052713
0.142779 0.486165 0.049618
0.224398 0.503144 0.046079
0.299321 0.518386 0.042759
0.369128 0.529852 0.039775
0.452876 0.549658 0.036810
0.523781 0.564883 0.035279
0.588597 0.576661 0.035193
0.636242 0.586163 0.038451
0.693031 0.602528 0.046369
0.731878 0.613672 0.052038
0.764198 0.621114 0.059106
0.790427 0.627664 0.070964
0.814647 0.639543 0.081371
0.836381 0.645041 0.094782
0.870891 0.654397 0.107305
0.893310 0.664792 0.115862
0.911992 0.669752 0.130701
0.935275 0.681299 0.144071
0.948911 0.685800 0.159908
0.962159 0.692618 0.171085
0.970380 0.702014 0.186794
0.980732 0.706167 0.203716
0.000000 0.413803 0.066788
0.000000 0.413803 0.066788
0.000000 0.413803 0.066788
0.000000 0.413803 0.066788
0.000000 0.413803 0.066788
0.000000 0.413803 0.066788
0.000000 0.424897 0.067724
0.000000 0.439593 0.067468
0.000000 0.460571 0.064845
0.000000 0.483552 0.060413
0.050261 0.499507 0.054025
0.142756 0.517180 0.049868
0.217326 0.529825 0.046571
0.295769 0.544527 0.043169
0.383042 0.566422 0.039821
0.453231 0.579788 0.037570
0.525289 0.592465 0.036044
0.591443 0.604338 0.040745
0.652493 0.614175 0.041476
0.692784 0.631205 0.047460
0.732653 0.639035 0.053325
0.766361 0.646716 0.064402
0.792699 0.653342 0.076970
0.820636 0.668251 0.086567
0.852292 0.674773 0.100449
0.876795 0.680224 0.115194
0.898504 0.690780 0.128624
0.922678 0.695925 0.139985
0.939099 0.703447 0.155238
0.953471 0.713479 0.170418
0.965684 0.717917 0.187691
0.972739 0.720926 0.200945
0.983607 0.730597 0.217748
0.000000 0.445131 0.078573
0.000000 0.445131 0.078573
0.000000 0.445131 0.078573
0.000000 0.445131 0.078573
0.000000 0.445131 0.078573
0.000000 0.445131 0.078573
0.000000 0.450909 0.081337
0.000000 0.468256 0.075888
0.000000 0.488806 0.073279
0.000000 0.509039 0.070155
0.028926 0.528028 0.064097
0.123068 0.543057 0.054951
0.199874 0.557374 0.055283
0.282937 0.573113 0.049101
0.372716 0.586971 0.043275
0.445018 0.604816 0.044424
0.518748 0.617566 0.047974
0.587692 0.630835 0.046350
0.649932 0.642360 0.053654
0.695125 0.651655 0.062454
0.736539 0.664261 0.063035
0.770439 0.671991 0.074818
0.797525 0.680668 0.082843
0.823579 0.687277 0.096616
0.856981 0.699261 0.109035
0.881261 0.704704 0.124393
0.901432 0.709843 0.140544
0.926047 0.716898 0.147163
0.942652 0.726034 0.158071
0.955805 0.730550 0.175296
0.967877 0.734952 0.192948
0.978957 0.744111 0.210028
0.985290 0.747046 0.224195
0.000000 0.470677 0.090031
0.000000 0.470677 0.090031
0.000000 0.470677 0.090031
0.000000 0.470677 0.090031
0.000000 0.470677 0.090031
0.000000 0.470677 0.090031
0.000000 0.470677 0.090031
0.000000 0.489985 0.089048
0.000635 0.516730 0.085069
0.006330 0.537273 0.076796
0.022346 0.554213 0.073560
0.118358 0.572416 0.071529
0.202848 0.587698 0.065935
0.290901 0.601051 0.060782
0.369305 0.612145 0.054323
0.442885 0.624974 0.057762
0.533804 0.640642 0.053698
0.588669 0.655753 0.059857
0.652343 0.666020 0.059756
0.697925 0.675425 0.069263
0.738656 0.686479 0.079163
0.779886 0.693824 0.082960
0.800340 0.704476 0.095723
0.826584 0.710373 0.105760
0.859272 0.716832 0.120699
0.884264 0.723497 0.127458
0.905036 0.733621 0.142475
0.928609 0.739326 0.159083
0.944249 0.743457 0.171976
0.957907 0.752830 0.188563
0.969802 0.757181 0.206982
0.980636 0.762392 0.215753
0.987122 0.770321 0.233816
0.000000 0.505204 0.102932
0.000000 0.505204 0.102932
0.000000 0.505204 0.102932
0.000000 0.505204 0.102932
0.000000 0.505204 0.102932
0.000000 0.505204 0.102932
0.000000 0.505204 0.102932
0.000414 0.515405 0.099763
0.006081 0.535595 0.098454
0.013433 0.559763 0.095080
0.018257 0.574581 0.094851
0.104104 0.591528 0.083881
0.191981 0.611160 0.077285
0.283788 0.624569 0.072681
0.363951 0.636516 0.069778
0.456589 0.652147 0.065582
0.532469 0.665076 0.071020
0.602193 0.675797 0.071629
0.652585 0.685008 0.076849
0.699406 0.695464 0.078065
0.749848 0.710094 0.087080
0.781602 0.717502 0.100527
0.808438 0.722763 0.106501
0.827751 0.728335 0.121827
0.861888 0.740971 0.131424
0.886348 0.745086 0.139183
0.912857 0.750963 0.155867
0.929693 0.755771 0.173442
0.945978 0.763756 0.180957
0.959290 0.769820 0.194040
0.971042 0.774133 0.212985
0.981188 0.778196 0.232037
0.986427 0.784709 0.240608
0.005634 0.533501 0.113212
0.005634 0.533501 0.113212
0.005634 0.533501 0.113212
0.005634 0.533501 0.113212
0.005634 0.533501 0.113212
0.005634 0.533501 0.113212
0.005634 0.533501 0.113212
0.008035 0.541484 0.116242
0.014537 0.562733 0.106439
0.020776 0.581614 0.105339
0.026795 0.598960 0.104620
0.085180 0.616576 0.096366
0.196936 0.631440 0.089379
0.276003 0.642898 0.086935
0.374164 0.658943 0.082486
0.452878 0.670293 0.081375
0.531289 0.681668 0.080982
0.601421 0.698318 0.087754
0.652972 0.709118 0.088896
0.711243 0.719487 0.094504
0.750386 0.726433 0.098820
0.782227 0.733780 0.112507
0.809135 0.739051 0.118981
0.829027 0.751487 0.132961
0.862847 0.756567 0.140417
0.887054 0.761262 0.152939
0.913526 0.767076 0.170369
0.931172 0.774737 0.178035
0.943935 0.781060 0.196078
0.957111 0.785462 0.215264
0.969876 0.787999 0.219845
0.980446 0.796162 0.237989
0.986664 0.800606 0.257662
0.014314 0.561167 0.127319
0.014314 0.561167 0.127319
0.014314 0.561167 0.127319
0.014314 0.561167 0.127319
0.014314 0.561167 0.127319
0.014314 0.561167 0.127319
0.014314 0.561167 0.127319
0.014314 0.561167 0.127319
0.021114 0.581927 0.120807
0.027532 0.600313 0.120546
0.035109 0.621127 0.119270
0.085342 0.635996 0.110276
0.184882 0.649482 0.104268
0.283829 0.665075 0.100076
0.367588 0.680892 0.097407
0.448222 0.692215 0.096890
0.528471 0.703581 0.097224
0.600471 0.716372 0.098615
0.651551 0.726357 0.108524
0.711029 0.735291 0.106399
0.750386 0.742233 0.111069
0.782270 0.749600 0.125565
0.806277 0.760673 0.130832
0.825540 0.766158 0.147031
0.858503 0.771187 0.154820
