look-library/cubes/film-cinestill_33.cube
TITLE "look-library film-cinestill (film)"
# look-library — baked by build_cubes.py from looks/<id>.yaml
# method: GUIDE.md section 4a
LUT_3D_SIZE 5
0.015007 0.019357 0.050207
0.050998 0.021095 0.049183
0.326129 0.041058 0.076340
0.599080 0.092748 0.134356
0.788143 0.199384 0.216346
0.008908 0.061915 0.048549
0.077168 0.089054 0.041159
0.398727 0.155601 0.087682
0.668211 0.241802 0.147186
0.838336 0.344246 0.232617
0.000000 0.265103 0.045002
0.062167 0.337355 0.051519
0.485433 0.447977 0.078093
0.766837 0.534462 0.147992
0.893135 0.601557 0.276317
0.028495 0.499627 0.120633
0.043419 0.567816 0.120301
0.515090 0.661084 0.130078
0.801415 0.743193 0.222315
0.909859 0.802081 0.348887
0.075409 0.686457 0.277590
0.087912 0.738937 0.281643
0.548363 0.826562 0.292950
0.803559 0.871244 0.366804
0.912626 0.897886 0.462367
0.013797 0.020438 0.135224
0.070831 0.023337 0.163609
0.359068 0.044417 0.206703
0.622622 0.096390 0.282860
0.803997 0.214115 0.389088
0.002913 0.096211 0.194328
0.072684 0.125519 0.218210
0.431473 0.187599 0.257345
0.687984 0.267366 0.324708
0.858149 0.367464 0.416414
0.003545 0.343756 0.265731
0.012099 0.405789 0.283252
0.476003 0.500693 0.303645
0.765407 0.572488 0.371153
0.897421 0.620037 0.468648
0.041915 0.556871 0.343685
0.057408 0.617370 0.358646
0.491769 0.718481 0.381860
0.789822 0.783051 0.440472
0.909544 0.820182 0.515964
0.087172 0.729992 0.457507
0.100897 0.781508 0.472303
0.529595 0.854225 0.476922
0.796565 0.889986 0.531420
0.907219 0.909715 0.594512
0.037809 0.045997 0.419098
0.144709 0.050500 0.462946
0.429283 0.057170 0.542619
0.665044 0.127014 0.613181
0.833296 0.249892 0.671334
0.038731 0.136652 0.510616
0.147182 0.164964 0.559734
0.472608 0.223472 0.615761
0.725019 0.299526 0.658537
0.875784 0.396164 0.710695
0.034236 0.430416 0.623431
0.044645 0.479961 0.651105
0.511604 0.554569 0.685688
0.785833 0.600127 0.726105
0.913482 0.643517 0.763647
0.066239 0.640464 0.678352
0.079044 0.687235 0.711367
0.510187 0.772762 0.740826
0.785295 0.812560 0.768784
0.903198 0.846654 0.800476
0.108127 0.797889 0.751991
0.118724 0.833030 0.767742
0.551717 0.885417 0.785869
0.789201 0.908939 0.803669
0.901225 0.921723 0.821470
0.162824 0.090648 0.674285
0.268512 0.100430 0.708296
0.519163 0.148604 0.775777
0.724102 0.219095 0.835249
0.871262 0.327309 0.880530
0.141257 0.212285 0.746702
0.271867 0.234068 0.781743
0.552385 0.292980 0.839365
0.767100 0.361186 0.872471
0.896491 0.448090 0.901499
0.080422 0.509493 0.852619
0.218153 0.542201 0.876041
0.583974 0.594789 0.899846
0.809263 0.632282 0.917392
0.917552 0.678716 0.929811
0.100129 0.715831 0.887200
0.228824 0.753880 0.902045
0.577762 0.809697 0.924922
0.797248 0.836697 0.929122
0.908863 0.858801 0.937009
0.119717 0.850944 0.913937
0.303361 0.872890 0.921696
0.590943 0.903900 0.935891
0.800544 0.921366 0.940804
0.901399 0.932215 0.947841
0.339567 0.227888 0.894906
0.435712 0.252194 0.909960
0.624871 0.295020 0.933019
0.795772 0.354864 0.956971
0.902456 0.443494 0.975714
0.335416 0.322485 0.917445
0.440273 0.339319 0.929838
0.639807 0.381785 0.951912
0.816250 0.447683 0.970103
0.914294 0.521384 0.983627
0.319965 0.579370 0.965422
0.448396 0.601399 0.973262
0.661776 0.628115 0.985312
0.838096 0.667635 0.990632
0.919994 0.718218 0.996764
0.311789 0.785530 0.981221
0.436208 0.801506 0.988359
0.642608 0.832986 0.996330
0.825910 0.853126 0.995962
0.911671 0.872105 0.997370
0.373862 0.889899 0.988453
0.480991 0.900258 0.992567
0.655085 0.916468 0.998422
0.822129 0.929074 0.997682
0.908407 0.938150 0.998477
