look-library/cubes/film-teal-orange_33.cube
TITLE "look-library film-teal-orange (film)"
# look-library — baked by build_cubes.py from looks/<id>.yaml
# method: GUIDE.md section 4a
LUT_3D_SIZE 9
0.002652 0.021911 0.058690
0.002583 0.022342 0.058738
0.027346 0.023593 0.057551
0.156755 0.023336 0.059219
0.335593 0.040124 0.075590
0.515088 0.065135 0.098959
0.640422 0.087199 0.119754
0.734436 0.132683 0.141228
0.815673 0.200469 0.200146
0.002189 0.024793 0.058873
0.001951 0.026277 0.058787
0.037326 0.032096 0.056481
0.182531 0.043482 0.058338
0.367916 0.058658 0.078287
0.553170 0.086089 0.103864
0.668137 0.130298 0.123148
0.753510 0.184239 0.146879
0.835418 0.242556 0.196568
0.000000 0.059810 0.055243
0.000000 0.067558 0.054308
0.050841 0.087651 0.047589
0.210032 0.118093 0.059594
0.413913 0.154163 0.082792
0.595356 0.193829 0.109000
0.706152 0.240371 0.126658
0.791231 0.291710 0.146392
0.875624 0.345988 0.195266
0.000000 0.146768 0.045084
0.000000 0.155178 0.044734
0.034585 0.193222 0.040882
0.243823 0.241034 0.041894
0.465981 0.290563 0.084334
0.641898 0.340642 0.105827
0.756482 0.387640 0.115793
0.856125 0.440794 0.130295
0.927614 0.492381 0.188662
0.000000 0.262417 0.045955
0.000000 0.263720 0.046037
0.000000 0.320304 0.049866
0.229168 0.384309 0.044201
0.500432 0.442288 0.048542
0.703670 0.500709 0.074763
0.808291 0.538680 0.088878
0.906114 0.581272 0.127807
0.962919 0.609666 0.183849
0.000000 0.377881 0.057822
0.000000 0.377881 0.057822
0.000000 0.431026 0.058439
0.224398 0.503144 0.046079
0.523781 0.564883 0.035279
0.731878 0.613672 0.052038
0.836381 0.645041 0.094782
0.935275 0.681299 0.144071
0.980732 0.706167 0.203716
0.000000 0.505204 0.102932
0.000000 0.505204 0.102932
0.006081 0.535595 0.098454
0.191981 0.611160 0.077285
0.532469 0.665076 0.071020
0.749848 0.710094 0.087080
0.861888 0.740971 0.131424
0.945978 0.763756 0.180957
0.986427 0.784709 0.240608
0.031799 0.610808 0.149008
0.031799 0.610808 0.149008
0.036280 0.623051 0.145355
0.164888 0.689526 0.131436
0.529029 0.737881 0.126532
0.742871 0.778918 0.150350
0.857141 0.799735 0.185804
0.943352 0.830594 0.235460
0.990109 0.854129 0.288080
0.068621 0.701258 0.206180
0.068621 0.701258 0.206180
0.068621 0.701258 0.206180
0.146197 0.749282 0.202026
0.523590 0.796973 0.195357
0.743132 0.838178 0.215338
0.858598 0.862877 0.254601
0.944808 0.885477 0.302408
0.986851 0.901423 0.344405
0.002534 0.022299 0.063048
0.002425 0.022900 0.064122
0.034029 0.024737 0.067386
0.166287 0.025002 0.069179
0.351723 0.042103 0.079356
0.523917 0.066373 0.104038
0.647364 0.087634 0.143458
0.742339 0.138484 0.194670
0.819309 0.198639 0.242258
0.001845 0.026441 0.065286
0.001421 0.028932 0.067413
0.042406 0.035953 0.070438
0.186906 0.050056 0.072579
0.384609 0.068947 0.086228
0.559501 0.094366 0.112430
0.673597 0.134419 0.153071
0.760032 0.186255 0.197075
0.846111 0.254272 0.241033
0.000000 0.070685 0.069159
0.000000 0.077942 0.071500
0.046715 0.101427 0.074779
0.216437 0.132811 0.081429
0.425379 0.167348 0.094942
0.597752 0.204208 0.120678
0.711042 0.248226 0.159026
0.798658 0.296648 0.199744
0.881929 0.350079 0.242934
0.000000 0.164667 0.072166
0.000000 0.172769 0.073128
0.021198 0.216280 0.073442
0.232877 0.266374 0.070559
0.466402 0.314267 0.094631
0.651573 0.357649 0.122346
0.759621 0.399808 0.153175
0.860119 0.450146 0.190777
0.930158 0.498568 0.235113
0.000000 0.286129 0.077310
0.000000 0.289305 0.076751
0.000000 0.342768 0.079071
0.224423 0.405400 0.065911
0.508925 0.462416 0.067857
0.704109 0.515399 0.094440
0.812075 0.556973 0.136979
0.912993 0.590564 0.181761
0.964886 0.619344 0.235285
0.000000 0.392194 0.092262
0.000000 0.395688 0.095679
0.000000 0.452622 0.090660
0.209840 0.517778 0.075651
0.519180 0.576532 0.069396
0.731414 0.623185 0.095915
0.845333 0.655988 0.135030
0.934780 0.687937 0.189157
0.980854 0.712440 0.251696
0.000000 0.508312 0.112488
0.000000 0.508312 0.112488
0.009217 0.545556 0.111834
0.200323 0.618124 0.093112
0.529465 0.669709 0.090772
0.748396 0.714172 0.111291
0.860807 0.743501 0.148549
0.944911 0.766774 0.204503
0.985710 0.788079 0.269421
0.031799 0.610808 0.149008
0.031799 0.610808 0.149008
0.035852 0.621892 0.145735
0.164888 0.689526 0.131436
0.529029 0.737881 0.126532
0.742871 0.778918 0.150350
0.857141 0.799735 0.185804
0.943352 0.830594 0.235460
0.989694 0.855419 0.298292
0.068621 0.701258 0.206180
0.068621 0.701258 0.206180
0.068621 0.701258 0.206180
0.146197 0.749282 0.202026
0.523590 0.796973 0.195357
0.743132 0.838178 0.215338
0.858598 0.862877 0.254601
0.944808 0.885477 0.302408
0.986851 0.901423 0.344405
0.001687 0.022622 0.130810
0.001463 0.023482 0.139774
0.054228 0.024683 0.154135
0.194299 0.025385 0.172541
0.376817 0.042944 0.192211
0.547486 0.067251 0.216045
0.659946 0.090428 0.258609
0.757933 0.147899 0.296263
0.836038 0.214466 0.343185
0.000308 0.030803 0.145576
0.000000 0.033917 0.155164
0.056860 0.043308 0.171807
0.211706 0.055757 0.186641
0.405688 0.073844 0.207867
0.581034 0.100943 0.234561
0.687255 0.144525 0.267003
0.778346 0.199217 0.308286
0.861155 0.263541 0.347468
0.000000 0.091272 0.175715
0.000000 0.102371 0.186001
0.052627 0.125894 0.202155
0.233588 0.149572 0.213716
0.452363 0.185495 0.228473
0.623526 0.216845 0.254789
0.729218 0.260628 0.279210
0.823468 0.309346 0.307035
0.900254 0.367036 0.343244
0.000000 0.205047 0.200323
0.000000 0.217326 0.209076
0.003684 0.257405 0.219310
0.226734 0.296772 0.227923
0.470994 0.339131 0.243642
0.659088 0.383912 0.257599
0.776410 0.424699 0.280882
0.876084 0.472338 0.303703
0.937451 0.509874 0.344519
0.000000 0.332942 0.222471
0.000000 0.342305 0.223705
0.000000 0.399547 0.237420
0.207097 0.450894 0.230458
0.512956 0.500124 0.225685
0.714582 0.546058 0.244432
0.820509 0.578786 0.278214
0.915067 0.607358 0.310641
0.967860 0.637660 0.349436
0.000000 0.447572 0.243626
0.000000 0.447572 0.243626
0.000000 0.504694 0.248554
0.188158 0.563030 0.232711
0.516412 0.612657 0.217982
0.737549 0.649485 0.240541
0.842784 0.677247 0.278614
0.934153 0.708123 0.323538
0.983755 0.730878 0.363528
0.014173 0.555172 0.258027
0.014173 0.555172 0.258027
0.027388 0.593656 0.258079
0.157846 0.657373 0.250171
0.520195 0.703757 0.237399
0.748721 0.739148 0.254225
0.852831 0.763008 0.286930
0.941002 0.784733 0.335673
0.987095 0.801625 0.378431
0.049643 0.651364 0.277467
0.049643 0.651364 0.277467
0.054305 0.663064 0.276373
0.145291 0.721023 0.276399
0.517465 0.765003 0.258681
0.738746 0.801152 0.288204
0.855324 0.826006 0.312403
0.942950 0.851605 0.360092
0.987473 0.867833 0.398724
0.078796 0.720988 0.300993
0.079485 0.722254 0.308737
0.079485 0.722254 0.308737
0.148512 0.769758 0.302465
0.517070 0.818499 0.292697
0.740296 0.857538 0.317027
0.849171 0.878140 0.349019
0.940592 0.895731 0.388140
0.984637 0.909558 0.422065
0.000000 0.028152 0.248072
0.005674 0.029079 0.259601
0.088109 0.029242 0.285391
0.228416 0.028004 0.311002
0.418355 0.046669 0.340390
0.577415 0.070429 0.366143
0.681553 0.102051 0.400023
0.768614 0.159125 0.442817
0.853971 0.225607 0.472744
0.000000 0.032684 0.270124
0.001194 0.036639 0.282183
0.092534 0.045093 0.308744
0.240824 0.058940 0.334210
0.438488 0.079611 0.360341
0.598804 0.109812 0.390844
0.705434 0.155685 0.416918
0.789721 0.209542 0.450958
0.876646 0.270938 0.475720
0.000000 0.112156 0.322980
0.000000 0.122405 0.335473
0.085020 0.141409 0.359397
0.254854 0.167854 0.381720
0.478326 0.199386 0.403782
0.641816 0.230646 0.417900
0.750444 0.276431 0.436766
0.837426 0.319207 0.454473
0.921449 0.378408 0.478155
0.000000 0.236327 0.357683
0.000000 0.252870 0.374727
0.024658 0.291580 0.395283
0.249469 0.326045 0.415221
0.504800 0.363160 0.412842
0.697756 0.402970 0.422225
0.797355 0.441809 0.429668
0.894176 0.480926 0.450661
0.957654 0.525755 0.470342
0.000000 0.376311 0.389592
0.000000 0.390005 0.395890
0.000000 0.437993 0.418704
0.229968 0.489731 0.418638
0.532084 0.531889 0.397834
0.722743 0.574803 0.422008
0.830327 0.604498 0.434554
0.918549 0.627269 0.461094
0.973882 0.649710 0.485257
0.000000 0.490310 0.404756
0.000000 0.491985 0.405171
0.013733 0.546688 0.421912
0.194441 0.600678 0.414898
0.526207 0.647539 0.402579
0.742287 0.680423 0.415925
0.847150 0.701536 0.444543
0.935125 0.723126 0.475548
0.980690 0.743068 0.503498
0.030358 0.594157 0.423066
0.032895 0.601055 0.421970
0.047327 0.638368 0.427037
0.181980 0.690956 0.427842
0.524513 0.731999 0.413614
0.745989 0.763557 0.427372
0.852249 0.783412 0.451385
0.940874 0.799798 0.481350
0.985380 0.820900 0.510580
0.067368 0.687371 0.435724
0.067368 0.687371 0.435724
0.072812 0.700365 0.437309
0.152098 0.751680 0.444041
0.515900 0.795031 0.435561
0.730985 0.829984 0.447346
0.851812 0.848170 0.467432
0.936875 0.867538 0.499207
0.983949 0.882633 0.524463
0.095089 0.751954 0.460562
0.095089 0.751954 0.460562
0.095089 0.751954 0.460562
0.155759 0.801821 0.469764
0.514475 0.853309 0.455123
0.730469 0.881047 0.468695
0.844520 0.898324 0.487686
0.938856 0.910777 0.517372
0.983894 0.922124 0.542191
0.017063 0.046096 0.386363
0.048089 0.047374 0.400214
0.137660 0.048950 0.426274
0.282238 0.050382 0.460846
0.468264 0.053526 0.497816
0.611624 0.087302 0.524037
0.715431 0.132071 0.556094
0.793061 0.190687 0.580630
0.873027 0.248951 0.599200
0.010331 0.049194 0.404830
0.044860 0.050317 0.418023
0.143227 0.052321 0.447567
0.288323 0.063878 0.480553
0.481568 0.085548 0.512396
0.626212 0.124242 0.538400
0.727100 0.169515 0.567421
0.806450 0.223902 0.586758
0.890099 0.289910 0.602127
0.007619 0.132448 0.465576
0.009172 0.139852 0.477458
0.129644 0.161907 0.504330
0.302754 0.182476 0.534014
0.514712 0.214538 0.560172
0.665373 0.247131 0.577938
0.773593 0.293292 0.582103
0.862088 0.346992 0.589815
0.934384 0.396338 0.604949
0.000650 0.273006 0.517486
0.002698 0.285534 0.534347
0.074581 0.319211 0.558604
0.288838 0.350110 0.578261
0.543268 0.387004 0.583154
0.716312 0.428563 0.577827
0.824521 0.455555 0.580540
0.918283 0.501512 0.590158
0.975564 0.544657 0.598074
0.000000 0.415505 0.546917
0.002375 0.434307 0.555749
0.011462 0.475849 0.579870
0.272076 0.520359 0.573889
0.568691 0.555813 0.564909
0.744326 0.593389 0.570559
0.847433 0.614033 0.575365
0.933652 0.641078 0.588997
0.986560 0.661674 0.602341
0.014879 0.527804 0.558660
0.019376 0.546345 0.564192
0.029031 0.582611 0.575500
0.253325 0.632479 0.573697
0.557993 0.666763 0.563336
0.751726 0.694984 0.571474
0.848884 0.714472 0.593114
0.936942 0.739581 0.605039
0.982341 0.754773 0.619425
0.049125 0.636201 0.566225
0.049125 0.636201 0.566225
0.064480 0.673397 0.581638
0.227046 0.718180 0.579977
0.550291 0.757426 0.571131
0.741612 0.782579 0.576658
0.852553 0.795629 0.594192
0.939738 0.815075 0.615727
0.982835 0.838473 0.630053
0.081255 0.713599 0.583903
0.081255 0.713599 0.583903
0.090224 0.734817 0.585430
0.200263 0.776967 0.594520
0.523801 0.819715 0.580924
0.732438 0.849581 0.591786
0.849379 0.869888 0.599589
0.936284 0.882983 0.615260
0.983685 0.892040 0.630740
0.109004 0.778910 0.593201
0.109004 0.778910 0.593201
0.110304 0.781716 0.599682
0.210170 0.830206 0.600843
0.521227 0.873775 0.596798
0.730077 0.897056 0.601263
0.841268 0.912408 0.613668
0.932887 0.919304 0.619361
0.982138 0.929171 0.633932
0.085580 0.067307 0.525346
0.119996 0.069276 0.541669
0.199912 0.071111 0.563559
0.349502 0.072768 0.594034
0.517821 0.089326 0.624131
0.653574 0.127680 0.652706
0.740334 0.173227 0.665841
0.819038 0.225021 0.675818
0.900861 0.294199 0.684044
0.077118 0.068878 0.532980
0.115464 0.070740 0.549103
0.201850 0.072535 0.571381
0.344939 0.083651 0.600331
0.518455 0.107305 0.631705
0.659278 0.145539 0.657023
0.747475 0.193026 0.670942
0.831683 0.250790 0.678666
0.907673 0.310333 0.683384
0.043301 0.162401 0.595321
0.095583 0.166444 0.605321
0.194321 0.187281 0.626187
0.367970 0.212112 0.650281
0.546671 0.240050 0.669932
0.697216 0.275043 0.679418
0.790568 0.313331 0.679142
0.878359 0.362091 0.678373
0.950286 0.422074 0.679283
0.026002 0.308990 0.642567
0.026777 0.328697 0.654308
0.157437 0.343149 0.667245
0.364373 0.380025 0.681012
0.588820 0.408119 0.678944
0.743271 0.449242 0.673715
0.837777 0.475512 0.670641
0.931654 0.520919 0.670939
0.984734 0.554588 0.671597
0.026803 0.461745 0.659625
0.030313 0.475897 0.666564
0.089894 0.511897 0.679197
0.358085 0.543566 0.677351
0.607988 0.572693 0.668095
0.765794 0.603600 0.663171
0.874534 0.629706 0.663281
0.953583 0.652081 0.667058
0.995056 0.668613 0.673217
0.046057 0.572646 0.658115
0.050249 0.586297 0.663162
0.059490 0.617417 0.672026
0.327790 0.652452 0.671555
0.595567 0.683450 0.658732
0.761225 0.709431 0.664755
0.864649 0.730503 0.671555
0.942766 0.750086 0.678704
0.987834 0.764748 0.690836
0.066572 0.660270 0.660075
0.070183 0.673313 0.662129
0.079325 0.703309 0.670212
0.305579 0.740815 0.665352
0.586752 0.770945 0.662888
0.758465 0.791128 0.666935
0.864049 0.811520 0.679671
0.940890 0.828976 0.691978
0.983034 0.845295 0.702565
0.091711 0.734712 0.665036
0.091711 0.734712 0.665036
0.104252 0.764238 0.671605
0.283010 0.800771 0.672614
0.575054 0.839942 0.669714
0.739156 0.864113 0.673258
0.851663 0.877511 0.679454
0.937863 0.889394 0.691186
0.984252 0.901416 0.701865
0.118035 0.797092 0.673487
0.118035 0.797092 0.673487
0.122731 0.808253 0.677033
0.297548 0.855930 0.678847
0.573003 0.889924 0.680657
0.736620 0.908724 0.681135
0.852637 0.919322 0.687301
0.939128 0.929676 0.695620
0.982814 0.934162 0.705808
0.168710 0.087026 0.635609
0.200820 0.095020 0.644726
0.287756 0.102030 0.660686
0.422546 0.120986 0.687608
0.581038 0.152690 0.713553
0.688280 0.186727 0.732465
0.774481 0.225591 0.740149
0.860021 0.277091 0.742384
0.929331 0.345344 0.744809
0.162672 0.086823 0.634359
0.200820 0.095020 0.644726
0.287756 0.102030 0.660686
0.422546 0.120986 0.687608
0.581038 0.152690 0.713553
0.685122 0.186768 0.732298
0.774481 0.225591 0.740149
0.860021 0.277091 0.742384
0.929331 0.345344 0.744809
0.138897 0.196373 0.680275
0.184278 0.205908 0.689544
0.284320 0.222366 0.705896
0.441038 0.243255 0.727798
0.605707 0.266158 0.738160
0.726939 0.302828 0.749418
0.812866 0.343418 0.750211
0.905508 0.395717 0.740937
0.965027 0.448810 0.741351
0.074379 0.349950 0.726507
0.125929 0.362368 0.731909
0.257311 0.378666 0.742171
0.449062 0.402556 0.746393
0.640878 0.437477 0.743724
0.770112 0.469265 0.742849
0.864551 0.507318 0.739194
0.946449 0.543125 0.737462
0.993399 0.572621 0.742034
0.054011 0.510246 0.740786
0.056764 0.519308 0.744728
0.222898 0.537839 0.748692
0.454369 0.570702 0.742399
0.652783 0.596522 0.740016
0.788717 0.620635 0.734326
0.892815 0.639245 0.735677
0.962394 0.659760 0.739701
1.000000 0.676355 0.745231
0.073720 0.611077 0.732786
0.077609 0.623930 0.735912
0.190315 0.646438 0.739415
0.425285 0.679749 0.739869
0.660052 0.700069 0.735541
0.785895 0.721166 0.738743
0.886117 0.739721 0.739292
0.953825 0.758179 0.746014
0.996923 0.772490 0.751776
0.094000 0.696354 0.732233
0.097445 0.706829 0.735773
0.148314 0.728932 0.741094
0.408339 0.762440 0.738227
0.635738 0.785558 0.737221
0.776104 0.803808 0.741822
0.875006 0.825478 0.752273
0.942502 0.843602 0.764176
0.984365 0.855888 0.772668
0.108470 0.759162 0.732593
0.111160 0.767841 0.735612
0.116543 0.787743 0.740203
0.391966 0.822034 0.744008
0.622714 0.857911 0.743224
0.756887 0.872709 0.750234
0.863548 0.887784 0.752324
0.944846 0.896814 0.766595
0.984521 0.905867 0.775106
0.126438 0.816075 0.741403
0.126438 0.816075 0.741403
0.134641 0.840352 0.746997
0.384884 0.878375 0.748511
0.622228 0.904044 0.753744
0.754634 0.915975 0.754407
0.864058 0.927506 0.762421
0.940961 0.933897 0.771433
0.981636 0.940305 0.782363
0.261833 0.154492 0.733119
0.298963 0.162232 0.740567
0.380127 0.174768 0.753842
0.512209 0.190892 0.770204
0.629224 0.216500 0.782943
0.729154 0.250474 0.796660
0.818202 0.295035 0.798740
0.899257 0.344487 0.797592
0.957526 0.396687 0.795453
0.261833 0.154492 0.733119
0.298963 0.162232 0.740567
0.380127 0.174768 0.753842
0.512209 0.190892 0.770204
0.629224 0.216500 0.782943
0.729154 0.250474 0.796660
0.818202 0.295035 0.798740
0.899257 0.344487 0.797592
0.957526 0.396687 0.795453
0.253454 0.242188 0.763089
0.295145 0.245068 0.768069
0.378359 0.256721 0.777791
0.523653 0.281531 0.789572
0.656901 0.313832 0.795577
0.761292 0.346385 0.800744
0.849121 0.381349 0.797812
0.927968 0.425851 0.793416
0.982751 0.481368 0.790983
0.213772 0.397957 0.792405
0.267048 0.403010 0.794659
0.370569 0.420687 0.797605
0.543160 0.447735 0.797845
0.690011 0.471797 0.795359
0.798238 0.496876 0.795737
0.895211 0.534638 0.787340
0.960610 0.560863 0.790832
1.000000 0.603168 0.797199
0.163881 0.549150 0.799218
0.232740 0.555673 0.799136
0.365981 0.577229 0.796657
0.547542 0.592471 0.790806
0.710633 0.615560 0.792217
0.811159 0.630414 0.792957
0.908673 0.652915 0.798035
0.972517 0.673034 0.799532
1.000000 0.689855 0.806563
0.117768 0.649547 0.790604
0.199730 0.657645 0.791019
0.349004 0.672389 0.790892
0.539426 0.699283 0.797830
0.703898 0.716301 0.797606
0.802703 0.731353 0.800085
0.902988 0.747755 0.806795
0.967347 0.765373 0.808470
1.000000 0.778932 0.814889
0.118015 0.730284 0.789295
0.157529 0.739208 0.790724
0.303969 0.756196 0.794298
0.508637 0.780219 0.799697
0.691669 0.798270 0.804930
0.794532 0.820419 0.811237
0.887495 0.836674 0.814798
0.952286 0.853055 0.821152
0.989103 0.863951 0.826923
0.129772 0.788797 0.790370
0.132843 0.799743 0.795405
0.278224 0.817939 0.799684
0.493283 0.845146 0.805498
0.667761 0.867143 0.813689
0.776393 0.884589 0.814672
0.885532 0.892605 0.817295
0.946801 0.903847 0.824016
0.985090 0.912792 0.832386
0.140739 0.843146 0.799273
0.141645 0.849108 0.801748
0.291561 0.872846 0.808241
0.489422 0.893608 0.813891
0.666183 0.911563 0.816640
0.774543 0.925282 0.821638
0.877069 0.931169 0.821481
0.948176 0.939642 0.828001
0.986492 0.943001 0.831350
0.385269 0.240451 0.807671
0.419917 0.242063 0.810803
0.485294 0.251758 0.817055
0.588623 0.273774 0.828346
0.691588 0.296749 0.833456
0.781607 0.324311 0.835792
0.859675 0.365900 0.835810
0.934146 0.410581 0.836666
0.980729 0.456091 0.838706
0.373965 0.239887 0.806572
0.408150 0.241534 0.809780
0.485294 0.251758 0.817055
0.588623 0.273774 0.828346
0.691588 0.296749 0.833456
0.774627 0.324090 0.835682
0.859675 0.365900 0.835810
0.934146 0.410581 0.836666
0.980729 0.456091 0.838706
0.368298 0.292720 0.817658
0.404854 0.294985 0.820183
0.493395 0.307654 0.825812
0.602496 0.333108 0.833845
0.710051 0.359332 0.835915
0.791902 0.389181 0.836441
0.880243 0.425194 0.837109
0.949880 0.462774 0.837475
0.992297 0.507772 0.839766
0.369275 0.449847 0.832142
0.413674 0.453745 0.832562
0.502745 0.461150 0.832777
0.623958 0.479421 0.838696
0.741150 0.510406 0.840112
0.833235 0.529505 0.840734
0.911629 0.560268 0.841209
0.974405 0.586972 0.839789
1.000000 0.620439 0.844593
0.347201 0.582658 0.838522
0.388374 0.592625 0.838997
0.490685 0.601208 0.839647
0.637996 0.616772 0.840422
0.756202 0.632739 0.841359
0.841268 0.654158 0.842616
0.928977 0.666625 0.845815
0.981237 0.687195 0.846804
1.000000 0.707761 0.852162
0.322785 0.685145 0.838970
0.377032 0.693544 0.840063
0.485566 0.703001 0.842262
0.626603 0.714643 0.843642
0.744094 0.734126 0.846151
0.830379 0.747485 0.852097
0.921586 0.762367 0.852460
0.975649 0.773229 0.853130
1.000000 0.792545 0.857374
0.296316 0.763022 0.839324
0.355763 0.768726 0.840940
0.467297 0.783910 0.844156
0.611020 0.798719 0.848538
0.726976 0.811351 0.851012
0.815483 0.831671 0.855039
0.910555 0.845516 0.854373
0.964186 0.860397 0.858370
0.997803 0.870788 0.859688
0.271681 0.821128 0.842090
0.334854 0.829442 0.843991
0.450229 0.848568 0.847457
0.582719 0.865382 0.852431
0.714663 0.878796 0.854373
0.806527 0.893771 0.854796
0.897699 0.899384 0.854441
0.953203 0.910621 0.863395
0.989441 0.919091 0.868572
0.262061 0.873040 0.847415
0.328327 0.880426 0.849727
0.448334 0.892618 0.853410
0.581154 0.909628 0.856226
0.702407 0.919985 0.857501
0.797778 0.928960 0.857738
0.896892 0.936890 0.860077
0.956111 0.941749 0.860901
0.987627 0.947378 0.868280
