look-library/cubes/film-portra_33.cube
TITLE "look-library film-portra (film)"
# look-library — baked by build_cubes.py from looks/<id>.yaml
# method: GUIDE.md section 4a
LUT_3D_SIZE 5
0.034107 0.057465 0.069501
0.063273 0.060223 0.068894
0.423526 0.078080 0.057541
0.772955 0.138249 0.133881
0.928086 0.179282 0.171932
0.024972 0.077046 0.070644
0.053131 0.083374 0.070062
0.419959 0.128567 0.058146
0.825276 0.186570 0.145009
0.963056 0.286590 0.182992
0.013799 0.254885 0.060651
0.018046 0.278988 0.056270
0.476281 0.388445 0.054904
0.918703 0.503023 0.161888
1.000000 0.589084 0.198541
0.056169 0.456873 0.049319
0.066573 0.498475 0.057048
0.546194 0.631506 0.088355
0.963627 0.750005 0.165555
1.000000 0.823013 0.200225
0.096151 0.603170 0.078267
0.112050 0.653804 0.089670
0.628589 0.799678 0.121928
0.980815 0.886767 0.164885
1.000000 0.927710 0.196786
0.030342 0.060442 0.094184
0.078553 0.065617 0.097305
0.464814 0.085983 0.102185
0.804245 0.145731 0.144712
0.942977 0.187231 0.226961
0.012036 0.092460 0.101063
0.058827 0.103086 0.107389
0.475821 0.153252 0.112436
0.852372 0.231186 0.150639
0.973037 0.335386 0.241312
0.023491 0.307908 0.111254
0.029669 0.338626 0.115830
0.531976 0.453384 0.107867
0.937328 0.561744 0.165871
1.000000 0.641977 0.256727
0.068189 0.507195 0.121399
0.080493 0.553285 0.127729
0.555463 0.688735 0.123560
0.969718 0.811596 0.164178
1.000000 0.867063 0.276133
0.106457 0.641529 0.178838
0.123962 0.697101 0.177103
0.616405 0.838496 0.177570
0.981072 0.914938 0.231828
1.000000 0.945747 0.347882
0.081348 0.076061 0.455828
0.134248 0.078839 0.471182
0.552768 0.094258 0.522796
0.863415 0.156886 0.556778
0.975505 0.279587 0.619851
0.086802 0.137613 0.491029
0.092859 0.163915 0.519152
0.558305 0.232101 0.557108
0.911540 0.319381 0.587649
1.000000 0.433926 0.653123
0.088351 0.421580 0.567177
0.095684 0.468696 0.591286
0.566982 0.579645 0.602661
0.958534 0.658945 0.631158
1.000000 0.735769 0.688679
0.109685 0.637055 0.608899
0.126243 0.693836 0.629782
0.561689 0.831797 0.631422
0.963803 0.894137 0.661759
1.000000 0.919264 0.714562
0.150324 0.779421 0.654242
0.168510 0.835093 0.671772
0.626869 0.932723 0.672122
0.970899 0.966988 0.705765
1.000000 0.980473 0.738413
0.165385 0.155143 0.764992
0.260526 0.160588 0.792231
0.661758 0.213465 0.840716
0.934645 0.296418 0.865476
1.000000 0.427096 0.893848
0.174594 0.247932 0.810562
0.226183 0.285720 0.832771
0.665768 0.364378 0.875834
0.967947 0.464505 0.893099
1.000000 0.556987 0.909115
0.180961 0.536824 0.882923
0.183084 0.588247 0.898148
0.665757 0.676319 0.916428
0.986828 0.749476 0.915409
1.000000 0.803834 0.924792
0.194550 0.746243 0.903353
0.202067 0.802791 0.909568
0.666270 0.892652 0.926332
0.973903 0.931719 0.924805
1.000000 0.949449 0.931744
0.210705 0.866282 0.916362
0.212600 0.902399 0.922382
0.711711 0.962730 0.932403
0.980974 0.984227 0.927283
1.000000 0.992924 0.935377
0.275054 0.364254 0.924572
0.460827 0.398239 0.936577
0.808239 0.457738 0.953151
0.995007 0.539003 0.961692
1.000000 0.615980 0.967699
0.230099 0.469412 0.942042
0.448609 0.507449 0.953946
0.810823 0.569216 0.964907
1.000000 0.633109 0.969166
1.000000 0.707527 0.972692
0.212451 0.677405 0.969502
0.384859 0.713151 0.975679
0.810192 0.780168 0.977379
1.000000 0.833380 0.973602
1.000000 0.867743 0.973964
0.229793 0.853149 0.968332
0.395216 0.884573 0.975970
0.808158 0.928807 0.978067
0.997546 0.950730 0.973312
1.000000 0.964780 0.973715
0.298010 0.930912 0.974029
0.499382 0.951480 0.979028
0.837496 0.978709 0.977675
0.995746 0.992185 0.973667
1.000000 0.998521 0.973678
