look-library/cubes/film-teal-orange_33.cube
TITLE "look-library film-teal-orange (film)"
# look-library — baked by build_cubes.py from looks/<id>.yaml
# method: GUIDE.md section 4a
LUT_3D_SIZE 5
0.002652 0.021911 0.058690
0.027346 0.023593 0.057551
0.335593 0.040124 0.075590
0.640422 0.087199 0.119754
0.815673 0.200469 0.200146
0.000000 0.059810 0.055243
0.050841 0.087651 0.047589
0.413913 0.154163 0.082792
0.706152 0.240371 0.126658
0.875624 0.345988 0.195266
0.000000 0.262417 0.045955
0.000000 0.320304 0.049866
0.500432 0.442288 0.048542
0.808291 0.538680 0.088878
0.962919 0.609666 0.183849
0.000000 0.505204 0.102932
0.006081 0.535595 0.098454
0.532469 0.665076 0.071020
0.861888 0.740971 0.131424
0.986427 0.784709 0.240608
0.068621 0.701258 0.206180
0.068621 0.701258 0.206180
0.523590 0.796973 0.195357
0.858598 0.862877 0.254601
0.986851 0.901423 0.344405
0.001687 0.022622 0.130810
0.054228 0.024683 0.154135
0.376817 0.042944 0.192211
0.659946 0.090428 0.258609
0.836038 0.214466 0.343185
0.000000 0.091272 0.175715
0.052627 0.125894 0.202155
0.452363 0.185495 0.228473
0.729218 0.260628 0.279210
0.900254 0.367036 0.343244
0.000000 0.332942 0.222471
0.000000 0.399547 0.237420
0.512956 0.500124 0.225685
0.820509 0.578786 0.278214
0.967860 0.637660 0.349436
0.014173 0.555172 0.258027
0.027388 0.593656 0.258079
0.520195 0.703757 0.237399
0.852831 0.763008 0.286930
0.987095 0.801625 0.378431
0.078796 0.720988 0.300993
0.079485 0.722254 0.308737
0.517070 0.818499 0.292697
0.849171 0.878140 0.349019
0.984637 0.909558 0.422065
0.017063 0.046096 0.386363
0.137660 0.048950 0.426274
0.468264 0.053526 0.497816
0.715431 0.132071 0.556094
0.873027 0.248951 0.599200
0.007619 0.132448 0.465576
0.129644 0.161907 0.504330
0.514712 0.214538 0.560172
0.773593 0.293292 0.582103
0.934384 0.396338 0.604949
0.000000 0.415505 0.546917
0.011462 0.475849 0.579870
0.568691 0.555813 0.564909
0.847433 0.614033 0.575365
0.986560 0.661674 0.602341
0.049125 0.636201 0.566225
0.064480 0.673397 0.581638
0.550291 0.757426 0.571131
0.852553 0.795629 0.594192
0.982835 0.838473 0.630053
0.109004 0.778910 0.593201
0.110304 0.781716 0.599682
0.521227 0.873775 0.596798
0.841268 0.912408 0.613668
0.982138 0.929171 0.633932
0.168710 0.087026 0.635609
0.287756 0.102030 0.660686
0.581038 0.152690 0.713553
0.774481 0.225591 0.740149
0.929331 0.345344 0.744809
0.138897 0.196373 0.680275
0.284320 0.222366 0.705896
0.605707 0.266158 0.738160
0.812866 0.343418 0.750211
0.965027 0.448810 0.741351
0.054011 0.510246 0.740786
0.222898 0.537839 0.748692
0.652783 0.596522 0.740016
0.892815 0.639245 0.735677
1.000000 0.676355 0.745231
0.094000 0.696354 0.732233
0.148314 0.728932 0.741094
0.635738 0.785558 0.737221
0.875006 0.825478 0.752273
0.984365 0.855888 0.772668
0.126438 0.816075 0.741403
0.134641 0.840352 0.746997
0.622228 0.904044 0.753744
0.864058 0.927506 0.762421
0.981636 0.940305 0.782363
0.385269 0.240451 0.807671
0.485294 0.251758 0.817055
0.691588 0.296749 0.833456
0.859675 0.365900 0.835810
0.980729 0.456091 0.838706
0.368298 0.292720 0.817658
0.493395 0.307654 0.825812
0.710051 0.359332 0.835915
0.880243 0.425194 0.837109
0.992297 0.507772 0.839766
0.347201 0.582658 0.838522
0.490685 0.601208 0.839647
0.756202 0.632739 0.841359
0.928977 0.666625 0.845815
1.000000 0.707761 0.852162
0.296316 0.763022 0.839324
0.467297 0.783910 0.844156
0.726976 0.811351 0.851012
0.910555 0.845516 0.854373
0.997803 0.870788 0.859688
0.262061 0.873040 0.847415
0.448334 0.892618 0.853410
0.702407 0.919985 0.857501
0.896892 0.936890 0.860077
0.987627 0.947378 0.868280
