look-library/cubes/film-portra_33.cube
TITLE "look-library film-portra (film)"
# look-library — baked by build_cubes.py from looks/<id>.yaml
# method: GUIDE.md section 4a
LUT_3D_SIZE 33
0.034107 0.057465 0.069501
0.034107 0.057465 0.069501
0.034304 0.057486 0.069499
0.034629 0.057519 0.069494
0.035549 0.057613 0.069480
0.037145 0.057771 0.069455
0.040289 0.058071 0.069402
0.048957 0.058886 0.069226
0.063273 0.060223 0.068894
0.084274 0.062100 0.068256
0.113654 0.064795 0.067384
0.153458 0.068099 0.066225
0.197882 0.071131 0.064696
0.242338 0.073622 0.062916
0.304191 0.076112 0.059941
0.354287 0.077587 0.057195
0.423526 0.078080 0.057541
0.481707 0.077470 0.069200
0.533512 0.081080 0.080135
0.581772 0.092412 0.090736
0.631254 0.104584 0.102154
0.664457 0.113075 0.110138
0.697659 0.121837 0.118390
0.741759 0.131170 0.127206
0.772955 0.138249 0.133881
0.805235 0.146033 0.141193
0.830285 0.151838 0.146599
0.854565 0.157869 0.152208
0.874008 0.163027 0.156989
0.888957 0.167218 0.160859
0.903553 0.171520 0.164817
0.915110 0.175087 0.168092
0.928086 0.179282 0.171932
0.034107 0.057465 0.069501
0.034107 0.057465 0.069501
0.034304 0.057486 0.069499
0.034618 0.057549 0.069496
0.035484 0.057637 0.069483
0.037134 0.057801 0.069457
0.040708 0.058186 0.069399
0.048924 0.059003 0.069233
0.063247 0.060355 0.068901
0.084258 0.062239 0.068283
0.113644 0.064939 0.067393
0.153460 0.068301 0.066240
0.197912 0.071437 0.064738
0.239351 0.074050 0.063094
0.304369 0.076869 0.059973
0.354510 0.078376 0.057216
0.419189 0.079263 0.056703
0.477800 0.079199 0.068377
0.534345 0.081271 0.080314
0.582783 0.092656 0.090964
0.632364 0.104863 0.102417
0.666080 0.113497 0.110535
0.699416 0.122308 0.118834
0.742916 0.131422 0.127444
0.774420 0.138596 0.134208
0.806801 0.146385 0.141521
0.831140 0.152043 0.146790
0.858966 0.159010 0.153267
0.876195 0.163628 0.157545
0.893015 0.168393 0.161940
0.906194 0.172322 0.165554
0.918047 0.176019 0.168945
0.930548 0.180102 0.172682
0.034063 0.057579 0.069509
0.034027 0.057576 0.069509
0.034261 0.057600 0.069506
0.034570 0.057676 0.069504
0.035490 0.057770 0.069491
0.036999 0.057964 0.069470
0.040664 0.058314 0.069407
0.048582 0.059104 0.069248
0.063209 0.060533 0.068930
0.084233 0.062465 0.068292
0.111930 0.065117 0.067484
0.151622 0.068648 0.066359
0.195499 0.071989 0.064887
0.245683 0.075175 0.062888
0.300821 0.077763 0.060251
0.354829 0.079512 0.057247
0.419679 0.080727 0.056805
0.478426 0.080880 0.068488
0.535320 0.081495 0.080523
0.584163 0.092988 0.091275
0.634388 0.105374 0.102897
0.667793 0.113943 0.110955
0.701297 0.122814 0.119311
0.745273 0.131938 0.127931
0.775929 0.138956 0.134547
0.809058 0.146894 0.141995
0.833549 0.152624 0.147331
0.860588 0.159434 0.153660
0.877869 0.164090 0.157972
0.894097 0.168708 0.162231
0.907252 0.172645 0.165851
0.921391 0.177091 0.169928
0.932190 0.180654 0.173187
0.033911 0.057784 0.069524
0.033895 0.057826 0.069527
0.034110 0.057849 0.069524
0.034473 0.057931 0.069521
0.035379 0.058068 0.069510
0.037051 0.058234 0.069484
0.040685 0.058703 0.069427
0.049058 0.059625 0.069282
0.063729 0.061165 0.068941
0.082128 0.062986 0.068409
0.115255 0.066308 0.067442
0.149788 0.069701 0.066534
0.193151 0.073120 0.065121
0.242774 0.076350 0.063115
0.301252 0.079654 0.060347
0.351493 0.081742 0.057604
0.420647 0.083628 0.057012
0.479706 0.084325 0.068720
0.536850 0.084346 0.080802
0.582675 0.092629 0.090940
0.636558 0.105923 0.103412
0.669907 0.114494 0.111474
0.703485 0.123247 0.119719
0.747506 0.132430 0.128395
0.778753 0.139632 0.135184
0.812442 0.147663 0.142712
0.837510 0.153589 0.148228
0.863981 0.160328 0.154490
0.881262 0.165035 0.158845
0.896871 0.169524 0.162982
0.910956 0.173788 0.166899
0.925575 0.178454 0.171175
0.937168 0.182348 0.174735
0.033495 0.058578 0.069578
0.033566 0.058585 0.069577
0.033651 0.058754 0.069585
0.034002 0.058870 0.069584
0.034869 0.059120 0.069580
0.036627 0.059377 0.069556
0.039792 0.059927 0.069532
0.047770 0.060773 0.069395
0.062182 0.062385 0.069061
0.082957 0.064533 0.068452
0.111668 0.067854 0.067716
0.146128 0.071333 0.066854
0.190875 0.075262 0.065414
0.240121 0.079159 0.063483
0.298155 0.082547 0.060719
0.360506 0.085561 0.057200
0.417444 0.088269 0.056451
0.477349 0.090342 0.068215
0.535346 0.092115 0.080346
0.585438 0.093295 0.091563
0.635943 0.105767 0.103266
0.672634 0.115207 0.112145
0.707528 0.124047 0.120475
0.752300 0.133496 0.129401
0.783236 0.140717 0.136205
0.817728 0.148878 0.143844
0.842847 0.154905 0.149452
0.868044 0.161412 0.155494
0.886913 0.166633 0.160319
0.901656 0.170949 0.164292
0.918076 0.176028 0.168953
0.930707 0.180155 0.172731
0.940861 0.190886 0.175864
0.032500 0.060645 0.069733
0.032603 0.060656 0.069731
0.032748 0.060672 0.069729
0.033022 0.060937 0.069737
0.034021 0.061161 0.069727
0.035640 0.061566 0.069712
0.038838 0.062131 0.069684
0.047023 0.063226 0.069544
0.059709 0.064731 0.069250
0.079553 0.067196 0.068708
0.106209 0.070574 0.068193
0.147822 0.075331 0.067178
0.193599 0.079708 0.065702
0.235119 0.083922 0.064134
0.291894 0.088042 0.061443
0.358220 0.092086 0.057691
0.414894 0.095039 0.056087
0.479867 0.097423 0.068727
0.537717 0.098432 0.080786
0.596486 0.099947 0.093986
0.639433 0.106651 0.104096
0.676305 0.116170 0.113051
0.714012 0.125348 0.121704
0.757597 0.134689 0.130527
0.798714 0.144569 0.139828
0.823314 0.150182 0.145058
0.847067 0.155961 0.150434
0.874109 0.163055 0.157015
0.892506 0.168244 0.161804
0.907789 0.172810 0.166002
0.925109 0.182998 0.171011
0.936046 0.197100 0.174304
0.946707 0.211973 0.177653
0.030782 0.064487 0.069982
0.030899 0.064501 0.069980
0.031033 0.064516 0.069978
0.031154 0.064966 0.069996
0.032379 0.065102 0.069974
0.033946 0.065823 0.069989
0.036920 0.066685 0.069971
0.045309 0.067522 0.069797
0.057774 0.069874 0.069531
0.078295 0.072870 0.069450
0.105300 0.076396 0.068982
0.142041 0.081563 0.068202
0.189003 0.086131 0.066586
0.233233 0.090772 0.064849
0.289519 0.094874 0.062058
0.351887 0.098802 0.058494
0.412427 0.102287 0.055808
0.477870 0.104828 0.068378
0.536590 0.107640 0.080482
0.600394 0.110160 0.094709
0.644649 0.113995 0.105199
0.678990 0.117163 0.113708
0.721312 0.126839 0.123113
0.765221 0.136438 0.132175
0.803250 0.145590 0.140780
0.830163 0.151808 0.146572
0.860264 0.159349 0.153582
0.882452 0.165370 0.159153
0.901240 0.172898 0.164169
0.916713 0.189397 0.168493
0.930728 0.204438 0.172619
0.940859 0.216575 0.175739
0.951474 0.232759 0.179144
0.027877 0.070928 0.070317
0.027991 0.070946 0.070335
0.028111 0.070960 0.070332
0.028238 0.071521 0.070370
0.029503 0.071671 0.070344
0.031023 0.072395 0.070349
0.034248 0.072753 0.070296
0.041615 0.074062 0.070143
0.055398 0.076027 0.069787
0.074013 0.078792 0.069222
0.100212 0.082431 0.070090
0.137959 0.087457 0.069230
0.181564 0.092098 0.067689
0.236739 0.097717 0.065323
0.283723 0.103395 0.063078
0.349925 0.107767 0.059110
0.411110 0.113746 0.055949
0.477431 0.117232 0.068478
0.537188 0.122190 0.080635
0.602576 0.127161 0.095022
0.646874 0.128808 0.105461
0.685481 0.134052 0.114954
0.730713 0.139560 0.124639
0.774352 0.145845 0.133931
0.812661 0.156470 0.142750
0.841798 0.168443 0.149198
0.869037 0.173642 0.155713
0.891509 0.189154 0.161466
0.910075 0.203440 0.166528
0.923602 0.214883 0.170421
0.937176 0.230056 0.174520
0.948285 0.243709 0.178048
0.957848 0.261686 0.181219
0.024972 0.077046 0.070644
0.025073 0.077059 0.070642
0.025225 0.077078 0.070638
0.025002 0.078419 0.070679
0.026443 0.078605 0.070665
0.028170 0.078820 0.070644
0.031317 0.080112 0.070602
0.039923 0.081036 0.070398
0.053131 0.083374 0.070062
0.072249 0.087097 0.069393
0.101851 0.090219 0.069989
0.140118 0.096169 0.070214
0.187450 0.103009 0.068628
0.232570 0.109073 0.066666
0.289605 0.116480 0.063685
0.349187 0.122648 0.059998
0.419959 0.128567 0.058146
0.491670 0.133220 0.071614
0.542513 0.138180 0.081933
0.603684 0.141941 0.095243
0.651498 0.150952 0.106350
0.690097 0.155027 0.115765
0.739650 0.166197 0.125771
0.787670 0.174731 0.136084
0.825276 0.186570 0.145009
0.853197 0.200738 0.151836
0.880272 0.208611 0.158481
0.900494 0.219521 0.163811
0.918596 0.234801 0.168885
0.931717 0.241901 0.172789
0.943980 0.258931 0.176605
0.955771 0.277363 0.180478
0.963056 0.286590 0.182992
0.019579 0.087749 0.071019
0.019661 0.087765 0.071038
0.019866 0.087794 0.071032
0.019648 0.089177 0.071075
0.021083 0.089380 0.071056
0.023004 0.089642 0.071021
0.026487 0.090092 0.070959
0.034818 0.092477 0.070756
0.047269 0.093839 0.070369
0.070456 0.098575 0.069453
0.096669 0.102851 0.068372
0.137425 0.108340 0.070334
0.183633 0.116244 0.069916
0.228972 0.122551 0.068011
0.288372 0.130313 0.064792
0.357023 0.139151 0.060281
0.419953 0.145933 0.058959
0.488588 0.153763 0.071709
0.554358 0.161287 0.084875
0.613712 0.172389 0.097773
0.661742 0.181332 0.108794
0.703926 0.190532 0.118535
0.753686 0.196484 0.128075
0.798972 0.209405 0.137779
0.837744 0.218064 0.147161
0.863665 0.229899 0.153841
0.889614 0.239406 0.160862
0.909653 0.252336 0.166290
0.925953 0.263246 0.171000
0.941345 0.281964 0.175722
0.951115 0.290593 0.178892
0.962729 0.311316 0.182855
0.969823 0.321680 0.185406
0.013655 0.098632 0.071315
0.012963 0.100077 0.071354
0.013194 0.100113 0.071347
0.013452 0.100945 0.071378
0.014949 0.101178 0.071351
0.016902 0.101474 0.071328
0.019240 0.104361 0.071266
0.028131 0.105496 0.070997
0.043483 0.108514 0.070430
0.062785 0.113359 0.069493
0.095523 0.118411 0.067922
0.138704 0.125935 0.067352
0.181724 0.135796 0.068870
0.238103 0.142751 0.068145
0.285838 0.153534 0.065723
0.359396 0.166547 0.060666
0.423993 0.178320 0.061078
0.493350 0.186811 0.073967
0.560062 0.196482 0.087165
0.619666 0.205832 0.099769
0.678572 0.212847 0.112997
0.726912 0.222035 0.122591
0.776972 0.231725 0.132434
0.810470 0.238784 0.139802
0.851239 0.255202 0.149577
0.876104 0.266377 0.156100
0.900463 0.274642 0.163116
0.917897 0.283029 0.168429
0.935617 0.302500 0.173732
0.948957 0.315780 0.178051
0.958433 0.324985 0.181295
0.970218 0.347092 0.185112
0.977907 0.358383 0.187901
0.002433 0.119200 0.071543
0.002433 0.119229 0.071565
0.002433 0.119297 0.071562
0.002810 0.119462 0.071566
0.003403 0.121402 0.071538
0.003177 0.125080 0.071474
0.007288 0.125784 0.071346
0.015623 0.127027 0.071022
0.030944 0.134580 0.070095
0.054944 0.137390 0.068873
0.091628 0.143622 0.066778
0.139109 0.154136 0.063807
0.187647 0.163215 0.063516
0.238830 0.171574 0.065005
0.300732 0.184665 0.063137
0.361776 0.191605 0.059726
0.426517 0.203945 0.061946
0.501727 0.216839 0.076581
0.568457 0.226414 0.089844
0.623862 0.237588 0.101492
0.685999 0.249920 0.115205
0.737852 0.258422 0.124563
0.787591 0.270309 0.134261
0.826073 0.282506 0.142690
0.860477 0.291600 0.151108
0.892362 0.304570 0.159673
0.911904 0.313719 0.165368
0.930090 0.327114 0.170892
0.944521 0.336903 0.175602
0.957598 0.351388 0.179941
0.968722 0.370666 0.183625
0.978255 0.385995 0.187037
0.985560 0.396831 0.189846
0.002916 0.142130 0.070861
0.002918 0.142188 0.070876
0.002921 0.142278 0.070870
0.002928 0.142505 0.070873
0.002993 0.144374 0.070828
0.003129 0.147982 0.070665
0.003168 0.148953 0.070629
0.003242 0.150717 0.070504
0.018949 0.154951 0.069569
0.044855 0.161671 0.067789
0.086421 0.168730 0.065109
0.132806 0.180563 0.061767
0.190947 0.187925 0.058879
0.246417 0.201279 0.058288
0.303344 0.211168 0.058332
0.375151 0.225040 0.054697
0.444822 0.235546 0.065212
0.515977 0.250526 0.079637
0.574527 0.264408 0.091761
0.642194 0.270304 0.105991
0.697278 0.284126 0.117758
0.751577 0.294033 0.127069
0.800722 0.307745 0.136726
0.845444 0.321954 0.146739
0.872676 0.331986 0.153518
0.904095 0.346689 0.162074
0.923305 0.357049 0.167768
0.941112 0.372006 0.173301
0.955110 0.382666 0.177998
0.966634 0.397966 0.181920
0.976567 0.408873 0.185588
0.984926 0.420656 0.188786
0.992691 0.437486 0.191764
0.004103 0.167335 0.069494
0.004109 0.167433 0.069518
0.004118 0.167578 0.069518
0.004138 0.167907 0.069512
0.004281 0.170188 0.069362
0.004318 0.170756 0.069313
0.004386 0.171810 0.069250
0.004681 0.176107 0.068861
0.005213 0.183225 0.068142
0.035022 0.189905 0.065864
0.072825 0.194632 0.063308
0.130218 0.209315 0.058742
0.185658 0.219404 0.054496
0.245211 0.232469 0.050842
0.313493 0.244324 0.049835
0.380162 0.261622 0.045856
0.450103 0.270915 0.063895
0.522133 0.288560 0.079985
0.593997 0.299885 0.095432
0.650117 0.312509 0.107559
0.710544 0.328778 0.119656
0.761775 0.333029 0.128713
0.810264 0.348588 0.138290
0.853816 0.360532 0.148152
0.882179 0.375336 0.155199
0.913425 0.391163 0.163813
0.930379 0.394066 0.169092
0.946961 0.405410 0.174404
0.966088 0.421267 0.180998
0.976689 0.432874 0.184881
0.986482 0.449362 0.188528
0.992032 0.461567 0.190619
0.999397 0.477738 0.193574
0.006111 0.193845 0.067484
0.006123 0.193968 0.067467
0.006344 0.196365 0.067263
0.006380 0.196747 0.067208
0.006421 0.197184 0.067179
0.006492 0.197932 0.067120
0.006634 0.199414 0.066927
0.007080 0.203880 0.066450
0.008024 0.212670 0.065272
0.014356 0.220340 0.063702
0.061900 0.228765 0.059672
0.125442 0.242768 0.054546
0.185570 0.254382 0.049489
0.251984 0.263966 0.044489
0.313270 0.281571 0.039465
0.396209 0.296431 0.044640
0.465964 0.312688 0.062823
0.527695 0.324547 0.078289
0.601945 0.344435 0.095351
0.661320 0.352276 0.109035
0.721548 0.369485 0.120400
0.776505 0.375017 0.130588
0.823950 0.391914 0.140256
0.866476 0.404976 0.150225
0.902076 0.421469 0.159519
0.921631 0.424818 0.165375
0.941168 0.441077 0.171251
0.962281 0.453553 0.178440
0.975578 0.469365 0.183098
0.984109 0.472925 0.186590
0.993339 0.488572 0.190126
0.998526 0.499663 0.192142
1.000000 0.516999 0.194870
0.008797 0.219351 0.064973
0.009745 0.226971 0.064103
0.009788 0.227302 0.064043
0.009837 0.227678 0.064026
0.009899 0.228161 0.063990
0.010006 0.228975 0.063890
0.010614 0.233518 0.063231
0.010994 0.236266 0.062833
0.012000 0.243251 0.061626
0.013768 0.254662 0.059482
0.044542 0.264396 0.055529
0.122567 0.274682 0.049756
0.188784 0.287697 0.043633
0.243194 0.302387 0.037560
0.324245 0.317812 0.029485
0.396900 0.331923 0.039636
0.474485 0.350168 0.059650
0.547649 0.364364 0.078821
0.607303 0.380360 0.093403
0.681759 0.394860 0.111624
0.746259 0.413372 0.123354
0.798636 0.419777 0.133748
0.833353 0.436512 0.140942
0.875673 0.449632 0.150957
0.908992 0.458881 0.159941
0.932505 0.471024 0.166933
0.954868 0.487241 0.174045
0.969889 0.491574 0.179697
0.981413 0.506802 0.183845
0.992126 0.518890 0.188334
0.998087 0.521789 0.191051
1.000000 0.538095 0.194546
1.000000 0.549526 0.196705
0.013799 0.254885 0.060651
0.013846 0.255178 0.060589
0.013891 0.255454 0.060529
0.013953 0.255837 0.060516
0.014051 0.256439 0.060454
0.014683 0.260245 0.059866
0.015040 0.262356 0.059502
0.015643 0.265845 0.058841
0.018046 0.278988 0.056270
0.019250 0.285207 0.054736
0.043209 0.298627 0.049531
0.118339 0.308411 0.044012
0.190843 0.322879 0.036917
0.248240 0.338784 0.029458
0.319981 0.353876 0.029844
0.411428 0.371637 0.039189
0.476281 0.388445 0.054904
0.557122 0.404628 0.076087
0.627717 0.422815 0.094158
0.688732 0.436060 0.109860
0.760235 0.455957 0.123583
0.807647 0.462401 0.133918
0.852671 0.480584 0.144057
0.884410 0.485786 0.152355
0.918703 0.503023 0.161888
0.937906 0.507115 0.167966
0.960765 0.520348 0.175693
0.974740 0.528065 0.180918
0.986527 0.539568 0.185623
0.996628 0.555859 0.189926
1.000000 0.567717 0.193549
1.000000 0.571266 0.196340
1.000000 0.589084 0.198541
0.019109 0.284504 0.056311
0.019153 0.284730 0.056255
0.019213 0.285045 0.056176
0.019316 0.285580 0.056183
0.019948 0.288856 0.055637
0.020234 0.290332 0.055353
0.020682 0.292643 0.054936
0.021453 0.296597 0.053964
0.024051 0.309806 0.050987
0.025701 0.318091 0.048555
0.028500 0.331983 0.044212
0.112920 0.342765 0.037551
0.180146 0.356433 0.030657
0.252836 0.375126 0.033421
0.329885 0.391583 0.036400
0.408833 0.404700 0.040233
0.492990 0.428357 0.055224
0.575319 0.445593 0.076264
0.635419 0.455821 0.092469
0.695177 0.476309 0.107368
0.764996 0.485631 0.122321
0.819643 0.504462 0.134199
0.860631 0.511513 0.144589
0.898847 0.521985 0.155066
0.923139 0.534565 0.162175
0.952732 0.553083 0.171769
0.967522 0.557249 0.177294
0.982495 0.573771 0.183005
0.992396 0.578548 0.187351
1.000000 0.595081 0.191710
1.000000 0.598960 0.194895
1.000000 0.610188 0.198001
1.000000 0.627216 0.200660
0.024684 0.313018 0.051732
0.024736 0.313282 0.051657
0.024796 0.313582 0.051571
0.025425 0.316742 0.051019
0.025620 0.317716 0.050732
0.025936 0.319296 0.050405
0.026486 0.322043 0.049925
0.027460 0.326883 0.048619
0.029291 0.335918 0.046448
0.032047 0.349357 0.042578
0.035094 0.363979 0.037364
0.106711 0.376573 0.034424
0.180494 0.391474 0.036724
0.258478 0.405079 0.038882
0.334516 0.428547 0.043139
0.422037 0.443912 0.046870
0.490804 0.459254 0.052422
0.575078 0.473762 0.073338
0.638765 0.495796 0.089247
0.724094 0.513312 0.110365
0.784096 0.521861 0.123978
0.835556 0.537580 0.136131
0.869561 0.547911 0.145007
0.908978 0.567367 0.156044
0.930942 0.572478 0.163174
0.956950 0.585648 0.172146
0.973851 0.594964 0.178612
0.987440 0.606780 0.184200
0.997588 0.614539 0.188851
1.000000 0.626273 0.192983
1.000000 0.634111 0.196296
1.000000 0.646708 0.199320
1.000000 0.650958 0.201581
0.029416 0.336547 0.047646
0.029483 0.336878 0.047542
0.031225 0.345396 0.045950
0.031366 0.346079 0.045724
0.031640 0.347414 0.045536
0.032087 0.349581 0.045308
0.032787 0.352959 0.044126
0.034459 0.360988 0.041852
0.036043 0.368523 0.039780
0.037722 0.376281 0.037131
0.041290 0.392054 0.037600
0.101034 0.405996 0.039777
0.175324 0.427936 0.043438
0.248731 0.441124 0.045624
0.333283 0.460359 0.049149
0.417669 0.475914 0.052568
0.505982 0.495289 0.058310
0.592207 0.517583 0.074806
0.655322 0.532270 0.091018
0.726471 0.543587 0.108457
0.795084 0.563737 0.123733
0.840210 0.571484 0.135268
0.884535 0.583608 0.147524
0.912059 0.596668 0.155687
0.942088 0.607272 0.165728
0.962729 0.619706 0.173219
0.977575 0.627451 0.179182
0.990606 0.638122 0.184822
1.000000 0.642827 0.190066
1.000000 0.657893 0.194164
1.000000 0.662494 0.197306
1.000000 0.676380 0.200369
1.000000 0.681137 0.202543
0.036433 0.370388 0.041506
0.036499 0.370700 0.041392
0.036608 0.371216 0.041203
0.036855 0.372384 0.041143
0.037162 0.373830 0.040602
0.037740 0.376552 0.040237
0.038445 0.379859 0.038937
0.040510 0.388483 0.036967
0.042051 0.395524 0.038217
0.044964 0.408685 0.040573
0.049008 0.426534 0.043796
0.086455 0.441426 0.046330
0.175939 0.458454 0.049116
0.254366 0.472390 0.051542
0.343222 0.492407 0.055416
0.430050 0.508667 0.059121
0.521616 0.535346 0.066208
0.590590 0.548106 0.073181
0.655067 0.562576 0.089346
0.728173 0.574428 0.106942
0.797620 0.593352 0.122746
0.846955 0.602051 0.135588
0.887048 0.613702 0.146962
0.917454 0.626473 0.156373
0.946931 0.636825 0.166586
0.965155 0.648310 0.173452
0.981633 0.656779 0.180094
0.997425 0.662875 0.187407
1.000000 0.673322 0.191886
1.000000 0.680776 0.195351
1.000000 0.691896 0.197554
1.000000 0.702535 0.200117
1.000000 0.717115 0.202051
0.041761 0.394206 0.037982
0.041853 0.394622 0.038056
0.042035 0.395453 0.038204
0.042311 0.396710 0.038428
0.042738 0.398647 0.038773
0.043792 0.403413 0.039626
0.044704 0.407519 0.040363
0.046361 0.414915 0.041696
0.048083 0.422502 0.043066
0.051896 0.438953 0.046049
0.055764 0.455198 0.049013
0.088963 0.469962 0.051598
0.177617 0.486083 0.054342
0.260697 0.500809 0.057080
0.353450 0.521101 0.061277
0.442382 0.537904 0.065317
0.517029 0.556965 0.070532
0.604977 0.576048 0.077369
0.669428 0.591167 0.092333
0.752175 0.604107 0.111251
0.811757 0.621945 0.125344
0.859317 0.631038 0.138104
0.891392 0.638215 0.147561
0.927894 0.654690 0.158625
0.950876 0.661213 0.166749
0.974059 0.669844 0.175762
0.988274 0.680571 0.181589
0.999935 0.689134 0.186973
1.000000 0.696495 0.191816
1.000000 0.712059 0.194936
1.000000 0.722540 0.197757
1.000000 0.736902 0.199439
1.000000 0.747387 0.201401
0.046374 0.414970 0.041706
0.046515 0.415597 0.041819
0.046698 0.416406 0.041965
0.047568 0.420242 0.042658
0.048069 0.422441 0.043055
0.048778 0.425532 0.043614
0.049965 0.430679 0.044547
0.051663 0.437958 0.045868
0.054210 0.448719 0.047828
0.057189 0.461079 0.050091
0.061660 0.479202 0.053432
0.086980 0.494836 0.056284
0.185686 0.511899 0.059358
0.267267 0.526834 0.062335
0.363704 0.547349 0.066863
0.436242 0.561352 0.070367
0.531133 0.583886 0.076745
0.607423 0.600916 0.082726
0.672260 0.613168 0.092870
0.750961 0.628435 0.110489
0.814746 0.639304 0.125720
0.860561 0.656456 0.136779
0.903279 0.665902 0.149253
0.931407 0.676076 0.158236
0.953054 0.687509 0.165657
0.975847 0.697316 0.174605
0.991158 0.709975 0.180957
1.000000 0.725476 0.186157
1.000000 0.737223 0.190848
1.000000 0.743873 0.194144
1.000000 0.762085 0.196775
1.000000 0.768773 0.199171
1.000000 0.780407 0.200538
0.051574 0.437581 0.045800
0.051791 0.438506 0.045968
0.052052 0.439614 0.046169
0.052293 0.440640 0.046356
0.053042 0.443808 0.046933
0.053876 0.447321 0.047573
0.055209 0.452892 0.048591
0.056986 0.460245 0.049937
0.059342 0.469867 0.051707
0.063436 0.486247 0.054745
0.067266 0.501136 0.057554
0.108636 0.521833 0.061456
0.187943 0.536494 0.064300
0.274421 0.552232 0.067649
0.373913 0.570898 0.072074
0.448673 0.587585 0.076425
0.551559 0.607193 0.082564
0.620009 0.623014 0.088192
0.686049 0.641880 0.096652
0.767651 0.657619 0.112804
0.828637 0.667786 0.126944
0.863727 0.675456 0.136137
0.904514 0.695441 0.147342
0.932710 0.704914 0.156543
0.963098 0.720155 0.167415
0.978771 0.728553 0.173718
0.992985 0.746469 0.179359
1.000000 0.754880 0.185365
1.000000 0.762059 0.189499
1.000000 0.776347 0.193034
1.000000 0.783493 0.196275
1.000000 0.790515 0.198609
1.000000 0.804662 0.199629
0.056169 0.456873 0.049319
0.057086 0.460656 0.050013
0.057361 0.461784 0.050220
0.057890 0.463955 0.050619
0.058543 0.466618 0.051109
0.059417 0.470170 0.051763
0.061195 0.477341 0.053087
0.063027 0.484636 0.054444
0.066573 0.498475 0.057048
0.069678 0.510317 0.059310
0.073806 0.525695 0.062296
0.109662 0.542384 0.065555
0.192134 0.554967 0.068114
0.288478 0.575327 0.072674
0.384222 0.598328 0.078379
0.460823 0.615404 0.083131
0.546194 0.631506 0.088355
0.616103 0.645723 0.093573
0.682577 0.661297 0.098710
0.770303 0.675685 0.112001
0.828151 0.696100 0.124595
0.875192 0.708496 0.137013
0.907330 0.722775 0.146274
0.941051 0.733551 0.157611
0.963627 0.750005 0.165555
0.981717 0.762058 0.172800
0.998886 0.771704 0.180748
1.000000 0.777697 0.185920
1.000000 0.793983 0.190365
1.000000 0.800023 0.192068
1.000000 0.809265 0.195337
1.000000 0.817889 0.198089
1.000000 0.823013 0.200225
0.061236 0.477504 0.053117
0.061590 0.478923 0.053380
0.061781 0.479685 0.053522
0.062456 0.482371 0.054021
0.063360 0.485949 0.054689
0.064404 0.490048 0.055457
0.066258 0.497260 0.056818
0.068231 0.504827 0.058257
0.070798 0.514527 0.060122
0.075963 0.533581 0.063849
0.080296 0.549122 0.066955
0.107521 0.566850 0.070568
0.212160 0.582617 0.074036
0.296961 0.600127 0.078251
0.394408 0.619304 0.083404
0.479249 0.635586 0.088316
0.558545 0.653158 0.094087
0.633481 0.668046 0.099717
0.704691 0.689664 0.104172
0.785886 0.706886 0.113350
0.843234 0.722243 0.126803
0.877501 0.734775 0.135871
0.915997 0.747549 0.147519
0.943467 0.761735 0.156625
0.965455 0.773944 0.164742
0.986497 0.784200 0.173601
1.000000 0.793764 0.180166
1.000000 0.806929 0.184983
1.000000 0.817403 0.189499
1.000000 0.821494 0.192980
1.000000 0.826409 0.194549
1.000000 0.838983 0.197411
1.000000 0.842675 0.199744
0.066037 0.496405 0.056656
0.066443 0.497970 0.056952
0.067354 0.501477 0.057618
0.068208 0.504741 0.058241
0.068961 0.507604 0.058789
0.070548 0.513589 0.059941
0.072106 0.519409 0.061069
0.074405 0.527894 0.062727
0.077569 0.539385 0.065002
0.082982 0.558578 0.068876
0.087027 0.572571 0.071762
0.116100 0.586820 0.074776
0.224602 0.603126 0.078599
0.305526 0.617906 0.082394
0.392156 0.636291 0.087495
0.491090 0.656149 0.093703
0.569883 0.678180 0.100931
0.645448 0.694471 0.104549
0.721375 0.713770 0.107353
0.780900 0.731070 0.110702
0.840740 0.744696 0.124683
0.885662 0.758395 0.136851
0.918273 0.776143 0.146483
0.950576 0.785710 0.157868
0.971001 0.795293 0.165759
