look-library/cubes/film-cinestill_33.cube
TITLE "look-library film-cinestill (film)"
# look-library — baked by build_cubes.py from looks/<id>.yaml
# method: GUIDE.md section 4a
LUT_3D_SIZE 9
0.015007 0.019357 0.050207
0.014929 0.019880 0.050295
0.050998 0.021095 0.049183
0.170341 0.023451 0.052396
0.326129 0.041058 0.076340
0.485219 0.069310 0.108213
0.599080 0.092748 0.134356
0.694306 0.133255 0.157780
0.788143 0.199384 0.216346
0.014501 0.022759 0.050668
0.014238 0.024529 0.050782
0.060733 0.030157 0.048872
0.190313 0.044253 0.052531
0.358841 0.060345 0.081608
0.522396 0.088170 0.115566
0.625429 0.131250 0.139177
0.721094 0.183337 0.160646
0.807164 0.243354 0.225654
0.008908 0.061915 0.048549
0.007733 0.070580 0.047735
0.077168 0.089054 0.041159
0.220165 0.122133 0.055059
0.398727 0.155601 0.087682
0.566270 0.196296 0.122892
0.668211 0.241802 0.147186
0.767792 0.290064 0.166483
0.838336 0.344246 0.232617
0.000000 0.152473 0.038862
0.000000 0.165358 0.038583
0.077048 0.199923 0.036232
0.255233 0.247168 0.043669
0.445203 0.296610 0.090674
0.611967 0.340990 0.129070
0.721443 0.389289 0.150413
0.811247 0.430879 0.182750
0.871375 0.477493 0.254385
0.000000 0.265103 0.045002
0.000000 0.283849 0.047371
0.062167 0.337355 0.051519
0.260033 0.385581 0.055037
0.485433 0.447977 0.078093
0.643723 0.493522 0.119197
0.766837 0.534462 0.147992
0.845647 0.568034 0.202610
0.893135 0.601557 0.276317
0.009048 0.379990 0.061703
0.011745 0.399710 0.064125
0.039118 0.453305 0.070572
0.272694 0.508453 0.074205
0.504781 0.562756 0.083814
0.668826 0.605468 0.115997
0.781566 0.636958 0.171010
0.858717 0.666831 0.233840
0.907612 0.706638 0.315710
0.028495 0.499627 0.120633
0.032047 0.517080 0.115918
0.043419 0.567816 0.120301
0.288939 0.613948 0.113080
0.515090 0.661084 0.130078
0.683643 0.713593 0.162911
0.801415 0.743193 0.222315
0.867861 0.772977 0.285596
0.909859 0.802081 0.348887
0.051111 0.597466 0.191708
0.056768 0.619141 0.195364
0.065794 0.652304 0.196019
0.299681 0.708074 0.195521
0.537525 0.757524 0.203192
0.691642 0.797376 0.240227
0.802839 0.818494 0.284663
0.869610 0.840912 0.338164
0.912704 0.860729 0.410153
0.075409 0.686457 0.277590
0.079424 0.704116 0.276214
0.087912 0.738937 0.281643
0.339549 0.786982 0.271947
0.548363 0.826562 0.292950
0.697048 0.851318 0.328196
0.803559 0.871244 0.366804
0.870774 0.885342 0.412271
0.912626 0.897886 0.462367
0.014873 0.019760 0.055708
0.014756 0.020441 0.056956
0.055946 0.022356 0.060846
0.178542 0.025665 0.067020
0.339439 0.043280 0.078870
0.498755 0.071902 0.111113
0.605073 0.093461 0.155582
0.702176 0.139193 0.208264
0.795658 0.206850 0.278469
0.014129 0.024577 0.058705
0.013735 0.027031 0.061352
0.065005 0.034188 0.066259
0.199047 0.050376 0.072558
0.364604 0.069600 0.086740
0.527316 0.096409 0.116245
0.631122 0.139640 0.161934
0.727388 0.185967 0.218484
0.814384 0.251461 0.278802
0.007081 0.073249 0.069063
0.006167 0.079793 0.071996
0.073334 0.101147 0.076331
0.224765 0.133222 0.086276
0.409802 0.169684 0.104091
0.569817 0.211115 0.133752
0.671671 0.248687 0.176592
0.773946 0.294606 0.229846
0.845641 0.355084 0.292285
0.000000 0.172085 0.082982
0.000000 0.190948 0.086754
0.060433 0.222722 0.085770
0.252424 0.271587 0.089154
0.453586 0.317689 0.112593
0.614548 0.364541 0.151322
0.723892 0.403096 0.191388
0.815883 0.450006 0.251390
0.875464 0.494401 0.312602
0.000000 0.294122 0.105615
0.000920 0.314732 0.104865
0.030151 0.367883 0.106966
0.249664 0.421002 0.108066
0.478777 0.472065 0.122850
0.650203 0.512449 0.158813
0.766287 0.546680 0.217352
0.845889 0.576299 0.272040
0.893382 0.608031 0.337686
0.012573 0.406869 0.139731
0.015690 0.427426 0.142412
0.024870 0.480659 0.150535
0.250060 0.533293 0.143997
0.495688 0.583027 0.155055
0.665835 0.622174 0.191690
0.787256 0.648353 0.250428
0.857848 0.679544 0.308749
0.907174 0.718624 0.376428
0.032608 0.518665 0.192511
0.036880 0.538207 0.190377
0.047992 0.584952 0.197456
0.266509 0.631089 0.196488
0.517115 0.680934 0.208586
0.687169 0.730730 0.242420
0.798021 0.758176 0.296515
0.866232 0.787106 0.349969
0.908712 0.809215 0.411234
0.056038 0.614850 0.256589
0.060752 0.632434 0.255531
0.071809 0.671554 0.267900
0.296809 0.726145 0.257389
0.526194 0.771533 0.274695
0.683302 0.808142 0.307105
0.798383 0.829359 0.349577
0.867073 0.848014 0.400086
0.911288 0.865586 0.460793
0.078837 0.699817 0.327979
0.082180 0.714184 0.323352
0.094748 0.752549 0.330913
0.323482 0.797829 0.328788
0.538028 0.835864 0.352287
0.699551 0.860202 0.379038
0.806686 0.877097 0.413170
0.868136 0.890156 0.462514
0.910950 0.901673 0.506818
0.013797 0.020438 0.135224
0.013538 0.021613 0.144500
0.070831 0.023337 0.163609
0.195159 0.026031 0.182211
0.359068 0.044417 0.206703
0.511894 0.071885 0.240278
0.622622 0.096390 0.282860
0.713059 0.149049 0.335630
0.803997 0.214115 0.389088
0.012408 0.029344 0.153344
0.011917 0.032347 0.163033
0.073774 0.042009 0.179397
0.214691 0.057195 0.203675
0.383656 0.077384 0.230737
0.541035 0.107184 0.262916
0.646169 0.145887 0.299436
0.742846 0.201988 0.352451
0.823812 0.260565 0.396594
0.002913 0.096211 0.194328
0.001995 0.102635 0.200294
0.072684 0.125519 0.218210
0.239259 0.155048 0.240654
0.431473 0.187599 0.257345
0.591269 0.224236 0.288791
0.687984 0.267366 0.324708
0.788211 0.306809 0.364278
0.858149 0.367464 0.416414
0.000000 0.209408 0.231175
0.000000 0.227788 0.236610
0.050478 0.261335 0.253889
0.239463 0.303511 0.265363
0.457779 0.347370 0.291300
0.617826 0.381690 0.311756
0.739667 0.425856 0.348634
0.828545 0.462010 0.390123
0.883798 0.503662 0.444419
0.003545 0.343756 0.265731
0.006118 0.363779 0.269947
0.012099 0.405789 0.283252
0.236544 0.456656 0.291956
0.476003 0.500693 0.303645
0.646918 0.541522 0.334383
0.765407 0.572488 0.371153
0.846621 0.596218 0.417099
0.897421 0.620037 0.468648
0.019250 0.449151 0.296028
0.023585 0.472708 0.306029
0.034214 0.524025 0.317750
0.242106 0.568522 0.323530
0.487927 0.611546 0.332856
0.666647 0.644548 0.356034
0.782484 0.673488 0.408185
0.860103 0.707371 0.444224
0.904866 0.732376 0.492785
0.041915 0.556871 0.343685
0.047050 0.577752 0.346654
0.057408 0.617370 0.358646
0.255241 0.667836 0.365590
0.491769 0.718481 0.381860
0.670327 0.756493 0.401393
0.789822 0.783051 0.440472
0.866567 0.805319 0.480909
0.909544 0.820182 0.515964
0.065620 0.646145 0.399753
0.071339 0.666172 0.401766
0.080877 0.705598 0.413409
0.276242 0.758755 0.422608
0.513489 0.800149 0.426476
0.674024 0.828534 0.452485
0.788557 0.844378 0.480219
0.866577 0.861694 0.514084
0.908252 0.873737 0.553838
0.087172 0.729992 0.457507
0.091544 0.747106 0.459716
0.100897 0.781508 0.472303
0.327765 0.824780 0.466708
0.529595 0.854225 0.476922
0.682311 0.874354 0.503679
0.796565 0.889986 0.531420
0.867731 0.898805 0.555485
0.907219 0.909715 0.594512
0.011959 0.026484 0.271897
0.028027 0.027094 0.282736
0.101417 0.028195 0.311447
0.226992 0.028609 0.342108
0.391216 0.048180 0.378343
0.539987 0.075775 0.409249
0.640291 0.103121 0.449161
0.733015 0.160102 0.489367
0.816697 0.230976 0.537372
0.014169 0.031618 0.296891
0.024777 0.035419 0.308811
0.108402 0.045536 0.339247
0.238010 0.062149 0.369454
0.410847 0.082800 0.407367
0.565989 0.116061 0.432642
0.661382 0.161828 0.470614
0.761887 0.218523 0.511549
0.834897 0.277875 0.547439
0.013742 0.115111 0.357903
0.014881 0.123113 0.370017
0.103864 0.145888 0.398001
0.256179 0.174084 0.425961
0.453373 0.206896 0.456364
0.604959 0.238943 0.475779
0.704410 0.277341 0.503789
0.802449 0.327615 0.531474
0.869104 0.379138 0.568267
0.007156 0.247768 0.412765
0.007713 0.262189 0.423664
0.058887 0.295571 0.452629
0.259685 0.329044 0.469697
0.479933 0.367336 0.491782
0.644870 0.406602 0.507208
0.753028 0.441567 0.531876
0.841530 0.476335 0.552976
0.898535 0.517436 0.589268
0.008304 0.382882 0.452200
0.012181 0.407833 0.461569
0.019258 0.448283 0.486199
0.242513 0.493003 0.498795
0.484557 0.529802 0.515183
0.657970 0.560563 0.532841
0.774696 0.587485 0.558258
0.857281 0.616272 0.581120
0.905003 0.633290 0.608318
0.029512 0.499622 0.485200
0.033984 0.519620 0.500939
0.043126 0.558116 0.510042
0.249754 0.603981 0.523342
0.492621 0.638354 0.537991
0.664331 0.665397 0.553398
0.782497 0.703675 0.581341
0.854520 0.724800 0.601882
0.904476 0.754406 0.638904
0.053225 0.597411 0.521006
0.059239 0.619370 0.536462
0.069113 0.654350 0.545406
0.253810 0.700289 0.552616
0.494051 0.747550 0.565311
0.659609 0.781801 0.580783
0.787688 0.800614 0.598179
0.860853 0.818648 0.624676
0.905125 0.831864 0.659391
0.077722 0.686684 0.565833
0.081753 0.703840 0.569432
0.091494 0.742617 0.585210
0.286116 0.784974 0.582604
0.515689 0.827223 0.596010
0.662455 0.848340 0.611346
0.783955 0.862736 0.628967
0.859768 0.872521 0.645560
0.907226 0.882966 0.687152
0.098383 0.767849 0.608492
0.101010 0.777476 0.606958
0.110211 0.809398 0.613835
0.332972 0.845371 0.623382
0.533986 0.873045 0.628331
0.672422 0.888394 0.644262
0.792411 0.900922 0.664348
0.859992 0.908849 0.690035
0.905627 0.917086 0.725040
0.037809 0.045997 0.419098
0.063074 0.047594 0.432882
0.144709 0.050500 0.462946
0.262053 0.053782 0.499869
0.429283 0.057170 0.542619
0.567419 0.080281 0.576950
0.665044 0.127014 0.613181
0.759103 0.183885 0.641176
0.833296 0.249892 0.671334
0.035321 0.050367 0.445492
0.061131 0.051924 0.458737
0.147766 0.055096 0.490213
0.280810 0.071471 0.528098
0.445342 0.096666 0.567457
0.585956 0.130490 0.597047
0.678814 0.175724 0.629383
0.779521 0.232670 0.654494
0.849183 0.296316 0.682096
0.038731 0.136652 0.510616
0.040325 0.148387 0.525255
0.147182 0.164964 0.559734
0.287779 0.194217 0.586533
0.472608 0.223472 0.615761
0.624329 0.255810 0.644874
0.725019 0.299526 0.658537
0.817373 0.350286 0.677859
0.875784 0.396164 0.710695
0.036019 0.281158 0.576945
0.037360 0.291979 0.589014
0.103226 0.324602 0.614016
0.292338 0.353222 0.639723
0.497315 0.389596 0.660699
0.652525 0.427915 0.675437
0.771221 0.455443 0.686759
0.850661 0.497041 0.717934
0.902189 0.536436 0.743286
0.034236 0.430416 0.623431
0.036374 0.446279 0.633716
0.044645 0.479961 0.651105
0.281618 0.519174 0.671436
0.511604 0.554569 0.685688
0.664332 0.582923 0.701901
0.785833 0.600127 0.726105
0.867413 0.627778 0.749400
0.913482 0.643517 0.763647
0.043445 0.542214 0.649444
0.047819 0.562740 0.665675
0.052213 0.589504 0.674912
0.283229 0.630910 0.700606
0.503911 0.658464 0.712852
0.660369 0.691114 0.739298
0.788019 0.716844 0.744561
0.861904 0.746355 0.762276
0.909529 0.768029 0.779525
0.066239 0.640464 0.678352
0.069604 0.652062 0.683659
0.079044 0.687235 0.711367
0.286753 0.738466 0.726747
0.510187 0.772762 0.740826
0.664050 0.801545 0.752345
0.785295 0.812560 0.768784
0.858904 0.828718 0.788844
0.903198 0.846654 0.800476
0.088264 0.725472 0.712462
0.092680 0.742572 0.719264
0.100786 0.772235 0.740077
0.323592 0.815427 0.753855
0.525839 0.842172 0.768203
0.668256 0.859831 0.773430
0.779933 0.874242 0.788432
0.857486 0.884095 0.794470
0.902607 0.893855 0.808010
0.108127 0.797889 0.751991
0.110926 0.810781 0.757433
0.118724 0.833030 0.767742
0.344449 0.862236 0.784987
0.551717 0.885417 0.785869
0.678360 0.901446 0.799117
0.789201 0.908939 0.803669
0.857643 0.917966 0.815524
0.901225 0.921723 0.821470
0.089249 0.070140 0.566041
0.126501 0.072196 0.581295
0.196697 0.075187 0.604785
0.322430 0.079099 0.638456
0.471571 0.085848 0.671579
0.600427 0.124695 0.703865
0.689353 0.167371 0.730121
0.785350 0.219238 0.760609
0.851979 0.281184 0.791371
0.082834 0.073375 0.582235
0.123640 0.075360 0.597122
0.200167 0.079116 0.624417
0.325296 0.092759 0.652863
0.478085 0.125253 0.687112
0.608970 0.163193 0.717238
0.707580 0.209970 0.748338
0.801919 0.265726 0.776445
0.864293 0.322840 0.800096
0.062918 0.170803 0.643777
0.105914 0.176432 0.656330
0.203815 0.193560 0.678468
0.343433 0.224811 0.709688
0.515018 0.256500 0.737552
0.639107 0.284891 0.763437
0.745835 0.326769 0.785368
0.830905 0.371776 0.809526
0.887144 0.423576 0.821672
0.060834 0.321595 0.701085
0.062069 0.333273 0.710708
0.176048 0.355771 0.738524
0.342759 0.384861 0.765005
0.538432 0.421760 0.793142
0.669358 0.452304 0.810361
0.781254 0.482008 0.822508
0.858368 0.514910 0.831921
0.906856 0.546042 0.845043
0.057575 0.471126 0.752448
0.059345 0.482642 0.763393
0.118294 0.509946 0.782813
0.338944 0.545461 0.805197
0.542500 0.576192 0.818115
0.673437 0.594565 0.829778
0.798087 0.616725 0.838683
0.871001 0.636730 0.851378
0.915838 0.654247 0.857734
0.067785 0.582841 0.781372
0.069612 0.592339 0.788176
0.104400 0.617691 0.803931
0.328432 0.649293 0.826043
0.534929 0.679177 0.835740
0.681554 0.713215 0.844931
0.797188 0.733040 0.851100
0.864025 0.759094 0.856937
0.911961 0.773036 0.868412
0.078769 0.675887 0.801041
0.080983 0.689793 0.806281
0.115062 0.719548 0.817733
0.336940 0.756560 0.837167
0.537938 0.793016 0.846369
0.676886 0.809426 0.855308
0.794333 0.826660 0.858213
0.862211 0.838188 0.863770
0.908270 0.850444 0.875044
0.099171 0.763658 0.818912
0.102101 0.774142 0.825949
0.139766 0.797418 0.835810
0.360657 0.828685 0.848644
0.554348 0.854366 0.861229
0.679945 0.870429 0.868752
0.789685 0.880062 0.874239
0.858191 0.888929 0.876637
0.903009 0.898075 0.882540
0.114021 0.825393 0.842370
0.115644 0.832627 0.845615
0.208598 0.850729 0.850981
0.396787 0.874966 0.865526
0.566333 0.895376 0.870282
0.681286 0.906417 0.876933
0.791137 0.914703 0.882005
0.858489 0.922038 0.887040
0.900849 0.929017 0.892177
0.162824 0.090648 0.674285
0.192753 0.092963 0.687579
0.268512 0.100430 0.708296
0.382263 0.121709 0.739147
0.519163 0.148604 0.775777
0.629072 0.182838 0.807699
0.724102 0.219095 0.835249
0.807540 0.269815 0.858172
0.871262 0.327309 0.880530
0.162317 0.093501 0.681939
0.189826 0.101388 0.695748
0.269523 0.115148 0.716365
0.384886 0.137967 0.750297
0.523439 0.167129 0.783455
0.635186 0.206192 0.818354
0.736200 0.251480 0.844052
0.818095 0.303542 0.868044
0.876855 0.355862 0.885120
0.141257 0.212285 0.746702
0.180228 0.216138 0.756873
0.271867 0.234068 0.781743
0.402572 0.260652 0.809525
0.552385 0.292980 0.839365
0.659692 0.323574 0.854887
0.767100 0.361186 0.872471
0.840849 0.399885 0.889176
0.896491 0.448090 0.901499
0.082854 0.360112 0.810555
0.151014 0.367328 0.820440
0.251526 0.390019 0.837443
0.408825 0.414430 0.856485
0.579297 0.450097 0.878566
0.684944 0.478800 0.887477
0.795803 0.504441 0.898573
0.868473 0.532559 0.907786
0.912731 0.570660 0.916438
0.080422 0.509493 0.852619
0.081436 0.516378 0.857934
0.218153 0.542201 0.876041
0.415443 0.569297 0.890235
0.583974 0.594789 0.899846
0.699558 0.613774 0.909486
0.809263 0.632282 0.917392
0.873322 0.651826 0.924306
0.917552 0.678716 0.929811
0.087640 0.613215 0.874220
0.089501 0.623694 0.878606
0.216098 0.641392 0.892561
0.409170 0.674793 0.908940
0.576797 0.700268 0.914695
0.696192 0.728464 0.922323
0.799560 0.753275 0.923342
0.870352 0.771813 0.928290
0.912917 0.784090 0.932941
0.100129 0.715831 0.887200
0.102060 0.726775 0.890795
0.228824 0.753880 0.902045
0.403318 0.778763 0.913013
0.577762 0.809697 0.924922
0.691034 0.820633 0.924826
0.797248 0.836697 0.929122
0.863436 0.847382 0.933260
0.908863 0.858801 0.937009
0.109780 0.793336 0.898761
0.110522 0.800995 0.901780
0.249006 0.821171 0.911024
0.426986 0.847264 0.920754
0.580099 0.866289 0.930224
0.694585 0.875800 0.932056
0.799937 0.888222 0.936148
0.859573 0.896222 0.939730
0.903575 0.904982 0.943188
0.119717 0.850944 0.913937
0.168893 0.856694 0.915927
0.303361 0.872890 0.921696
0.447861 0.888382 0.927989
0.590943 0.903900 0.935891
0.706130 0.911895 0.937074
0.800544 0.921366 0.940804
0.859748 0.925504 0.944415
0.901399 0.932215 0.947841
0.240573 0.150939 0.803460
0.273593 0.156021 0.812198
0.348376 0.166388 0.828866
0.459429 0.193883 0.851739
0.576491 0.220888 0.875343
0.661995 0.247624 0.890346
0.762040 0.289008 0.911171
0.832410 0.333099 0.922733
0.884106 0.379672 0.936896
0.240573 0.150939 0.803460
0.273593 0.156021 0.812198
0.348376 0.166388 0.828866
0.459429 0.193883 0.851739
0.576491 0.220888 0.875343
0.663825 0.255055 0.892231
0.764470 0.296704 0.912748
0.834645 0.341332 0.924098
0.888852 0.400991 0.939633
0.236069 0.259286 0.846965
0.270703 0.262715 0.852614
0.355412 0.280578 0.868399
0.467976 0.306702 0.886899
0.593673 0.329445 0.906143
0.687192 0.361550 0.918174
0.789359 0.401241 0.933411
0.857492 0.441838 0.940880
0.903883 0.483179 0.949872
0.212908 0.408275 0.892471
0.257728 0.413468 0.897664
0.349011 0.431791 0.908775
0.477853 0.457006 0.924817
0.617772 0.477809 0.935270
0.723039 0.505252 0.942356
0.811208 0.529858 0.950406
0.874234 0.561292 0.957933
0.919014 0.592355 0.961403
0.166612 0.550106 0.923920
0.225804 0.556346 0.928044
0.337950 0.568570 0.935501
0.490111 0.593102 0.944923
0.621966 0.612154 0.951552
0.725674 0.628518 0.958617
0.821464 0.645857 0.961762
0.880486 0.671671 0.966736
0.918501 0.699154 0.970694
0.141784 0.649468 0.936966
0.220423 0.657816 0.944021
0.330237 0.670722 0.949436
0.475103 0.697311 0.955016
0.613248 0.726151 0.962953
0.720828 0.748864 0.964954
0.817742 0.765610 0.968936
0.872815 0.781980 0.969328
0.912110 0.799655 0.972218
0.163906 0.753337 0.943542
0.218013 0.763669 0.947480
0.334421 0.779824 0.955367
0.482034 0.798958 0.963385
0.613332 0.822577 0.967752
0.716879 0.831044 0.970933
0.815108 0.845767 0.970842
0.870557 0.855279 0.972123
0.909919 0.865906 0.974668
0.200957 0.824180 0.948065
0.256455 0.830969 0.951831
0.358635 0.843352 0.957859
0.492607 0.858608 0.966564
0.614596 0.876565 0.970133
0.719870 0.885518 0.971350
0.810260 0.894914 0.973977
0.866463 0.903940 0.973542
0.908590 0.907589 0.976002
0.239205 0.869956 0.957126
0.295396 0.876167 0.960341
0.396467 0.886917 0.965235
0.518661 0.898877 0.969647
0.621030 0.912064 0.973452
0.721779 0.917933 0.974245
0.810639 0.926815 0.976871
0.866697 0.930404 0.976715
0.902779 0.936355 0.978911
0.339567 0.227888 0.894906
0.366685 0.240295 0.900849
0.435712 0.252194 0.909960
0.536742 0.268698 0.920832
0.624871 0.295020 0.933019
0.702809 0.324377 0.946337
0.795772 0.354864 0.956971
0.855481 0.394463 0.967360
0.902456 0.443494 0.975714
0.339567 0.227888 0.894906
0.366685 0.240295 0.900849
0.435712 0.252194 0.909960
0.536742 0.268698 0.920832
0.624871 0.295020 0.933019
0.702809 0.324377 0.946337
0.795772 0.354864 0.956971
0.855481 0.394463 0.967360
0.902456 0.443494 0.975714
0.335416 0.322485 0.917445
0.365424 0.325369 0.920384
0.440273 0.339319 0.929838
0.543608 0.358875 0.941691
0.639807 0.381785 0.951912
0.733278 0.414315 0.963204
0.816250 0.447683 0.970103
0.871828 0.481058 0.977705
0.914294 0.521384 0.983627
0.333450 0.457387 0.946253
0.369132 0.461337 0.949284
0.441831 0.476930 0.956027
0.555458 0.500203 0.964971
0.655722 0.516914 0.973731
0.747955 0.541695 0.978667
0.828878 0.562455 0.982485
0.881659 0.586062 0.987914
0.920597 0.615199 0.991933
0.319965 0.579370 0.965422
0.345830 0.588128 0.967630
0.448396 0.601399 0.973262
0.559130 0.612656 0.980712
0.661776 0.628115 0.985312
0.760087 0.647973 0.988529
0.838096 0.667635 0.990632
0.887445 0.692049 0.994047
0.919994 0.718218 0.996764
0.309799 0.679607 0.979895
0.356229 0.686715 0.981672
0.441668 0.711749 0.985219
0.546067 0.726500 0.988537
0.651335 0.752022 0.991564
0.754540 0.768261 0.992443
0.827462 0.785866 0.995055
0.879548 0.797597 0.995273
0.916832 0.810942 0.997246
0.311789 0.785530 0.981221
0.344870 0.789927 0.983319
0.436208 0.801506 0.988359
0.547357 0.817497 0.992909
0.642608 0.832986 0.996330
0.752578 0.840511 0.996205
0.825910 0.853126 0.995962
0.877795 0.862320 0.997651
0.911671 0.872105 0.997370
0.335957 0.847787 0.985893
0.367837 0.851434 0.987550
0.459354 0.861379 0.991609
0.551871 0.872648 0.993742
0.642999 0.884850 0.995802
0.746064 0.892513 0.996408
0.821283 0.900782 0.997655
0.874338 0.906296 0.997202
0.910330 0.912392 0.998648
0.373862 0.889899 0.988453
0.406180 0.893111 0.989828
0.480991 0.900258 0.992567
0.572730 0.909880 0.995109
0.655085 0.916468 0.998422
0.755734 0.925334 0.998668
0.822129 0.929074 0.997682
0.874231 0.934743 0.998886
0.908407 0.938150 0.998477
