look-library/cubes/film-cinestill_33.cube
TITLE "look-library film-cinestill (film)"
# look-library — baked by build_cubes.py from looks/<id>.yaml
# method: GUIDE.md section 4a
LUT_3D_SIZE 33
0.015007 0.019357 0.050207
0.015002 0.019387 0.050215
0.014990 0.019467 0.050233
0.014961 0.019665 0.050269
0.014929 0.019880 0.050295
0.014886 0.020168 0.050368
0.020870 0.020449 0.050188
0.033429 0.020731 0.049836
0.050998 0.021095 0.049183
0.078535 0.021690 0.047913
0.111212 0.022343 0.048215
0.138766 0.023033 0.049772
0.170341 0.023451 0.052396
0.208554 0.024194 0.056730
0.246362 0.028586 0.062014
0.287576 0.034795 0.069177
0.326129 0.041058 0.076340
0.365901 0.047781 0.083981
0.407984 0.055154 0.092314
0.451655 0.063059 0.101208
0.485219 0.069310 0.108213
0.521589 0.076392 0.116130
0.546304 0.081419 0.121739
0.569798 0.086360 0.127247
0.599080 0.092748 0.134356
0.625597 0.098757 0.141035
0.648281 0.105837 0.146827
0.671868 0.117387 0.152802
0.694306 0.133255 0.157780
0.717302 0.147078 0.169145
0.743348 0.164196 0.186068
0.766120 0.180074 0.204173
0.788143 0.199384 0.216346
0.014997 0.019421 0.050219
0.014991 0.019460 0.050228
0.014974 0.019576 0.050251
0.014937 0.019823 0.050290
0.014897 0.020097 0.050319
0.014820 0.020613 0.050404
0.021703 0.021209 0.050253
0.034844 0.021712 0.049855
0.052916 0.022373 0.049223
0.078852 0.023265 0.048024
0.111842 0.023932 0.048040
0.141282 0.024898 0.049729
0.173401 0.025874 0.052433
0.211265 0.026510 0.056859
0.249744 0.029049 0.062550
0.291809 0.035469 0.069950
0.331007 0.041869 0.077264
0.371458 0.048740 0.085067
0.413796 0.056191 0.093483
0.457664 0.064167 0.102450
0.492661 0.070729 0.109800
0.524609 0.076997 0.116806
0.552780 0.082765 0.123240
0.575730 0.087634 0.128665
0.603017 0.093626 0.135333
0.631299 0.100696 0.142463
0.652121 0.113540 0.147434
0.677152 0.128551 0.153681
0.699988 0.142118 0.158440
0.724157 0.158925 0.169018
0.748704 0.174344 0.185951
0.772559 0.193449 0.204009
0.791278 0.205261 0.222943
0.014901 0.020066 0.050370
0.014880 0.020206 0.050389
0.014857 0.020359 0.050409
0.014809 0.020681 0.050439
0.014756 0.021035 0.050520
0.014662 0.021672 0.050588
0.022594 0.022226 0.050374
0.037749 0.022953 0.049852
0.056728 0.023808 0.049035
0.085078 0.024915 0.047626
0.114631 0.026241 0.047884
0.146235 0.027357 0.049817
0.181267 0.028643 0.052964
0.214681 0.029891 0.056995
0.253854 0.031375 0.063059
0.296326 0.036192 0.070780
0.336232 0.042742 0.078258
0.385571 0.051196 0.087845
0.421002 0.057484 0.094939
0.461412 0.064860 0.103227
0.494792 0.071138 0.110258
0.532798 0.078650 0.118651
0.558431 0.083949 0.124560
0.587456 0.090181 0.131501
0.608655 0.097462 0.136579
0.635781 0.109453 0.143154
0.656049 0.121727 0.148062
0.681023 0.137217 0.154333
0.702945 0.151320 0.158542
0.729580 0.168774 0.168837
0.755245 0.187422 0.185701
0.775098 0.198940 0.203914
0.797410 0.219525 0.222737
0.014747 0.021096 0.050529
0.014724 0.021250 0.050542
0.014692 0.021467 0.050556
0.014633 0.021868 0.050571
0.014552 0.022414 0.050640
0.015167 0.023076 0.050728
0.024186 0.023814 0.050436
0.038742 0.024927 0.049904
0.058877 0.025997 0.048981
0.087946 0.027750 0.047440
0.117876 0.029573 0.047640
0.150276 0.031756 0.049644
0.183176 0.033687 0.052657
0.217551 0.036960 0.056740
0.260721 0.039983 0.063568
0.304764 0.042925 0.071905
0.344900 0.046175 0.079762
0.391619 0.052257 0.089045
0.427278 0.058615 0.096213
0.469805 0.066418 0.104974
0.504608 0.073039 0.112384
0.540305 0.080183 0.120361
0.566982 0.087955 0.126436
0.592931 0.097564 0.132453
0.614990 0.109557 0.137534
0.641607 0.121384 0.144070
0.662991 0.136841 0.149212
0.684599 0.150641 0.154711
0.712724 0.168040 0.159684
0.734937 0.178950 0.168583
0.760677 0.198308 0.188533
0.780452 0.210336 0.206881
0.802487 0.231315 0.225933
0.014501 0.022759 0.050668
0.014453 0.023084 0.050673
0.014416 0.023324 0.050744
0.014330 0.023909 0.050735
0.014238 0.024529 0.050782
0.016052 0.025546 0.050786
0.025632 0.026839 0.050498
0.040787 0.028198 0.049787
0.060733 0.030157 0.048872
0.089649 0.033030 0.047048
0.120941 0.036459 0.047001
0.155777 0.039937 0.049279
0.190313 0.044253 0.052531
0.224698 0.047361 0.056950
0.265509 0.051778 0.063599
0.311068 0.057094 0.072135
0.358841 0.060345 0.081608
0.401862 0.065938 0.090252
0.446367 0.073551 0.099338
0.480871 0.078750 0.106609
0.522396 0.088170 0.115566
0.551897 0.097240 0.122125
0.576587 0.105459 0.127803
0.602841 0.116752 0.133933
0.625429 0.131250 0.139177
0.650314 0.140422 0.145510
0.669099 0.156957 0.150036
0.694110 0.167295 0.155878
0.721094 0.183337 0.160646
0.744376 0.197470 0.170960
0.768182 0.214979 0.188015
0.788837 0.230287 0.206356
0.807164 0.243354 0.225654
0.013984 0.026248 0.050778
0.013894 0.026853 0.050833
0.013844 0.027197 0.050811
0.013692 0.028221 0.050826
0.013578 0.028986 0.050835
0.016809 0.030893 0.050675
0.027801 0.032852 0.050112
0.044223 0.035355 0.049249
0.066693 0.038610 0.047947
0.094285 0.043854 0.046053
0.129735 0.047968 0.046551
0.159754 0.052374 0.048739
0.197494 0.057897 0.052588
0.239283 0.062668 0.058395
0.281672 0.067299 0.065863
0.320586 0.073120 0.073153
0.369704 0.078039 0.082816
0.412661 0.083583 0.091501
0.458176 0.093274 0.100775
0.493063 0.099604 0.108154
0.533112 0.107557 0.117029
0.563242 0.119069 0.123774
0.587469 0.127405 0.129462
0.610469 0.138688 0.134906
0.632095 0.152777 0.140074
0.658144 0.165147 0.146688
0.676503 0.175968 0.151353
0.706927 0.190248 0.157323
0.733302 0.207624 0.162022
0.756300 0.222570 0.175952
0.777273 0.235325 0.193692
0.796503 0.248474 0.212381
0.815008 0.264892 0.225017
0.012921 0.033416 0.050596
0.012748 0.034575 0.050585
0.012648 0.035237 0.050615
0.012513 0.036171 0.050606
0.012214 0.038263 0.050458
0.016591 0.040681 0.050137
0.029142 0.044036 0.049257
0.048193 0.048133 0.047952
0.068138 0.053125 0.047023
0.100083 0.058800 0.045284
0.134843 0.064096 0.046467
0.165658 0.068574 0.048898
0.202162 0.075875 0.052815
0.244221 0.080627 0.058818
0.287500 0.087066 0.066456
0.327413 0.094640 0.073870
0.380530 0.098902 0.084254
0.424498 0.106018 0.093089
0.469836 0.115583 0.102391
0.501678 0.124455 0.109096
0.543057 0.135117 0.118291
0.572164 0.144115 0.125028
0.596543 0.154146 0.130804
0.622134 0.167107 0.137013
0.641908 0.178008 0.141907
0.668220 0.192379 0.148506
0.689059 0.204713 0.153118
0.720395 0.217046 0.158823
0.744800 0.232742 0.163333
0.766247 0.245877 0.177925
0.788014 0.262524 0.195821
0.806882 0.276623 0.214714
0.824496 0.290732 0.234805
0.011081 0.046267 0.049721
0.010973 0.047026 0.049741
0.010842 0.047949 0.049737
0.010666 0.049201 0.049678
0.010136 0.053012 0.049272
0.015871 0.055565 0.048818
0.029898 0.059833 0.047641
0.047921 0.063039 0.046382
0.074261 0.069502 0.044529
0.104824 0.075996 0.044065
0.138351 0.082733 0.046522
0.174802 0.090177 0.049848
0.214559 0.096552 0.054586
0.252234 0.102406 0.060322
0.296386 0.109858 0.068123
0.344950 0.119050 0.077115
0.387490 0.124660 0.085294
0.433504 0.135978 0.094423
0.477719 0.142813 0.103487
0.513893 0.153076 0.111212
0.554057 0.161858 0.120276
0.583405 0.172549 0.127146
0.607873 0.184202 0.133020
0.633575 0.199101 0.139233
0.651659 0.206099 0.143733
0.677022 0.218629 0.150078
0.703939 0.234999 0.154760
0.734601 0.248546 0.160440
0.754892 0.256551 0.165669
0.777305 0.273602 0.182791
0.797384 0.287689 0.201305
0.816160 0.305150 0.213410
0.833402 0.320259 0.233641
0.008908 0.061915 0.048549
0.008776 0.062870 0.048549
0.008611 0.064075 0.048506
0.008302 0.066369 0.048127
0.007733 0.070580 0.047735
0.013478 0.073733 0.046910
0.028329 0.076892 0.045723
0.049378 0.084181 0.043486
0.077168 0.089054 0.041159
0.112489 0.097068 0.040195
0.149644 0.106534 0.045015
0.182560 0.114160 0.049544
0.220165 0.122133 0.055059
0.261933 0.131603 0.062241
0.306524 0.139538 0.070349
0.355083 0.147772 0.079348
0.398727 0.155601 0.087682
0.444452 0.165600 0.096694
0.489347 0.173674 0.105851
0.533828 0.186039 0.115501
0.566270 0.196296 0.122892
0.594170 0.203705 0.129426
0.618737 0.216851 0.135227
0.642738 0.227384 0.141007
0.668211 0.241802 0.147186
0.690858 0.249922 0.151745
0.718163 0.266993 0.156369
0.748049 0.281412 0.161999
0.767792 0.290064 0.166483
0.787102 0.307962 0.184044
0.804673 0.316456 0.199798
0.822737 0.332096 0.219217
0.838336 0.344246 0.232617
0.006356 0.080914 0.046802
0.006210 0.082017 0.046756
0.005901 0.084387 0.046335
0.005660 0.086236 0.046120
0.005005 0.091304 0.045327
0.007163 0.095057 0.044666
0.025916 0.100640 0.042669
0.047482 0.107977 0.040315
0.076658 0.113518 0.037540
0.121412 0.125773 0.035902
0.153134 0.130943 0.040057
0.195559 0.141104 0.047583
0.228903 0.149715 0.054052
0.273714 0.157893 0.063505
0.319513 0.167872 0.072455
0.360571 0.177011 0.080468
0.408947 0.186806 0.089927
0.455453 0.198759 0.099159
0.500716 0.208560 0.108493
0.543915 0.217596 0.117840
0.576579 0.229251 0.125143
0.606402 0.243905 0.131921
0.629481 0.252679 0.137303
0.653672 0.264781 0.143008
0.678882 0.273660 0.148816
0.704098 0.288238 0.152897
0.733781 0.297532 0.158376
0.758213 0.316035 0.162801
0.777801 0.325485 0.170195
0.796155 0.334868 0.188929
0.816600 0.354421 0.207780
0.831662 0.363440 0.221042
0.848335 0.380548 0.241691
0.003639 0.101958 0.044540
0.003459 0.103375 0.044428
0.003101 0.106224 0.044073
0.002492 0.111129 0.043312
0.002066 0.114596 0.042691
0.001547 0.118865 0.041801
0.020060 0.125420 0.039523
0.048076 0.134592 0.036444
0.075710 0.140384 0.035378
0.126451 0.151570 0.033712
0.160904 0.161174 0.035896
0.198479 0.167550 0.042454
0.242577 0.178748 0.052223
0.283772 0.191493 0.061825
0.329055 0.198727 0.072669
0.370743 0.209809 0.081410
0.425270 0.224648 0.092466
0.471441 0.236040 0.102064
0.507907 0.245936 0.109697
0.551614 0.257170 0.119105
0.585170 0.270483 0.126419
0.614378 0.280344 0.133023
0.637555 0.289908 0.138337
0.662016 0.303415 0.143943
0.692060 0.313405 0.149651
0.718128 0.323266 0.154138
0.747178 0.333366 0.159607
0.771131 0.353142 0.163881
0.790465 0.363307 0.176744
0.808046 0.373168 0.192817
0.824445 0.382324 0.205599
0.842266 0.402941 0.225874
0.856501 0.413296 0.247382
0.000525 0.127211 0.041707
0.000376 0.128470 0.041387
0.000000 0.131937 0.040907
0.000000 0.134491 0.040526
0.000000 0.138349 0.039759
0.000000 0.146766 0.038501
0.011706 0.154537 0.037787
0.043861 0.161366 0.036290
0.075025 0.168121 0.035353
0.122369 0.183334 0.034298
0.166777 0.191729 0.033587
0.207902 0.203363 0.038446
0.245069 0.210556 0.046489
0.291639 0.225057 0.057717
0.338608 0.233678 0.070345
0.389478 0.247669 0.082505
0.436174 0.262605 0.092728
0.481458 0.270141 0.102690
0.527166 0.282164 0.112257
0.562510 0.294104 0.119813
0.596363 0.308102 0.127188
0.625778 0.319044 0.133870
0.647386 0.324397 0.139084
0.671076 0.334980 0.144598
0.706479 0.348975 0.150336
0.731994 0.359685 0.154808
0.760327 0.370356 0.160297
0.780331 0.380779 0.164271
0.802470 0.401658 0.179372
0.819283 0.411591 0.192300
0.835509 0.422368 0.213142
0.850047 0.433210 0.234889
0.864383 0.447179 0.248886
0.000000 0.152473 0.038862
0.000000 0.153790 0.038495
0.000000 0.155851 0.038496
0.000000 0.160780 0.038529
0.000000 0.165358 0.038583
0.000000 0.171626 0.038693
0.002529 0.184036 0.038609
0.036691 0.191239 0.037055
0.077048 0.199923 0.036232
0.124489 0.209967 0.035501
0.168265 0.225566 0.035583
0.208466 0.233711 0.035676
0.255233 0.247168 0.043669
0.300354 0.258166 0.054265
0.351092 0.273120 0.066935
0.398285 0.282039 0.079632
0.445203 0.296610 0.090674
0.491734 0.307494 0.101704
0.537713 0.320999 0.112086
0.573290 0.334160 0.119904
0.611967 0.340990 0.129070
0.640780 0.355535 0.135380
0.664401 0.366775 0.140728
0.688004 0.377635 0.144784
0.721443 0.389289 0.150413
0.747386 0.403924 0.154908
0.773155 0.408745 0.160165
0.792713 0.419548 0.164158
0.811247 0.430879 0.182750
0.828781 0.445132 0.195347
0.844450 0.456397 0.217149
0.858191 0.466484 0.231446
0.871375 0.477493 0.254385
0.000000 0.180690 0.038928
0.000000 0.182484 0.038985
0.000000 0.185201 0.039078
0.000000 0.190491 0.039283
0.000000 0.195841 0.039521
0.000000 0.202331 0.039832
0.000000 0.210886 0.040233
0.030181 0.220857 0.038916
0.073570 0.235044 0.038620
0.124623 0.245796 0.038413
0.165152 0.257378 0.038810
0.213780 0.267877 0.039265
0.255564 0.281987 0.040798
0.302419 0.292010 0.050152
0.355950 0.310389 0.061917
0.400894 0.319464 0.073493
0.459291 0.335113 0.088094
0.501086 0.343362 0.098999
0.548387 0.360895 0.109975
0.582530 0.369091 0.118584
0.623058 0.383094 0.128300
0.652060 0.399063 0.134748
0.675587 0.404648 0.140419
0.701427 0.416414 0.144591
0.734052 0.429041 0.150506
0.765669 0.443685 0.156605
0.784301 0.448541 0.160745
0.803393 0.460211 0.168279
0.821490 0.471804 0.189187
0.837602 0.482385 0.202775
0.853777 0.496997 0.224766
0.867170 0.506896 0.239353
0.880098 0.517750 0.263019
0.000000 0.208336 0.040140
0.000000 0.210130 0.040240
0.000000 0.212726 0.040390
0.000000 0.216924 0.040648
0.000000 0.224345 0.041152
0.000000 0.231789 0.041717
0.000000 0.241580 0.042554
0.018796 0.250042 0.042036
0.065181 0.267816 0.042166
0.122671 0.280608 0.042610
0.166628 0.290134 0.043053
0.214420 0.303646 0.044133
0.262266 0.319976 0.045759
0.312030 0.331189 0.048514
0.368041 0.342655 0.060579
0.415993 0.361300 0.070852
0.465848 0.371178 0.083580
0.515117 0.386847 0.095702
0.551593 0.394983 0.105478
0.597465 0.413433 0.116593
0.628864 0.420908 0.125120
0.657924 0.433180 0.132341
0.683749 0.439252 0.138397
0.717771 0.455592 0.144277
0.742100 0.467660 0.148820
0.770645 0.473700 0.155373
0.790827 0.484205 0.159719
0.810663 0.498588 0.169891
0.828154 0.510103 0.191671
0.846923 0.514225 0.206643
0.857675 0.525084 0.229876
0.870885 0.535262 0.245007
0.884075 0.548969 0.260290
0.000000 0.233924 0.041891
0.000000 0.241014 0.042503
0.000000 0.244047 0.042782
0.000000 0.248525 0.043212
0.000000 0.254839 0.043857
0.000000 0.265425 0.045039
0.000000 0.275633 0.046300
0.007601 0.285328 0.047013
0.061692 0.296505 0.045913
0.117103 0.311525 0.046902
0.165868 0.328707 0.048501
0.216945 0.340671 0.049328
0.263292 0.355214 0.050633
0.320695 0.367126 0.051688
0.370083 0.383470 0.056698
0.418804 0.393990 0.067207
0.471128 0.406591 0.079475
0.521559 0.422762 0.091690
0.568395 0.432866 0.104423
0.604668 0.447499 0.113500
0.637213 0.458526 0.122176
0.666415 0.471021 0.129747
0.695565 0.477426 0.136306
0.727774 0.490323 0.142674
0.749789 0.494765 0.147824
0.780693 0.511011 0.154394
0.800466 0.523027 0.161653
0.817483 0.527106 0.176953
0.839643 0.539478 0.199057
0.855308 0.553629 0.213474
0.868100 0.558245 0.238104
0.877025 0.567507 0.249816
0.888920 0.576188 0.265929
0.000000 0.265103 0.045002
0.000000 0.266727 0.045194
0.000000 0.272586 0.045911
0.000000 0.277776 0.046580
0.000000 0.283849 0.047371
0.000000 0.292726 0.048543
0.000257 0.305941 0.050331
0.001537 0.317640 0.051956
0.062167 0.337355 0.051519
0.118292 0.351168 0.052532
0.164806 0.362772 0.053376
0.210828 0.374075 0.054185
0.260033 0.385581 0.055037
0.313972 0.407067 0.057463
0.380320 0.420286 0.059035
0.431547 0.430485 0.066515
0.485433 0.447977 0.078093
0.526131 0.460744 0.087702
0.574462 0.470188 0.100684
0.611336 0.485307 0.110012
0.643723 0.493522 0.119197
0.674590 0.509716 0.126863
0.705954 0.516371 0.133843
0.737886 0.528437 0.140730
0.766837 0.534462 0.147992
0.788958 0.544757 0.153244
0.807401 0.552859 0.163540
0.830445 0.562877 0.177783
0.845647 0.568034 0.202610
0.859948 0.577116 0.218062
0.873529 0.587224 0.242704
0.885173 0.593475 0.259447
0.893135 0.601557 0.276317
0.000000 0.295088 0.048859
0.000000 0.296861 0.049097
0.000000 0.300334 0.049566
0.000274 0.306097 0.050352
0.001379 0.316216 0.051756
0.002363 0.324993 0.052996
0.003738 0.336960 0.054721
0.005552 0.352238 0.056979
0.053920 0.372085 0.056799
0.110471 0.385162 0.057531
0.158346 0.395553 0.058179
0.211521 0.410496 0.059475
0.264133 0.422824 0.060510
0.321814 0.441613 0.062639
0.374765 0.453133 0.063977
0.427360 0.466924 0.066138
0.487372 0.479862 0.075531
0.539864 0.494828 0.087747
0.578562 0.504230 0.097690
0.624731 0.515697 0.110302
0.656855 0.528910 0.118883
0.688298 0.535116 0.127076
0.720540 0.546904 0.133969
0.742857 0.551647 0.139427
0.772250 0.560975 0.146690
0.794104 0.570926 0.155416
0.817883 0.576065 0.171087
0.834809 0.586063 0.195041
0.851182 0.597292 0.210339
0.864258 0.600653 0.222686
0.877506 0.610362 0.248197
0.888531 0.613979 0.265530
0.896293 0.621902 0.282916
0.002592 0.327009 0.053284
0.002835 0.329144 0.053590
0.003280 0.333014 0.054148
0.004103 0.340078 0.055177
0.004789 0.345873 0.056031
0.006152 0.357175 0.057721
0.007622 0.368988 0.059509
0.009096 0.380341 0.061220
0.054815 0.398835 0.060798
0.103391 0.417204 0.062261
0.155853 0.428234 0.063002
0.207541 0.440795 0.064080
0.268808 0.453371 0.065148
0.329452 0.469201 0.066945
0.383509 0.480956 0.068446
0.437935 0.496981 0.071093
0.493744 0.508052 0.075049
0.535951 0.520313 0.084558
0.591402 0.535212 0.098364
0.627874 0.543037 0.108344
0.659614 0.550834 0.117373
0.694163 0.563883 0.125406
0.725359 0.569483 0.132840
0.747394 0.575568 0.138194
0.777287 0.585884 0.145718
0.797968 0.591855 0.168025
0.823086 0.604441 0.182408
0.838931 0.608783 0.199406
0.854824 0.618568 0.215071
0.867832 0.623652 0.241507
0.881002 0.633195 0.258078
0.891912 0.636902 0.276086
0.903191 0.649161 0.293386
0.005615 0.352760 0.057057
0.006195 0.357530 0.057775
0.006851 0.362857 0.058582
0.007428 0.367453 0.059277
0.008476 0.375619 0.060509
0.009768 0.385370 0.061976
0.011292 0.396481 0.063642
0.013391 0.411188 0.065839
0.038634 0.426801 0.066374
0.110032 0.440693 0.065596
0.164761 0.453698 0.066687
0.210041 0.465635 0.067869
0.272831 0.484220 0.070065
0.326139 0.494833 0.071293
0.381518 0.506859 0.072970
0.436950 0.520425 0.075272
0.493800 0.531576 0.077684
0.547574 0.546784 0.085823
0.587885 0.555318 0.095864
0.625018 0.567337 0.105480
0.658142 0.574646 0.114794
0.693509 0.586489 0.123224
0.728894 0.592584 0.131666
0.758476 0.599529 0.144586
0.781673 0.612739 0.158887
0.808425 0.617747 0.170634
0.826999 0.627980 0.186250
0.842746 0.633510 0.212312
0.858461 0.643489 0.228587
0.871779 0.650367 0.245944
0.883943 0.654310 0.263854
0.895471 0.666755 0.281197
0.905374 0.672103 0.300086
0.009048 0.379990 0.061703
0.009397 0.382603 0.061560
0.009945 0.386685 0.062173
0.010905 0.393698 0.063225
0.011745 0.399710 0.064125
0.013759 0.413699 0.066213
0.015084 0.422604 0.067540
0.017566 0.438616 0.069930
0.039118 0.453305 0.070572
0.104525 0.467667 0.069730
0.162096 0.485228 0.071641
0.209555 0.496852 0.072933
0.272694 0.508453 0.074205
0.332749 0.524112 0.076470
0.390248 0.534699 0.078092
0.447395 0.546236 0.080210
0.504781 0.562756 0.083814
0.548152 0.574583 0.086872
0.598905 0.584764 0.097210
0.636402 0.592843 0.107177
0.668826 0.605468 0.115997
0.705093 0.611716 0.124260
0.728938 0.619432 0.130909
0.758903 0.626477 0.155795
0.781566 0.636958 0.171010
0.808904 0.642719 0.187862
0.827403 0.652975 0.203850
0.843886 0.661243 0.220631
0.858717 0.666831 0.233840
0.872491 0.680910 0.250394
0.884827 0.686673 0.268642
0.897875 0.700016 0.286377
0.907612 0.706638 0.315710
0.012794 0.407224 0.073482
0.013215 0.410096 0.072511
0.013975 0.415241 0.070918
0.015100 0.422797 0.073590
0.016111 0.429379 0.071150
0.017700 0.439478 0.072992
0.019845 0.452539 0.072025
0.022962 0.470588 0.074768
0.033067 0.489180 0.077093
0.088349 0.499986 0.075046
0.159215 0.512770 0.076235
0.210820 0.525526 0.077865
0.275509 0.539423 0.079785
0.333791 0.550360 0.081445
0.398565 0.561930 0.083441
0.457461 0.576280 0.086374
0.503646 0.591276 0.089815
0.558762 0.600757 0.092586
0.599669 0.609479 0.096550
0.637590 0.617722 0.106470
0.670523 0.633325 0.115345
0.708304 0.639006 0.126154
0.739685 0.644925 0.142400
0.762088 0.649969 0.159059
0.791746 0.661789 0.174525
0.812086 0.672841 0.191230
0.829524 0.681278 0.217401
0.846059 0.694942 0.234237
0.865422 0.701909 0.251958
0.878091 0.707580 0.270446
0.886766 0.722768 0.288002
0.897500 0.727174 0.302505
0.907879 0.739004 0.321532
0.017597 0.438956 0.089163
0.017853 0.440534 0.088688
0.018645 0.445380 0.087188
0.019732 0.451924 0.090951
0.020940 0.459017 0.088655
0.022889 0.470164 0.081826
0.025651 0.485241 0.082190
0.028410 0.499562 0.082562
0.032160 0.518055 0.082387
0.091218 0.531639 0.080309
0.154906 0.542656 0.081526
0.222536 0.554921 0.083150
0.280281 0.565731 0.084807
0.341191 0.576867 0.086726
0.400986 0.589942 0.089314
0.455057 0.600978 0.091757
0.514432 0.615923 0.095467
0.558148 0.625182 0.098137
0.599762 0.636600 0.109243
0.647249 0.646268 0.121724
0.682529 0.653537 0.136607
0.710035 0.663380 0.143136
0.741504 0.672209 0.159330
0.771649 0.684539 0.175455
0.793260 0.690975 0.188329
0.813743 0.704820 0.204380
0.837115 0.712402 0.221988
0.852272 0.718456 0.240017
0.867063 0.733541 0.256866
0.879697 0.738988 0.275706
0.891358 0.744200 0.294922
0.898630 0.754477 0.313973
0.908604 0.759237 0.334187
0.022555 0.468238 0.104186
0.022865 0.469975 0.103713
0.023497 0.473482 0.102732
0.024888 0.481058 0.100650
0.026584 0.490003 0.103963
0.028159 0.498113 0.101373
0.031350 0.513902 0.102399
0.034047 0.526781 0.097442
0.037100 0.540744 0.099032
0.086658 0.552785 0.096625
0.163670 0.570474 0.094095
0.223339 0.581115 0.095179
0.283641 0.594290 0.095683
0.348377 0.604794 0.092660
0.396744 0.613540 0.094977
0.458330 0.625568 0.104076
0.524261 0.636512 0.105432
0.567662 0.648027 0.117067
0.609538 0.660031 0.120474
0.647512 0.671090 0.134423
0.683451 0.681849 0.149516
0.718456 0.693974 0.165195
0.742252 0.699442 0.173315
0.772584 0.714097 0.189377
0.794083 0.721013 0.206627
0.820216 0.728764 0.224341
0.837697 0.734205 0.237675
0.853290 0.749091 0.254565
0.867573 0.754675 0.273363
0.880384 0.758487 0.282763
0.892245 0.769047 0.301492
0.899206 0.773185 0.321762
0.909199 0.777748 0.341834
0.028495 0.499627 0.120633
0.028860 0.501458 0.120175
0.029610 0.505200 0.119214
0.030379 0.508991 0.118203
0.032047 0.517080 0.115918
0.034580 0.528939 0.119005
0.037558 0.542537 0.114748
0.040609 0.555897 0.117227
0.043419 0.567816 0.120301
0.094402 0.578715 0.111169
0.157019 0.589298 0.111430
0.225447 0.602984 0.111704
0.288939 0.613948 0.113080
0.354191 0.625116 0.114501
0.403701 0.638384 0.116543
0.466957 0.652762 0.126151
0.515090 0.661084 0.130078
0.560542 0.671066 0.134485
0.618037 0.686472 0.142596
0.646897 0.694482 0.148911
0.683643 0.713593 0.162911
0.718575 0.722167 0.179597
0.750434 0.728532 0.187474
0.772601 0.735323 0.204689
0.801415 0.743193 0.222315
0.820708 0.757549 0.239060
0.838101 0.763474 0.257318
0.853572 0.767573 0.266540
0.867861 0.772977 0.285596
0.880789 0.782568 0.299487
0.892454 0.787447 0.319671
0.903136 0.794553 0.339382
0.909859 0.802081 0.348887
0.033230 0.522376 0.137876
0.033636 0.524281 0.137453
0.034470 0.528162 0.136563
0.035527 0.532977 0.138610
0.038042 0.544321 0.135859
0.040167 0.553682 0.133286
0.043321 0.567085 0.136251
0.046523 0.580437 0.132254
0.049577 0.592696 0.135461
0.099050 0.606957 0.133793
0.153983 0.614822 0.127122
0.226955 0.626414 0.128591
0.293427 0.637481 0.130590
0.359694 0.650589 0.132267
0.411240 0.659435 0.135927
0.476847 0.671525 0.138744
0.523983 0.685925 0.151681
0.569085 0.697240 0.156603
0.611334 0.716267 0.160889
0.649114 0.727582 0.175950
0.693180 0.736277 0.182780
0.717875 0.742202 0.195129
0.749963 0.748349 0.203136
0.780078 0.763847 0.219653
0.801431 0.770205 0.237406
0.820868 0.774710 0.246201
0.838265 0.780487 0.264736
0.853469 0.785882 0.283743
0.867939 0.795767 0.302705
0.880951 0.801613 0.312375
0.892652 0.806266 0.332487
0.903393 0.815175 0.352286
0.913075 0.818725 0.368065
0.040053 0.552730 0.157638
0.040053 0.552730 0.157638
0.041021 0.556915 0.156798
0.042047 0.561312 0.155872
0.044263 0.570665 0.153752
0.047266 0.582905 0.157948
0.049454 0.591749 0.155634
0.052459 0.603486 0.159957
0.055628 0.615787 0.156238
0.096985 0.625167 0.153422
0.168065 0.635530 0.144409
0.222544 0.644436 0.147935
0.298351 0.658377 0.149670
0.365928 0.669333 0.152676
0.418810 0.682375 0.156868
0.471889 0.700531 0.160447
0.533412 0.714623 0.164550
0.578385 0.727887 0.169747
0.619028 0.739557 0.184798
0.656143 0.748241 0.191225
0.686954 0.754449 0.198746
0.720591 0.762196 0.215780
0.744874 0.774271 0.223480
0.775503 0.780785 0.236221
0.800803 0.787460 0.254186
