look-library/cubes/film-portra_33.cube
TITLE "look-library film-portra (film)"
# look-library — baked by build_cubes.py from looks/<id>.yaml
# method: GUIDE.md section 4a
LUT_3D_SIZE 9
0.034107 0.057465 0.069501
0.035549 0.057613 0.069480
0.063273 0.060223 0.068894
0.197882 0.071131 0.064696
0.423526 0.078080 0.057541
0.631254 0.104584 0.102154
0.772955 0.138249 0.133881
0.874008 0.163027 0.156989
0.928086 0.179282 0.171932
0.033495 0.058578 0.069578
0.034869 0.059120 0.069580
0.062182 0.062385 0.069061
0.190875 0.075262 0.065414
0.417444 0.088269 0.056451
0.635943 0.105767 0.103266
0.783236 0.140717 0.136205
0.886913 0.166633 0.160319
0.940861 0.190886 0.175864
0.024972 0.077046 0.070644
0.026443 0.078605 0.070665
0.053131 0.083374 0.070062
0.187450 0.103009 0.068628
0.419959 0.128567 0.058146
0.651498 0.150952 0.106350
0.825276 0.186570 0.145009
0.918596 0.234801 0.168885
0.963056 0.286590 0.182992
0.002916 0.142130 0.070861
0.002993 0.144374 0.070828
0.018949 0.154951 0.069569
0.190947 0.187925 0.058879
0.444822 0.235546 0.065212
0.697278 0.284126 0.117758
0.872676 0.331986 0.153518
0.955110 0.382666 0.177998
0.992691 0.437486 0.191764
0.013799 0.254885 0.060651
0.014051 0.256439 0.060454
0.018046 0.278988 0.056270
0.190843 0.322879 0.036917
0.476281 0.388445 0.054904
0.760235 0.455957 0.123583
0.918703 0.503023 0.161888
0.986527 0.539568 0.185623
1.000000 0.589084 0.198541
0.036433 0.370388 0.041506
0.037162 0.373830 0.040602
0.042051 0.395524 0.038217
0.175939 0.458454 0.049116
0.521616 0.535346 0.066208
0.797620 0.593352 0.122746
0.946931 0.636825 0.166586
1.000000 0.673322 0.191886
1.000000 0.717115 0.202051
0.056169 0.456873 0.049319
0.058543 0.466618 0.051109
0.066573 0.498475 0.057048
0.192134 0.554967 0.068114
0.546194 0.631506 0.088355
0.828151 0.696100 0.124595
0.963627 0.750005 0.165555
1.000000 0.793983 0.190365
1.000000 0.823013 0.200225
0.075334 0.531289 0.063396
0.078352 0.542195 0.065563
0.089535 0.581112 0.073550
0.234099 0.644059 0.088072
0.579255 0.719683 0.108497
0.849886 0.787923 0.124760
0.976731 0.836220 0.165792
1.000000 0.867532 0.188618
1.000000 0.889421 0.197743
0.096151 0.603170 0.078267
0.100455 0.617187 0.081341
0.112050 0.653804 0.089670
0.300207 0.717013 0.105589
0.628589 0.799678 0.121928
0.873676 0.855045 0.134614
0.980815 0.886767 0.164885
1.000000 0.911427 0.187049
1.000000 0.927710 0.196786
0.034018 0.057626 0.070653
0.035919 0.057868 0.070750
0.070039 0.061178 0.070384
0.215818 0.072616 0.066484
0.438334 0.079590 0.060443
0.639269 0.106609 0.104057
0.787307 0.141714 0.137143
0.880547 0.164835 0.158660
0.932261 0.180677 0.173208
0.033080 0.059439 0.070851
0.035052 0.060111 0.070988
0.067999 0.064161 0.070707
0.206287 0.078060 0.067713
0.432760 0.092176 0.059432
0.647726 0.108763 0.106082
0.801845 0.145277 0.140489
0.891412 0.167927 0.161511
0.945351 0.206020 0.177238
0.022738 0.081374 0.072333
0.024784 0.082937 0.072530
0.055896 0.089643 0.072169
0.195489 0.110234 0.072147
0.441191 0.137245 0.062333
0.663980 0.158955 0.109311
0.834982 0.198120 0.147141
0.920489 0.238979 0.169428
0.966151 0.304707 0.184079
0.003524 0.157132 0.072179
0.003661 0.159874 0.072413
0.013644 0.170787 0.072054
0.198891 0.205684 0.061547
0.463854 0.255220 0.068510
0.712259 0.300933 0.120203
0.880268 0.344453 0.155322
0.961643 0.394221 0.180105
0.995446 0.461590 0.192241
0.016706 0.271895 0.062139
0.017031 0.273672 0.062099
0.021379 0.296309 0.059139
0.192414 0.345573 0.041094
0.498871 0.404978 0.059262
0.766521 0.467929 0.124089
0.921501 0.513375 0.162441
0.991076 0.565512 0.187086
1.000000 0.605272 0.198990
0.038428 0.379829 0.045796
0.039305 0.383930 0.045128
0.044734 0.407651 0.040387
0.196022 0.471292 0.051473
0.526593 0.545118 0.068305
0.814431 0.603643 0.126660
0.948922 0.645845 0.167126
1.000000 0.685379 0.191506
1.000000 0.734017 0.200939
0.057093 0.460685 0.050018
0.059418 0.470176 0.051764
0.066766 0.499217 0.057189
0.212082 0.562683 0.069758
0.544843 0.636076 0.089471
0.831758 0.699770 0.125282
0.963080 0.758957 0.164723
1.000000 0.803077 0.189475
1.000000 0.831676 0.199348
0.075334 0.531289 0.063396
0.079236 0.545354 0.066196
0.089535 0.581112 0.073550
0.234099 0.644059 0.088072
0.579255 0.719683 0.108497
0.850371 0.792153 0.124682
0.976731 0.836220 0.165792
1.000000 0.867532 0.188618
1.000000 0.893021 0.197382
0.096151 0.603170 0.078267
0.100455 0.617187 0.081341
0.113266 0.657557 0.090549
0.300207 0.717013 0.105589
0.628632 0.802339 0.122464
0.873676 0.855045 0.134614
0.980151 0.888876 0.164478
1.000000 0.911427 0.187049
1.000000 0.927710 0.196786
0.030342 0.060442 0.094184
0.033186 0.060966 0.095539
0.078553 0.065617 0.097305
0.239094 0.077490 0.098863
0.464814 0.085983 0.102185
0.663992 0.112937 0.110446
0.804245 0.145731 0.144712
0.892139 0.167826 0.174781
0.942977 0.187231 0.226961
0.028070 0.064354 0.095289
0.030925 0.065500 0.097396
0.074148 0.071277 0.100791
0.229858 0.086913 0.101622
0.465930 0.101933 0.104386
0.669196 0.114047 0.117908
0.815921 0.148402 0.146155
0.902805 0.171004 0.176516
0.953794 0.233434 0.228394
0.012036 0.092460 0.101063
0.014499 0.094688 0.103415
0.058827 0.103086 0.107389
0.220630 0.125478 0.108662
0.475821 0.153252 0.112436
0.692123 0.187842 0.123840
0.852372 0.231186 0.150639
0.934445 0.276499 0.189994
0.973037 0.335386 0.241312
0.004873 0.182207 0.108142
0.004989 0.183823 0.110089
0.006345 0.199259 0.112639
0.219981 0.240884 0.112166
0.491625 0.291177 0.122510
0.742184 0.340834 0.137600
0.898111 0.386610 0.161822
0.968794 0.442380 0.192944
0.999556 0.495656 0.253536
0.023491 0.307908 0.111254
0.025075 0.315858 0.110438
0.029669 0.338626 0.115830
0.199811 0.391999 0.108527
0.531976 0.453384 0.107867
0.792952 0.514669 0.126736
0.937328 0.561744 0.165871
0.991865 0.596223 0.193016
1.000000 0.641977 0.256727
0.048395 0.425447 0.111711
0.049623 0.430810 0.110698
0.056566 0.460368 0.116993
0.171816 0.526013 0.112000
0.545405 0.599558 0.107555
0.819989 0.653264 0.125877
0.950977 0.691951 0.164502
1.000000 0.740779 0.197127
1.000000 0.770890 0.263718
0.068189 0.507195 0.121399
0.071147 0.518538 0.125506
0.080493 0.553285 0.127729
0.169186 0.623315 0.122785
0.555463 0.688735 0.123560
0.838955 0.765876 0.133607
0.969718 0.811596 0.164178
1.000000 0.838544 0.209184
1.000000 0.867063 0.276133
0.088447 0.581250 0.152888
0.092371 0.594903 0.150117
0.104522 0.635752 0.149703
0.230306 0.700730 0.143659
0.588647 0.780534 0.138165
0.853411 0.839639 0.154898
0.973084 0.876996 0.192139
1.000000 0.898598 0.244474
1.000000 0.917556 0.321990
0.106457 0.641529 0.178838
0.112348 0.660404 0.186303
0.123962 0.697101 0.177103
0.277725 0.771879 0.176892
0.616405 0.838496 0.177570
0.868299 0.883626 0.187732
0.981072 0.914938 0.231828
1.000000 0.932129 0.289127
1.000000 0.945747 0.347882
0.024590 0.065754 0.234766
0.026773 0.067150 0.235569
0.087962 0.073498 0.248629
0.263195 0.086216 0.263585
0.503339 0.098628 0.280652
0.691462 0.116065 0.295938
0.833372 0.150174 0.328073
0.913132 0.171490 0.378490
0.958676 0.228098 0.422323
0.024812 0.076077 0.240247
0.026854 0.077813 0.250280
0.080486 0.086219 0.254664
0.257194 0.101502 0.276865
0.504373 0.115988 0.283305
0.698495 0.132551 0.312780
0.844701 0.159172 0.336846
0.929013 0.217158 0.385083
0.967717 0.269480 0.426073
0.026845 0.113660 0.264141
0.026835 0.116787 0.265285
0.052427 0.131514 0.277275
0.246570 0.154730 0.292744
0.520096 0.191749 0.308962
0.732805 0.228326 0.330888
0.881861 0.266837 0.359605
0.953085 0.314207 0.397206
0.993352 0.377360 0.452179
0.025562 0.231036 0.293927
0.025632 0.233739 0.294687
0.025776 0.253855 0.298565
0.224226 0.293279 0.320962
0.533270 0.344267 0.326091
0.779315 0.398124 0.351019
0.923368 0.444864 0.375349
0.983850 0.483661 0.423139
1.000000 0.533599 0.462734
0.035652 0.368711 0.316881
0.037958 0.379286 0.317678
0.043232 0.402936 0.328843
0.162536 0.461157 0.340778
0.537637 0.518528 0.333183
0.806450 0.577764 0.374577
0.939311 0.616019 0.394378
0.997977 0.653218 0.433639
1.000000 0.693253 0.485185
0.064296 0.490014 0.330618
0.066403 0.498165 0.331113
0.075505 0.532105 0.346376
0.131599 0.597005 0.352158
0.534024 0.664083 0.352338
0.825825 0.717177 0.376315
0.955830 0.758577 0.420210
1.000000 0.796606 0.460474
1.000000 0.824735 0.495345
0.089050 0.579981 0.356573
0.092257 0.590946 0.356958
0.104308 0.630745 0.371334
0.124567 0.694515 0.378591
0.553639 0.779413 0.377990
0.835774 0.829340 0.400002
0.964232 0.859925 0.427564
1.000000 0.883612 0.469516
1.000000 0.897580 0.510539
0.109900 0.648526 0.383630
0.113722 0.660663 0.383910
0.127637 0.705728 0.398712
0.172375 0.788458 0.404084
0.581694 0.855152 0.407846
0.846461 0.890155 0.430367
0.971540 0.914927 0.456477
1.000000 0.932628 0.498006
1.000000 0.943603 0.533955
0.129147 0.710914 0.422926
0.135433 0.734521 0.423073
0.148239 0.778717 0.438974
0.238715 0.840710 0.431773
0.614664 0.895536 0.438595
0.856656 0.926494 0.461771
0.973117 0.945094 0.487186
1.000000 0.960392 0.528669
1.000000 0.967342 0.564441
0.081348 0.076061 0.455828
0.082279 0.076931 0.459415
0.134248 0.078839 0.471182
0.306429 0.082295 0.499109
0.552768 0.094258 0.522796
0.723100 0.121549 0.542356
0.863415 0.156886 0.556778
0.937723 0.209417 0.592265
0.975505 0.279587 0.619851
0.083765 0.078319 0.465133
0.084672 0.079166 0.468614
0.129913 0.083881 0.488663
0.311005 0.107228 0.506542
0.555089 0.128522 0.530727
0.745355 0.152203 0.554102
0.878084 0.201403 0.570145
0.947238 0.253181 0.598024
0.985221 0.317989 0.636452
0.086802 0.137613 0.491029
0.087372 0.145880 0.495245
0.092859 0.163915 0.519152
0.289436 0.197304 0.536993
0.558305 0.232101 0.557108
0.777804 0.265792 0.578155
0.911540 0.319381 0.587649
0.974338 0.362934 0.616411
1.000000 0.433926 0.653123
0.090224 0.269442 0.540935
0.090427 0.281671 0.545425
0.091564 0.302619 0.555679
0.254110 0.352643 0.583265
0.569701 0.396454 0.594496
0.824351 0.446968 0.599178
0.948415 0.484909 0.619295
1.000000 0.537204 0.640640
1.000000 0.574365 0.661827
0.088351 0.421580 0.567177
0.089139 0.430392 0.569657
0.095684 0.468696 0.591286
0.182373 0.525587 0.608200
0.566982 0.579645 0.602661
0.826323 0.616815 0.617947
0.958534 0.658945 0.631158
1.000000 0.693500 0.651709
1.000000 0.735769 0.688679
0.099335 0.548858 0.591582
0.100465 0.559156 0.593678
0.106645 0.595673 0.608562
0.128723 0.656245 0.615052
0.558832 0.727110 0.618356
0.837701 0.775571 0.640381
0.956384 0.808941 0.652087
1.000000 0.829425 0.672536
1.000000 0.850504 0.703715
0.109685 0.637055 0.608899
0.111243 0.647924 0.610756
0.126243 0.693836 0.629782
0.147447 0.770460 0.634410
0.561689 0.831797 0.631422
0.833899 0.871391 0.644994
0.963803 0.894137 0.661759
1.000000 0.909285 0.691458
1.000000 0.919264 0.714562
0.131456 0.713516 0.639249
0.137328 0.735112 0.641358
0.150314 0.779641 0.645520
0.169138 0.837296 0.658076
0.590551 0.899330 0.656943
0.844166 0.922722 0.659069
0.970426 0.940943 0.676733
1.000000 0.953719 0.702312
1.000000 0.961490 0.725101
0.150324 0.779421 0.654242
0.155613 0.796412 0.656135
0.168510 0.835093 0.671772
0.270490 0.888604 0.674290
0.626869 0.932723 0.672122
0.855112 0.951267 0.682795
0.970899 0.966988 0.705765
1.000000 0.974348 0.715414
1.000000 0.980473 0.738413
0.127763 0.119641 0.624924
0.129250 0.121044 0.629956
0.196008 0.124431 0.645899
0.364945 0.129713 0.674935
0.601144 0.130283 0.693960
0.787935 0.161933 0.711966
0.898898 0.211731 0.728716
0.961142 0.272785 0.753827
0.995401 0.338044 0.788452
0.130204 0.121945 0.633176
0.131706 0.123362 0.638221
0.190989 0.127392 0.655764
0.374430 0.136668 0.686228
0.604498 0.174074 0.706711
0.801621 0.213200 0.726724
0.915983 0.263032 0.745795
0.970809 0.313201 0.774287
1.000000 0.388957 0.797669
0.137255 0.179873 0.666835
0.138469 0.185954 0.671818
0.148105 0.210703 0.687313
0.364690 0.240574 0.716203
0.618919 0.290705 0.740743
0.825967 0.331733 0.759851
0.940806 0.373907 0.769081
0.992652 0.424210 0.797680
1.000000 0.490380 0.815767
0.140068 0.321762 0.708284
0.141101 0.330976 0.713471
0.146901 0.365125 0.743897
0.326941 0.410246 0.765255
0.615444 0.450799 0.788090
0.857784 0.505996 0.798506
0.965298 0.542584 0.808394
1.000000 0.583361 0.820293
1.000000 0.619610 0.829580
0.142845 0.473263 0.760661
0.143557 0.484355 0.766091
0.145218 0.519429 0.781024
0.274168 0.579274 0.796482
0.617338 0.628300 0.811134
0.866316 0.668532 0.815689
0.977231 0.702090 0.823314
1.000000 0.735872 0.832147
1.000000 0.772324 0.848880
0.148277 0.594388 0.780140
0.149874 0.605087 0.784030
0.158381 0.651550 0.805565
0.213157 0.701819 0.815090
0.607621 0.774175 0.826882
0.858209 0.810162 0.820429
0.973100 0.836344 0.828457
1.000000 0.856495 0.844284
1.000000 0.874102 0.854525
0.159709 0.687450 0.799619
0.162105 0.706350 0.802966
0.167711 0.752391 0.809254
0.236904 0.820549 0.828737
0.611979 0.870222 0.830829
0.847827 0.897354 0.833877
0.968417 0.916371 0.843643
1.000000 0.928697 0.854007
1.000000 0.937414 0.867736
0.171708 0.769910 0.818488
0.174077 0.787373 0.821315
0.179167 0.824505 0.827129
0.257956 0.878793 0.835127
0.619519 0.921931 0.841589
0.861617 0.942512 0.843438
0.970925 0.956258 0.848761
1.000000 0.965195 0.859797
1.000000 0.970934 0.864137
0.181186 0.828442 0.833152
0.183392 0.843704 0.835775
0.184760 0.872480 0.840980
0.349693 0.915923 0.847347
0.653414 0.950708 0.851178
0.870743 0.966962 0.853116
0.977427 0.978220 0.859420
1.000000 0.983574 0.865607
1.000000 0.988189 0.872843
0.165385 0.155143 0.764992
0.167727 0.157347 0.775186
0.260526 0.160588 0.792231
0.440793 0.175719 0.813027
0.661758 0.213465 0.840716
0.839159 0.250282 0.855590
0.934645 0.296418 0.865476
0.986364 0.359979 0.879440
1.000000 0.427096 0.893848
0.169009 0.158554 0.780670
0.170860 0.160296 0.788461
0.258653 0.184609 0.805423
0.450726 0.220378 0.827232
0.663037 0.254224 0.850761
0.847177 0.305575 0.868581
0.944749 0.346440 0.874494
0.993891 0.397810 0.885283
1.000000 0.465913 0.898891
0.174594 0.247932 0.810562
0.176198 0.256764 0.817326
0.226183 0.285720 0.832771
0.435053 0.324322 0.854299
0.665768 0.364378 0.875834
0.874276 0.417635 0.887000
0.967947 0.464505 0.893099
1.000000 0.507254 0.901139
1.000000 0.556987 0.909115
0.179810 0.390537 0.851506
0.181116 0.408810 0.858522
0.183879 0.436050 0.870804
0.423768 0.482679 0.887102
0.676677 0.520655 0.900642
0.881604 0.561187 0.904450
0.979750 0.596557 0.908440
1.000000 0.637023 0.913144
1.000000 0.675006 0.921049
0.180961 0.536824 0.882923
0.181858 0.550603 0.887790
0.183084 0.588247 0.898148
0.376876 0.630060 0.912546
0.665757 0.676319 0.916428
0.886566 0.713319 0.918733
0.986828 0.749476 0.915409
1.000000 0.779441 0.919657
1.000000 0.803834 0.924792
0.185158 0.646265 0.901760
0.187555 0.662909 0.904862
0.192354 0.700757 0.909341
0.343248 0.758800 0.917551
0.661274 0.816310 0.922086
0.876903 0.844175 0.921154
0.978654 0.864320 0.923005
1.000000 0.878558 0.924702
1.000000 0.896858 0.928547
0.194550 0.746243 0.903353
0.196889 0.763992 0.905332
0.202067 0.802791 0.909568
0.351476 0.854654 0.923069
0.666270 0.892652 0.926332
0.885075 0.917021 0.921665
0.973903 0.931719 0.924805
1.000000 0.942144 0.927381
1.000000 0.949449 0.931744
0.205163 0.822396 0.912981
0.206734 0.833169 0.914448
0.211687 0.867025 0.918918
0.382355 0.905573 0.926730
0.674825 0.936795 0.928013
0.879440 0.954143 0.926672
0.980266 0.967091 0.929101
1.000000 0.972466 0.933110
1.000000 0.977523 0.936369
0.210705 0.866282 0.916362
0.211449 0.879224 0.918589
0.212600 0.902399 0.922382
0.449413 0.938609 0.933268
0.711711 0.962730 0.932403
0.892935 0.975360 0.930126
0.980974 0.984227 0.927283
1.000000 0.989167 0.932030
1.000000 0.992924 0.935377
0.191558 0.223741 0.869368
0.233610 0.229722 0.873104
0.345537 0.257672 0.883944
0.542263 0.287922 0.895789
0.727700 0.325011 0.911790
0.886390 0.368390 0.923336
0.968896 0.412980 0.928802
1.000000 0.473082 0.934439
1.000000 0.525352 0.940962
0.193332 0.264556 0.877476
0.212287 0.271817 0.881634
0.347864 0.299090 0.891764
0.537964 0.334528 0.905906
0.729304 0.370192 0.920698
0.892508 0.406247 0.928830
0.977451 0.451818 0.934294
1.000000 0.511771 0.938637
1.000000 0.551109 0.944545
0.197933 0.349037 0.894229
0.199898 0.370893 0.900002
0.312456 0.391771 0.910112
0.523193 0.427693 0.925433
0.751216 0.475680 0.936233
0.911817 0.509691 0.940971
0.987931 0.543761 0.943854
1.000000 0.584134 0.945501
1.000000 0.620661 0.950905
0.201439 0.478379 0.919228
0.202424 0.489303 0.923118
0.276982 0.524127 0.933309
0.526440 0.554936 0.944111
0.742295 0.601426 0.950041
0.915863 0.626605 0.951606
0.993467 0.661622 0.953965
1.000000 0.696236 0.955436
1.000000 0.741019 0.957262
0.202054 0.608315 0.942387
0.202620 0.621577 0.945847
0.209596 0.648946 0.952213
0.493789 0.688054 0.957577
0.749098 0.739617 0.958676
0.915895 0.769475 0.958736
0.993748 0.790367 0.956405
1.000000 0.816259 0.957908
1.000000 0.838169 0.957894
0.206428 0.705485 0.947549
0.209255 0.731298 0.948424
0.213381 0.764893 0.950506
0.480681 0.809030 0.960810
0.737598 0.845791 0.961483
0.908248 0.868996 0.959552
0.992332 0.889191 0.956625
1.000000 0.899946 0.958115
1.000000 0.908339 0.959342
0.215487 0.801091 0.946675
0.217712 0.818263 0.947949
0.221820 0.847493 0.950841
0.479109 0.884795 0.960043
0.742316 0.911663 0.963136
0.904598 0.928860 0.959608
0.985097 0.941348 0.958237
1.000000 0.950543 0.958002
1.000000 0.958597 0.959344
0.222903 0.862336 0.949771
0.225847 0.876168 0.953499
0.236194 0.899007 0.956627
0.512533 0.928991 0.963991
0.751224 0.949989 0.963311
0.913603 0.964378 0.960737
0.987238 0.972046 0.959874
1.000000 0.978583 0.961944
1.000000 0.982876 0.961854
0.226786 0.902140 0.955396
0.227173 0.909096 0.956452
0.325482 0.930704 0.960479
0.554730 0.954065 0.964590
0.769897 0.970801 0.964871
0.921316 0.982662 0.960862
0.988590 0.988633 0.960048
1.000000 0.993640 0.960373
1.000000 0.995873 0.961980
0.275054 0.364254 0.924572
0.343443 0.373449 0.927108
0.460827 0.398239 0.936577
0.625826 0.432292 0.946848
0.808239 0.457738 0.953151
0.933298 0.494608 0.959228
0.995007 0.539003 0.961692
1.000000 0.563879 0.962966
1.000000 0.615980 0.967699
0.273500 0.399588 0.929731
0.327402 0.406813 0.933407
0.457337 0.423428 0.941009
0.625739 0.458146 0.950594
0.811615 0.495361 0.957553
0.936876 0.531721 0.963204
0.997156 0.564407 0.963913
1.000000 0.603655 0.966728
1.000000 0.640798 0.969560
0.230099 0.469412 0.942042
0.313705 0.480278 0.946464
0.448609 0.507449 0.953946
0.628698 0.538761 0.960747
0.810823 0.569216 0.964907
0.941470 0.600565 0.968843
1.000000 0.633109 0.969166
1.000000 0.663274 0.970988
1.000000 0.707527 0.972692
0.213347 0.580411 0.959411
0.255090 0.589691 0.961884
0.426960 0.610416 0.966688
0.624002 0.643136 0.971173
0.814452 0.669586 0.974252
0.939761 0.701420 0.974705
1.000000 0.737685 0.973238
1.000000 0.766242 0.973546
1.000000 0.791447 0.974191
0.212451 0.677405 0.969502
0.213842 0.687698 0.970441
0.384859 0.713151 0.975679
0.610526 0.756446 0.977617
0.810192 0.780168 0.977379
0.938400 0.807995 0.975618
1.000000 0.833380 0.973602
1.000000 0.850416 0.974106
1.000000 0.867743 0.973964
0.221516 0.780728 0.966430
0.222795 0.790629 0.967048
0.397628 0.819624 0.974885
0.608008 0.855535 0.980266
0.802200 0.870916 0.978537
0.934974 0.892370 0.975358
0.999783 0.906367 0.974297
1.000000 0.916042 0.973706
1.000000 0.929709 0.974249
0.229793 0.853149 0.968332
0.230878 0.860679 0.969009
0.395216 0.884573 0.975970
0.613584 0.913021 0.979536
0.808158 0.928807 0.978067
0.932037 0.943071 0.974839
0.997546 0.950730 0.973312
1.000000 0.959528 0.972777
1.000000 0.964780 0.973715
0.234174 0.901336 0.970608
0.267080 0.908485 0.971872
0.429446 0.926166 0.977175
0.632121 0.946705 0.979305
0.824671 0.960378 0.977034
0.939297 0.972267 0.975077
0.995129 0.977524 0.973630
1.000000 0.983890 0.974766
1.000000 0.987467 0.975167
0.298010 0.930912 0.974029
0.361324 0.937538 0.976140
0.499382 0.951480 0.979028
0.663645 0.968003 0.980344
0.837496 0.978709 0.977675
0.940160 0.986179 0.974728
0.995746 0.992185 0.973667
1.000000 0.995822 0.974103
1.000000 0.998521 0.973678
