look-library/cubes/ugc-phone_33.cube
TITLE "look-library ugc-phone (ads)"
# look-library — baked by build_cubes.py from looks/<id>.yaml
# method: GUIDE.md section 4a
LUT_3D_SIZE 33
0.004000 0.004000 0.004000
0.027949 0.003715 0.003715
0.055978 0.003401 0.003401
0.085728 0.003090 0.003090
0.116618 0.002793 0.002793
0.148354 0.002514 0.002514
0.180757 0.002259 0.002259
0.213703 0.002029 0.002029
0.247102 0.001827 0.001827
0.280885 0.001655 0.001655
0.314996 0.001514 0.001514
0.349392 0.001407 0.001407
0.384034 0.001333 0.001333
0.418890 0.001296 0.001296
0.453932 0.001295 0.001295
0.489075 0.001331 0.001331
0.523897 0.001405 0.001405
0.558315 0.001515 0.001515
0.592317 0.001660 0.001660
0.625886 0.001840 0.001840
0.659471 0.001927 0.001927
0.693427 0.001820 0.001820
0.726999 0.001714 0.001714
0.760151 0.001609 0.001609
0.792840 0.001505 0.001505
0.825014 0.001404 0.001404
0.861623 0.001288 0.001288
0.896511 0.001177 0.001177
0.927920 0.001078 0.001078
0.956062 0.000989 0.000989
0.980994 0.000910 0.000910
1.000000 0.000843 0.000843
1.000000 0.000813 0.000813
0.002722 0.027402 0.002722
0.027012 0.027012 0.002473
0.053954 0.026858 0.003767
0.083026 0.026743 0.003512
0.113832 0.026489 0.003035
0.145657 0.026199 0.002615
0.178203 0.025911 0.002260
0.211312 0.025639 0.001960
0.244882 0.025391 0.001707
0.278840 0.025171 0.001497
0.313129 0.024981 0.001328
0.347702 0.024823 0.001199
0.382523 0.024698 0.001109
0.417559 0.024608 0.001058
0.452782 0.024555 0.001047
0.488105 0.024538 0.001075
0.523107 0.024559 0.001142
0.557702 0.024617 0.001248
0.591879 0.024711 0.001389
0.625622 0.024839 0.001567
0.658914 0.025001 0.001778
0.692611 0.024962 0.001750
0.726183 0.024856 0.001642
0.759336 0.024751 0.001536
0.792026 0.024648 0.001432
0.824200 0.024546 0.001329
0.860810 0.024430 0.001212
0.895699 0.024320 0.001101
0.927108 0.024220 0.001001
0.955250 0.024131 0.000911
0.980182 0.024052 0.000832
1.000000 0.023985 0.000764
1.000000 0.023955 0.000734
0.001305 0.054830 0.001305
0.025574 0.054456 0.000960
0.054006 0.054006 0.000809
0.083067 0.053690 0.002580
0.112553 0.053685 0.003519
0.143494 0.053624 0.003433
0.175637 0.053460 0.003031
0.208624 0.053239 0.002588
0.242221 0.052998 0.002186
0.276286 0.052760 0.001844
0.310727 0.052536 0.001562
0.345479 0.052334 0.001339
0.380494 0.052159 0.001170
0.415733 0.052016 0.001053
0.451166 0.051905 0.000987
0.486704 0.051830 0.000969
0.521919 0.051791 0.000997
0.556727 0.051789 0.001069
0.591115 0.051823 0.001183
0.625066 0.051891 0.001336
0.658565 0.051994 0.001527
0.691624 0.052121 0.001741
0.725197 0.052015 0.001628
0.758351 0.051910 0.001517
0.791043 0.051807 0.001409
0.823218 0.051705 0.001303
0.859829 0.051589 0.001182
0.894719 0.051479 0.001067
0.926129 0.051379 0.000964
0.954272 0.051290 0.000872
0.979205 0.051211 0.000791
1.000000 0.051144 0.000721
1.000000 0.051114 0.000691
0.000000 0.083992 0.000000
0.024130 0.083626 0.000000
0.052545 0.083202 0.000000
0.082732 0.082732 0.000000
0.113286 0.082331 0.000905
0.143724 0.082239 0.002599
0.174913 0.082250 0.003284
0.207140 0.082209 0.003291
0.240262 0.082098 0.003006
0.274083 0.081935 0.002626
0.308440 0.081746 0.002245
0.343213 0.081550 0.001904
0.378319 0.081361 0.001618
0.413695 0.081187 0.001393
0.449296 0.081037 0.001227
0.485023 0.080914 0.001120
0.520440 0.080824 0.001072
0.555457 0.080766 0.001076
0.590057 0.080742 0.001131
0.624224 0.080752 0.001233
0.657938 0.080796 0.001378
0.691177 0.080871 0.001564
0.724138 0.080923 0.001698
0.757292 0.080819 0.001579
0.789983 0.080716 0.001462
0.822158 0.080615 0.001349
0.858770 0.080500 0.001221
0.893660 0.080390 0.001100
0.925071 0.080291 0.000992
0.953214 0.080202 0.000895
0.978148 0.080124 0.000810
0.999538 0.080056 0.000737
1.000000 0.080026 0.000705
0.000000 0.114324 0.000000
0.022733 0.113965 0.000000
0.051107 0.113550 0.000000
0.081286 0.113114 0.000000
0.112639 0.112639 0.000000
0.144271 0.112203 0.000000
0.175696 0.112014 0.001221
0.207412 0.111995 0.002516
0.239837 0.112006 0.003073
0.273063 0.111977 0.003131
0.306982 0.111898 0.002947
0.341487 0.111777 0.002648
0.376460 0.111631 0.002322
0.411806 0.111475 0.002016
0.447451 0.111321 0.001753
0.483277 0.111179 0.001545
0.518830 0.111058 0.001397
0.554010 0.110961 0.001310
0.588791 0.110893 0.001280
0.623151 0.110853 0.001304
0.657066 0.110843 0.001380
0.690512 0.110864 0.001503
0.723461 0.110915 0.001670
0.756208 0.110915 0.001729
0.788895 0.110815 0.001601
0.821066 0.110716 0.001478
0.857674 0.110603 0.001339
0.892562 0.110494 0.001209
0.923971 0.110397 0.001092
0.952113 0.110309 0.000989
0.977045 0.110231 0.000898
0.998435 0.110164 0.000821
1.000000 0.110135 0.000787
0.000000 0.145544 0.000000
0.021407 0.145192 0.000000
0.049740 0.144787 0.000000
0.079873 0.144363 0.000000
0.111228 0.143925 0.000000
0.143452 0.143452 0.000000
0.175913 0.143005 0.000000
0.208198 0.142747 0.000000
0.240552 0.142669 0.001390
0.273334 0.142674 0.002412
0.306729 0.142684 0.002889
0.340770 0.142662 0.002983
0.375377 0.142603 0.002870
0.410472 0.142513 0.002651
0.445976 0.142401 0.002390
0.481749 0.142279 0.002135
0.517321 0.142160 0.001915
0.552571 0.142051 0.001743
0.587462 0.141958 0.001625
0.621960 0.141886 0.001562
0.656035 0.141838 0.001553
0.689656 0.141814 0.001596
0.722791 0.141818 0.001689
0.755406 0.141848 0.001830
0.787826 0.141815 0.001823
0.819986 0.141721 0.001688
0.856584 0.141612 0.001537
0.891463 0.141507 0.001395
0.922865 0.141413 0.001269
0.951002 0.141327 0.001157
0.975931 0.141251 0.001060
0.997318 0.141186 0.000976
1.000000 0.141157 0.000940
0.000000 0.177478 0.000000
0.020168 0.177135 0.000000
0.048460 0.176739 0.000000
0.078548 0.176325 0.000000
0.109853 0.175903 0.000000
0.142089 0.175468 0.000000
0.175004 0.175004 0.000000
0.208132 0.174559 0.000000
0.241139 0.174259 0.000000
0.274127 0.174123 0.000140
0.307357 0.174095 0.001482
0.341028 0.174108 0.002318
0.375225 0.174117 0.002738
0.409960 0.174100 0.002854
0.445174 0.174054 0.002791
0.480727 0.173987 0.002644
0.516168 0.173904 0.002452
0.551363 0.173814 0.002259
0.586258 0.173725 0.002090
0.620809 0.173644 0.001960
0.654973 0.173577 0.001875
0.688713 0.173526 0.001838
0.721990 0.173496 0.001852
0.754761 0.173487 0.001914
0.786983 0.173501 0.002023
0.818967 0.173451 0.001968
0.855543 0.173350 0.001805
0.890404 0.173252 0.001652
0.921793 0.173162 0.001516
0.949919 0.173081 0.001396
0.974840 0.173008 0.001290
0.996220 0.172946 0.001201
1.000000 0.172918 0.001161
0.000000 0.210011 0.000000
0.019030 0.209676 0.000000
0.047279 0.209289 0.000000
0.077322 0.208886 0.000000
0.108579 0.208475 0.000000
0.140763 0.208059 0.000000
0.173695 0.207632 0.000000
0.207181 0.207181 0.000000
0.240863 0.206746 0.000000
0.274477 0.206423 0.000000
0.308049 0.206243 0.000000
0.341755 0.206175 0.000443
0.375769 0.206170 0.001546
0.410196 0.206185 0.002247
0.445080 0.206194 0.002622
0.480356 0.206181 0.002752
0.515583 0.206145 0.002722
0.550594 0.206098 0.002641
0.585376 0.206038 0.002516
0.619874 0.205973 0.002383
0.654037 0.205909 0.002265
0.687818 0.205852 0.002176
0.721170 0.205806 0.002126
0.754044 0.205774 0.002118
0.786390 0.205758 0.002153
0.818149 0.205762 0.002233
0.854596 0.205694 0.002124
0.889427 0.205605 0.001963
0.920793 0.205523 0.001819
0.948901 0.205448 0.001692
0.973806 0.205381 0.001580
0.995175 0.205322 0.001484
1.000000 0.205296 0.001442
0.000000 0.243057 0.000000
0.018002 0.242730 0.000000
0.046208 0.242353 0.000000
0.076204 0.241960 0.000000
0.107412 0.241560 0.000000
0.139545 0.241157 0.000000
0.172427 0.240751 0.000000
0.205933 0.240335 0.000000
0.239900 0.239900 0.000000
0.274053 0.239480 0.000000
0.308184 0.239148 0.000000
0.342277 0.238937 0.000000
0.376449 0.238834 0.000000
0.410836 0.238803 0.000691
0.445543 0.238809 0.001609
0.480565 0.238825 0.002205
0.515520 0.238833 0.002539
0.550327 0.238824 0.002677
0.584960 0.238797 0.002677
0.619315 0.238764 0.002645
0.653382 0.238723 0.002580
0.687115 0.238679 0.002502
0.720463 0.238636 0.002432
0.753371 0.238598 0.002384
0.785781 0.238569 0.002367
0.817629 0.238552 0.002385
0.853795 0.238549 0.002454
0.888574 0.238476 0.002300
0.919904 0.238404 0.002155
0.947984 0.238338 0.002024
0.972867 0.238277 0.001909
0.994218 0.238224 0.001810
1.000000 0.238201 0.001766
0.000000 0.276550 0.000000
0.017092 0.276231 0.000000
0.045254 0.275864 0.000000
0.075203 0.275482 0.000000
0.106363 0.275093 0.000000
0.138444 0.274702 0.000000
0.171273 0.274310 0.000000
0.204729 0.273917 0.000000
0.238716 0.273515 0.000000
0.273099 0.273099 0.000000
0.307659 0.272697 0.000000
0.342233 0.272366 0.000000
0.376788 0.272137 0.000000
0.411396 0.272005 0.000000
0.446161 0.271948 0.000000
0.481112 0.271938 0.000915
0.515911 0.271949 0.001676
0.550514 0.271964 0.002181
0.584924 0.271972 0.002484
0.619123 0.271968 0.002632
0.653082 0.271949 0.002666
0.686731 0.271924 0.002653
0.719996 0.271899 0.002641
0.752863 0.271871 0.002613
0.785269 0.271845 0.002587
0.817144 0.271822 0.002576
0.853375 0.271805 0.002594
0.887877 0.271795 0.002627
0.919161 0.271737 0.002489
0.947203 0.271681 0.002363
0.972055 0.271630 0.002250
0.993381 0.271584 0.002152
1.000000 0.271563 0.002109
0.000000 0.310439 0.000000
0.016307 0.310128 0.000000
0.044424 0.309771 0.000000
0.074327 0.309399 0.000000
0.105437 0.309021 0.000000
0.137467 0.308642 0.000000
0.170242 0.308263 0.000000
0.203643 0.307885 0.000000
0.237583 0.307507 0.000000
0.271983 0.307122 0.000000
0.306728 0.306728 0.000000
0.341644 0.306346 0.000000
0.376602 0.306024 0.000000
0.411565 0.305786 0.000000
0.446574 0.305635 0.000000
0.481642 0.305556 0.000000
0.516447 0.305527 0.000231
0.550974 0.305528 0.001104
0.585254 0.305541 0.001740
0.619292 0.305555 0.002179
0.653077 0.305563 0.002458
0.686583 0.305563 0.002615
0.719777 0.305552 0.002678
0.752614 0.305531 0.002673
0.784959 0.305517 0.002698
0.816798 0.305502 0.002714
0.853026 0.305487 0.002730
0.887530 0.305476 0.002759
0.918591 0.305468 0.002784
0.946586 0.305425 0.002673
0.971398 0.305384 0.002571
0.992693 0.305347 0.002480
1.000000 0.305330 0.002440
0.000000 0.344681 0.000000
0.015654 0.344379 0.000000
0.043726 0.344032 0.000000
0.073580 0.343671 0.000000
0.104641 0.343304 0.000000
0.136619 0.342936 0.000000
0.169341 0.342569 0.000000
0.202686 0.342205 0.000000
0.236570 0.341844 0.000000
0.270925 0.341483 0.000000
0.305682 0.341117 0.000000
0.340746 0.340746 0.000000
0.375977 0.340387 0.000000
0.411272 0.340078 0.000000
0.446595 0.339840 0.000000
0.481905 0.339677 0.000000
0.516855 0.339582 0.000000
0.551439 0.339537 0.000000
0.585702 0.339525 0.000552
0.619672 0.339530 0.001277
0.653352 0.339544 0.001818
0.686734 0.339557 0.002204
0.719793 0.339566 0.002465
0.752492 0.339569 0.002627
0.784785 0.339564 0.002713
0.816613 0.339552 0.002742
0.852840 0.339537 0.002758
0.887315 0.339532 0.002817
0.918349 0.339529 0.002866
0.946148 0.339528 0.002912
0.970915 0.339499 0.002831
0.992172 0.339471 0.002757
1.000000 0.339458 0.002722
0.000000 0.379242 0.000000
0.015138 0.378949 0.000000
0.043165 0.378611 0.000000
0.072970 0.378261 0.000000
0.103980 0.377906 0.000000
0.135906 0.377549 0.000000
0.168574 0.377195 0.000000
0.201865 0.376844 0.000000
0.235692 0.376497 0.000000
0.269989 0.376153 0.000000
0.304703 0.375811 0.000000
0.339774 0.375467 0.000000
0.375120 0.375120 0.000000
0.410631 0.374786 0.000000
0.446224 0.374494 0.000000
0.481803 0.374262 0.000000
0.516975 0.374097 0.000000
0.551712 0.373992 0.000000
0.586061 0.373933 0.000000
0.620055 0.373908 0.000076
0.653714 0.373905 0.000850
0.687038 0.373913 0.001458
0.720016 0.373926 0.001922
0.752620 0.373938 0.002264
0.784811 0.373948 0.002507
0.816534 0.373954 0.002671
0.852678 0.373953 0.002784
0.887164 0.373946 0.002836
0.918241 0.373934 0.002846
0.946038 0.373933 0.002899
0.970643 0.373937 0.002963
0.991831 0.373925 0.002942
1.000000 0.373916 0.002919
0.000000 0.414092 0.000000
0.014764 0.413807 0.000000
0.042745 0.413480 0.000000
0.072501 0.413141 0.000000
0.103460 0.412797 0.000000
0.135334 0.412452 0.000000
0.167948 0.412110 0.000000
0.201183 0.411771 0.000000
0.234953 0.411438 0.000000
0.269192 0.411109 0.000000
0.303848 0.410786 0.000000
0.338875 0.410464 0.000000
0.374223 0.410143 0.000000
0.409822 0.409822 0.000000
0.445583 0.409514 0.000000
0.481378 0.409243 0.000000
0.516771 0.409025 0.000000
0.551702 0.408863 0.000000
0.586199 0.408753 0.000000
0.620291 0.408685 0.000000
0.654000 0.408650 0.000000
0.687335 0.408637 0.000512
0.720291 0.408638 0.001153
0.752851 0.408647 0.001664
0.784981 0.408659 0.002061
0.816634 0.408672 0.002364
0.852690 0.408683 0.002617
0.887088 0.408690 0.002785
0.918086 0.408693 0.002887
0.945881 0.408692 0.002947
0.970521 0.408689 0.002979
0.991670 0.408684 0.002995
1.000000 0.408680 0.002990
0.000000 0.449206 0.000000
0.014536 0.448930 0.000000
0.042471 0.448613 0.000000
0.072178 0.448285 0.000000
0.103085 0.447952 0.000000
0.134906 0.447620 0.000000
0.167465 0.447289 0.000000
0.200645 0.446963 0.000000
0.234358 0.446642 0.000000
0.268538 0.446328 0.000000
0.303135 0.446020 0.000000
0.338105 0.445717 0.000000
0.373409 0.445418 0.000000
0.409003 0.445122 0.000000
0.444828 0.444828 0.000000
0.480750 0.444548 0.000000
0.516310 0.444303 0.000000
0.551418 0.444102 0.000000
0.586077 0.443948 0.000000
0.620303 0.443838 0.000000
0.654110 0.443766 0.000000
0.687507 0.443723 0.000000
0.720493 0.443702 0.000307
0.753057 0.443697 0.000951
0.785170 0.443701 0.001480
0.816791 0.443710 0.001906
0.852796 0.443723 0.002291
0.887151 0.443734 0.002554
0.918133 0.443737 0.002698
0.945909 0.443738 0.002794
0.970531 0.443737 0.002855
0.991666 0.443735 0.002892
1.000000 0.443733 0.002903
0.000000 0.484498 0.000000
0.014460 0.484231 0.000000
0.042347 0.483925 0.000000
0.072005 0.483608 0.000000
0.102860 0.483287 0.000000
0.134627 0.482966 0.000000
0.167132 0.482648 0.000000
0.200255 0.482334 0.000000
0.233911 0.482026 0.000000
0.268033 0.481725 0.000000
0.302571 0.481432 0.000000
0.337481 0.481145 0.000000
0.372727 0.480865 0.000000
0.408276 0.480590 0.000000
0.444089 0.480319 0.000000
0.480054 0.480054 0.000000
0.515705 0.479806 0.000000
0.550937 0.479588 0.000000
0.585733 0.479407 0.000000
0.620089 0.479265 0.000000
0.654009 0.479160 0.000000
0.687495 0.479087 0.000000
0.720546 0.479041 0.000000
0.753150 0.479015 0.000276
0.785341 0.478998 0.000789
0.817025 0.478989 0.001211
0.853076 0.478986 0.001622
0.887436 0.478988 0.001949
0.918381 0.478992 0.002193
0.946120 0.478996 0.002372
0.970705 0.478999 0.002503
0.991806 0.479001 0.002595
1.000000 0.479001 0.002631
0.000000 0.519548 0.000000
0.014535 0.519289 0.000000
0.042376 0.518994 0.000000
0.071984 0.518687 0.000000
0.102788 0.518378 0.000000
0.134502 0.518069 0.000000
0.166952 0.517763 0.000000
0.200020 0.517461 0.000000
0.233619 0.517166 0.000000
0.267683 0.516878 0.000000
0.302162 0.516598 0.000000
0.337012 0.516326 0.000000
0.372198 0.516063 0.000000
0.407690 0.515806 0.000000
0.443458 0.515556 0.000000
0.479404 0.515312 0.000000
0.515079 0.515079 0.000000
0.550371 0.514863 0.000000
0.585253 0.514673 0.000000
0.619708 0.514514 0.000000
0.653758 0.514389 0.000000
0.687424 0.514292 0.000000
0.720641 0.514216 0.000000
0.753389 0.514159 0.000000
0.785638 0.514119 0.000000
0.817349 0.514092 0.000171
0.853411 0.514075 0.000696
0.887767 0.514067 0.001134
0.918696 0.514066 0.001477
0.946412 0.514067 0.001743
0.970973 0.514070 0.001948
0.992050 0.514073 0.002102
1.000000 0.514074 0.002163
0.000000 0.554268 0.000000
0.014759 0.554018 0.000000
0.042554 0.553733 0.000000
0.072113 0.553438 0.000000
0.102865 0.553139 0.000000
0.134527 0.552842 0.000000
0.166923 0.552548 0.000000
0.199935 0.552259 0.000000
0.233478 0.551977 0.000000
0.267486 0.551702 0.000000
0.301906 0.551435 0.000000
0.336697 0.551177 0.000000
0.371823 0.550927 0.000000
0.407255 0.550687 0.000000
0.442967 0.550455 0.000000
0.478867 0.550231 0.000000
0.514517 0.550018 0.000000
0.549842 0.549842 0.000000
0.584826 0.549677 0.000000
0.619433 0.549521 0.000000
0.653633 0.549379 0.000000
0.687400 0.549256 0.000000
0.720710 0.549153 0.000000
0.753539 0.549070 0.000000
0.785854 0.549006 0.000000
0.817616 0.548957 0.000000
0.853717 0.548919 0.000000
0.888094 0.548895 0.000140
0.919029 0.548883 0.000574
0.946741 0.548878 0.000923
0.971292 0.548876 0.001201
0.992356 0.548876 0.001417
1.000000 0.548877 0.001506
0.000000 0.588645 0.000000
0.015128 0.588404 0.000000
0.042878 0.588128 0.000000
0.072388 0.587844 0.000000
0.103090 0.587557 0.000000
0.134699 0.587271 0.000000
0.167041 0.586989 0.000000
0.199999 0.586712 0.000000
0.233486 0.586442 0.000000
0.267437 0.586180 0.000000
0.301799 0.585926 0.000000
0.336532 0.585681 0.000000
0.371599 0.585446 0.000000
0.406964 0.585226 0.000000
0.442557 0.585073 0.000000
0.478392 0.584916 0.000000
0.514036 0.584757 0.000000
0.549392 0.584593 0.000000
0.584427 0.584427 0.000000
0.619105 0.584263 0.000000
0.653390 0.584108 0.000000
0.687250 0.583965 0.000000
0.720654 0.583839 0.000000
0.753571 0.583732 0.000000
0.785966 0.583643 0.000000
0.817795 0.583571 0.000000
0.853959 0.583508 0.000000
0.888379 0.583464 0.000000
0.919340 0.583436 0.000000
0.947066 0.583419 0.000000
0.971622 0.583409 0.000284
0.992686 0.583404 0.000559
1.000000 0.583403 0.000674
0.000000 0.622660 0.000000
0.015639 0.622428 0.000000
0.043343 0.622163 0.000000
0.072805 0.621889 0.000000
0.103456 0.621613 0.000000
0.135013 0.621339 0.000000
0.167303 0.621069 0.000000
0.200206 0.620804 0.000000
0.233638 0.620547 0.000000
0.267533 0.620297 0.000000
0.301761 0.620098 0.000000
0.336295 0.619953 0.000000
0.371208 0.619806 0.000000
0.406473 0.619657 0.000000
0.442066 0.619506 0.000000
0.477902 0.619351 0.000000
0.513551 0.619194 0.000000
0.548919 0.619035 0.000000
0.583983 0.618872 0.000000
0.618708 0.618708 0.000000
0.653057 0.618545 0.000000
0.686994 0.618390 0.000000
0.720483 0.618247 0.000000
0.753487 0.618119 0.000000
0.785965 0.618008 0.000000
0.817871 0.617914 0.000000
0.854112 0.617825 0.000000
0.888593 0.617759 0.000000
0.919598 0.617713 0.000000
0.947354 0.617681 0.000000
0.971929 0.617660 0.000000
0.993004 0.617646 0.000000
1.000000 0.617641 0.000000
0.000000 0.656296 0.000000
0.016287 0.656072 0.000000
0.043946 0.655817 0.000000
0.073359 0.655554 0.000000
0.103961 0.655289 0.000000
0.135467 0.655027 0.000000
0.167704 0.654768 0.000000
0.200323 0.654623 0.000000
0.233488 0.654484 0.000000
0.267155 0.654343 0.000000
0.301276 0.654200 0.000000
0.335809 0.654055 0.000000
0.370722 0.653909 0.000000
0.405987 0.653760 0.000000
0.441580 0.653609 0.000000
0.477416 0.653456 0.000000
0.513066 0.653301 0.000000
0.548440 0.653145 0.000000
0.583516 0.652986 0.000000
0.618268 0.652825 0.000000
0.652662 0.652662 0.000000
0.686658 0.652501 0.000000
0.720217 0.652347 0.000000
0.753298 0.652204 0.000000
0.785856 0.652074 0.000000
0.817840 0.651960 0.000000
0.854164 0.651848 0.000000
0.888718 0.651759 0.000000
0.919779 0.651693 0.000000
0.947578 0.651644 0.000000
0.972185 0.651609 0.000000
0.993282 0.651585 0.000000
1.000000 0.651575 0.000000
0.000000 0.689528 0.000000
0.017067 0.689313 0.000000
0.044681 0.689068 0.000000
0.073845 0.688900 0.000000
0.104103 0.688773 0.000000
0.135292 0.688642 0.000000
0.167243 0.688509 0.000000
0.199843 0.688372 0.000000
0.233008 0.688233 0.000000
0.266675 0.688092 0.000000
0.300796 0.687949 0.000000
0.335329 0.687805 0.000000
0.370242 0.687658 0.000000
0.405506 0.687510 0.000000
0.441098 0.687360 0.000000
0.476934 0.687207 0.000000
0.512585 0.687054 0.000000
0.547960 0.686900 0.000000
0.583043 0.686745 0.000000
0.617809 0.686587 0.000000
0.652228 0.686427 0.000000
0.686265 0.686265 0.000000
0.719878 0.686106 0.000000
0.753022 0.685953 0.000000
0.785651 0.685810 0.000000
0.817708 0.685680 0.000000
0.854117 0.685547 0.000000
0.888747 0.685436 0.000000
0.919872 0.685351 0.000000
0.947722 0.685285 0.000000
0.972370 0.685236 0.000000
0.993497 0.685199 0.000000
1.000000 0.685185 0.000000
0.000000 0.722600 0.000000
0.017033 0.722503 0.000000
0.044320 0.722389 0.000000
0.073371 0.722267 0.000000
0.103629 0.722140 0.000000
0.134817 0.722010 0.000000
0.166769 0.721876 0.000000
0.199368 0.721740 0.000000
0.232533 0.721601 0.000000
0.266201 0.721460 0.000000
0.300321 0.721317 0.000000
0.334854 0.721172 0.000000
0.369767 0.721026 0.000000
0.405031 0.720878 0.000000
0.440623 0.720728 0.000000
0.476458 0.720576 0.000000
0.512108 0.720424 0.000000
0.547485 0.720272 0.000000
0.582570 0.720118 0.000000
0.617342 0.719963 0.000000
0.651775 0.719806 0.000000
0.685837 0.719648 0.000000
0.719488 0.719488 0.000000
0.752682 0.719330 0.000000
0.785369 0.719179 0.000000
0.817490 0.719038 0.000000
0.853977 0.718888 0.000000
0.888683 0.718759 0.000000
0.919874 0.718655 0.000000
0.947780 0.718573 0.000000
0.972474 0.718509 0.000000
0.993638 0.718461 0.000000
1.000000 0.718441 0.000000
0.000000 0.755551 0.000000
0.016564 0.755453 0.000000
0.043852 0.755339 0.000000
0.072902 0.755217 0.000000
0.103160 0.755091 0.000000
0.134349 0.754960 0.000000
0.166300 0.754826 0.000000
0.198899 0.754690 0.000000
0.232065 0.754551 0.000000
0.265732 0.754410 0.000000
0.299853 0.754267 0.000000
0.334386 0.754123 0.000000
0.369298 0.753976 0.000000
0.404562 0.753828 0.000000
0.440154 0.753679 0.000000
0.475989 0.753527 0.000000
0.511638 0.753376 0.000000
0.547015 0.753225 0.000000
0.582100 0.753073 0.000000
0.616875 0.752921 0.000000
0.651315 0.752766 0.000000
0.685391 0.752611 0.000000
0.719066 0.752454 0.000000
0.752296 0.752296 0.000000
0.785028 0.752140 0.000000
0.817202 0.751991 0.000000
0.853757 0.751829 0.000000
0.888533 0.751685 0.000000
0.919789 0.751567 0.000000
0.947752 0.751470 0.000000
0.972494 0.751392 0.000000
0.993698 0.751332 0.000000
1.000000 0.751307 0.000000
0.000000 0.788041 0.000000
0.016102 0.787944 0.000000
0.043390 0.787830 0.000000
0.072440 0.787708 0.000000
0.102698 0.787581 0.000000
0.133887 0.787451 0.000000
0.165838 0.787317 0.000000
0.198437 0.787181 0.000000
0.231602 0.787042 0.000000
0.265270 0.786901 0.000000
0.299390 0.786758 0.000000
0.333923 0.786613 0.000000
0.368836 0.786467 0.000000
0.404100 0.786319 0.000000
0.439691 0.786170 0.000000
0.475526 0.786019 0.000000
0.511175 0.785868 0.000000
0.546551 0.785718 0.000000
0.581637 0.785567 0.000000
0.616413 0.785416 0.000000
0.650856 0.785264 0.000000
0.684939 0.785111 0.000000
0.718628 0.784957 0.000000
0.751880 0.784801 0.000000
0.784646 0.784646 0.000000
0.816862 0.784493 0.000000
0.853474 0.784323 0.000000
0.888310 0.784168 0.000000
0.919625 0.784037 0.000000
0.947642 0.783928 0.000000
0.972432 0.783839 0.000000
0.993677 0.783768 0.000000
1.000000 0.783738 0.000000
0.000000 0.820019 0.000000
0.015647 0.819922 0.000000
0.042935 0.819807 0.000000
0.071985 0.819686 0.000000
0.102243 0.819559 0.000000
0.133432 0.819428 0.000000
0.165383 0.819295 0.000000
0.197983 0.819158 0.000000
0.231148 0.819019 0.000000
0.264815 0.818878 0.000000
0.298936 0.818736 0.000000
0.333469 0.818591 0.000000
0.368381 0.818445 0.000000
0.403645 0.818297 0.000000
0.439236 0.818148 0.000000
0.475070 0.817997 0.000000
0.510719 0.817847 0.000000
0.546095 0.817697 0.000000
0.581181 0.817547 0.000000
0.615957 0.817397 0.000000
0.650402 0.817247 0.000000
0.684488 0.817096 0.000000
0.718184 0.816944 0.000000
0.751451 0.816792 0.000000
0.784238 0.816638 0.000000
0.816485 0.816485 0.000000
0.853141 0.816311 0.000000
0.888029 0.816149 0.000000
0.919395 0.816009 0.000000
0.947462 0.815891 0.000000
0.972297 0.815791 0.000000
0.993581 0.815711 0.000000
1.000000 0.815677 0.000000
0.000000 0.856406 0.000000
0.015130 0.856309 0.000000
0.042417 0.856194 0.000000
0.071467 0.856073 0.000000
0.101725 0.855946 0.000000
0.132914 0.855815 0.000000
0.164865 0.855682 0.000000
0.197465 0.855545 0.000000
0.230630 0.855406 0.000000
0.264298 0.855265 0.000000
0.298418 0.855123 0.000000
0.332951 0.854978 0.000000
0.367863 0.854832 0.000000
0.403127 0.854684 0.000000
0.438718 0.854535 0.000000
0.474552 0.854384 0.000000
0.510201 0.854234 0.000000
0.545576 0.854085 0.000000
0.580662 0.853936 0.000000
0.615438 0.853787 0.000000
0.649883 0.853639 0.000000
0.683972 0.853490 0.000000
0.717672 0.853340 0.000000
0.750947 0.853190 0.000000
0.783749 0.853040 0.000000
