look-library/cubes/ugc-phone_33.cube
TITLE "look-library ugc-phone (ads)"
# look-library — baked by build_cubes.py from looks/<id>.yaml
# method: GUIDE.md section 4a
LUT_3D_SIZE 5
0.004000 0.004000 0.004000
0.247102 0.001827 0.001827
0.523897 0.001405 0.001405
0.792840 0.001505 0.001505
1.000000 0.000813 0.000813
0.000000 0.243057 0.000000
0.239900 0.239900 0.000000
0.515520 0.238833 0.002539
0.785781 0.238569 0.002367
1.000000 0.238201 0.001766
0.000000 0.519548 0.000000
0.233619 0.517166 0.000000
0.515079 0.515079 0.000000
0.785638 0.514119 0.000000
1.000000 0.514074 0.002163
0.000000 0.788041 0.000000
0.231602 0.787042 0.000000
0.511175 0.785868 0.000000
0.784646 0.784646 0.000000
1.000000 0.783738 0.000000
0.000000 1.000000 0.000000
0.228507 1.000000 0.000000
0.508076 1.000000 0.000000
0.781646 1.000000 0.000000
1.000000 1.000000 0.000000
0.003086 0.003086 0.250792
0.249110 0.000000 0.249110
0.527263 0.000000 0.242748
0.795307 0.000417 0.240079
1.000000 0.000000 0.239174
0.000000 0.241940 0.241940
0.239052 0.239052 0.239052
0.523092 0.236674 0.236674
0.792812 0.236565 0.236565
1.000000 0.236617 0.236617
0.000000 0.518672 0.234034
0.227954 0.518705 0.227954
0.515197 0.515197 0.227351
0.785091 0.514046 0.237044
1.000000 0.513969 0.237687
0.000000 0.787702 0.232262
0.226097 0.788760 0.226097
0.509753 0.786135 0.227298
0.784331 0.784331 0.229671
1.000000 0.783529 0.233131
0.000000 1.000000 0.229167
0.228168 1.000000 0.228168
0.507736 1.000000 0.226997
0.781299 1.000000 0.225896
1.000000 1.000000 0.225943
0.003146 0.003146 0.525264
0.243378 0.001466 0.526644
0.527499 0.000000 0.527499
0.795139 0.000000 0.520439
1.000000 0.000000 0.519512
0.000000 0.240357 0.527525
0.238071 0.238071 0.526890
0.525384 0.234633 0.525384
0.796228 0.234863 0.518597
1.000000 0.235455 0.516139
0.000000 0.517734 0.517734
0.227351 0.517445 0.517445
0.514286 0.514286 0.514286
0.792307 0.511935 0.511935
1.000000 0.511635 0.511635
0.000000 0.787304 0.512603
0.226412 0.787776 0.510145
0.503329 0.787964 0.503329
0.784504 0.784504 0.502684
1.000000 0.783342 0.511409
0.000000 1.000000 0.509508
0.227770 1.000000 0.508509
0.500976 1.000000 0.500976
0.779347 1.000000 0.501567
1.000000 1.000000 0.503441
0.002874 0.002874 0.798067
0.241628 0.001875 0.797067
0.521196 0.000705 0.795897
0.794752 0.000000 0.794752
1.000000 0.000000 0.793832
0.000000 0.239265 0.794705
0.238266 0.238266 0.793705
0.518968 0.236470 0.795391
0.796556 0.233893 0.796556
1.000000 0.235031 0.790469
0.000000 0.516908 0.794155
0.228899 0.515966 0.796859
0.513313 0.513313 0.796098
0.794558 0.509923 0.794558
1.000000 0.509818 0.788939
0.000000 0.786915 0.786915
0.226812 0.786906 0.786906
0.502718 0.786724 0.786724
0.783601 0.783601 0.783601
1.000000 0.781539 0.781539
0.000000 1.000000 0.783820
0.227381 1.000000 0.782821
0.501087 1.000000 0.780092
0.774094 1.000000 0.774094
1.000000 1.000000 0.773180
0.002562 0.002562 1.000000
0.241316 0.001562 1.000000
0.520884 0.000392 1.000000
0.794440 0.000000 1.000000
1.000000 0.000000 1.000000
0.000000 0.238953 1.000000
0.237953 0.237953 1.000000
0.517522 0.236783 1.000000
0.791077 0.235638 1.000000
1.000000 0.234718 1.000000
0.000000 0.515754 1.000000
0.234016 0.514755 1.000000
0.513377 0.513377 1.000000
0.789405 0.511258 1.000000
1.000000 0.508986 1.000000
0.000000 0.786603 1.000000
0.227199 0.786272 1.000000
0.503121 0.785642 1.000000
0.782727 0.782727 1.000000
1.000000 0.779815 1.000000
0.000000 1.000000 1.000000
0.227069 1.000000 1.000000
0.501242 1.000000 1.000000
0.773453 1.000000 1.000000
1.000000 1.000000 1.000000
