look-library/cubes/ugc-phone_33.cube
TITLE "look-library ugc-phone (ads)"
# look-library — baked by build_cubes.py from looks/<id>.yaml
# method: GUIDE.md section 4a
LUT_3D_SIZE 9
0.004000 0.004000 0.004000
0.116618 0.002793 0.002793
0.247102 0.001827 0.001827
0.384034 0.001333 0.001333
0.523897 0.001405 0.001405
0.659471 0.001927 0.001927
0.792840 0.001505 0.001505
0.927920 0.001078 0.001078
1.000000 0.000813 0.000813
0.000000 0.114324 0.000000
0.112639 0.112639 0.000000
0.239837 0.112006 0.003073
0.376460 0.111631 0.002322
0.518830 0.111058 0.001397
0.657066 0.110843 0.001380
0.788895 0.110815 0.001601
0.923971 0.110397 0.001092
1.000000 0.110135 0.000787
0.000000 0.243057 0.000000
0.107412 0.241560 0.000000
0.239900 0.239900 0.000000
0.376449 0.238834 0.000000
0.515520 0.238833 0.002539
0.653382 0.238723 0.002580
0.785781 0.238569 0.002367
0.919904 0.238404 0.002155
1.000000 0.238201 0.001766
0.000000 0.379242 0.000000
0.103980 0.377906 0.000000
0.235692 0.376497 0.000000
0.375120 0.375120 0.000000
0.516975 0.374097 0.000000
0.653714 0.373905 0.000850
0.784811 0.373948 0.002507
0.918241 0.373934 0.002846
1.000000 0.373916 0.002919
0.000000 0.519548 0.000000
0.102788 0.518378 0.000000
0.233619 0.517166 0.000000
0.372198 0.516063 0.000000
0.515079 0.515079 0.000000
0.653758 0.514389 0.000000
0.785638 0.514119 0.000000
0.918696 0.514066 0.001477
1.000000 0.514074 0.002163
0.000000 0.656296 0.000000
0.103961 0.655289 0.000000
0.233488 0.654484 0.000000
0.370722 0.653909 0.000000
0.513066 0.653301 0.000000
0.652662 0.652662 0.000000
0.785856 0.652074 0.000000
0.919779 0.651693 0.000000
1.000000 0.651575 0.000000
0.000000 0.788041 0.000000
0.102698 0.787581 0.000000
0.231602 0.787042 0.000000
0.368836 0.786467 0.000000
0.511175 0.785868 0.000000
0.650856 0.785264 0.000000
0.784646 0.784646 0.000000
0.919625 0.784037 0.000000
1.000000 0.783738 0.000000
0.000000 0.922299 0.000000
0.100788 0.921839 0.000000
0.229693 0.921300 0.000000
0.366926 0.920725 0.000000
0.509263 0.920128 0.000000
0.648943 0.919537 0.000000
0.782830 0.918952 0.000000
0.918322 0.918322 0.000000
1.000000 0.917929 0.000000
0.000000 1.000000 0.000000
0.099602 1.000000 0.000000
0.228507 1.000000 0.000000
0.365740 1.000000 0.000000
0.508076 1.000000 0.000000
0.647754 1.000000 0.000000
0.781646 1.000000 0.000000
0.917226 1.000000 0.000000
1.000000 1.000000 0.000000
0.003469 0.003469 0.118965
0.117616 0.001822 0.117616
0.249432 0.000617 0.115095
0.386915 0.000109 0.113119
0.526564 0.000376 0.111892
0.661121 0.001297 0.111452
0.794622 0.000844 0.110957
0.929800 0.000393 0.110471
1.000000 0.000117 0.110175
0.000000 0.113750 0.113750
0.112146 0.112146 0.112146
0.244167 0.110765 0.110765
0.382735 0.109830 0.109830
0.524295 0.109444 0.109444
0.661071 0.109641 0.109641
0.791559 0.109997 0.109997
0.926638 0.109570 0.109570
1.000000 0.109305 0.109305
0.000000 0.242535 0.108155
0.105874 0.241550 0.105874
0.239612 0.239612 0.104946
0.375096 0.238893 0.110956
0.516268 0.238619 0.110600
0.655735 0.238125 0.109722
0.788263 0.237917 0.109660
0.922024 0.237828 0.109770
1.000000 0.237573 0.109437
0.000000 0.378774 0.104371
0.101369 0.378449 0.101369
0.234306 0.376743 0.100512
0.375050 0.375050 0.100675
0.516747 0.373950 0.106951
0.653157 0.373927 0.110412
0.784995 0.373879 0.110797
0.918915 0.373765 0.110687
1.000000 0.373715 0.110689
0.000000 0.519136 0.102813
0.099064 0.519496 0.099064
0.231123 0.517985 0.098855
0.371007 0.516565 0.098843
0.515236 0.515236 0.099944
0.654393 0.514282 0.104531
0.785631 0.514048 0.108522
0.918350 0.514081 0.110488
1.000000 0.514102 0.110963
0.000000 0.655940 0.103628
0.099145 0.656971 0.099145
0.230343 0.655652 0.099573
0.369307 0.654439 0.100222
0.512670 0.653383 0.101155
0.652517 0.652517 0.102850
0.785612 0.651948 0.104695
0.919292 0.651639 0.107216
1.000000 0.651573 0.108535
0.000000 0.787885 0.103001
0.101402 0.787879 0.101402
0.231446 0.786886 0.102002
0.368679 0.786311 0.101428
0.511017 0.785714 0.100839
0.650698 0.785116 0.100363
0.784501 0.784501 0.100579
0.919414 0.783904 0.102326
1.000000 0.783631 0.103873
0.000000 0.922143 0.101092
0.100632 0.921683 0.100632
0.229537 0.921144 0.100092
0.366770 0.920569 0.099518
0.509106 0.919973 0.098924
0.648784 0.919384 0.098363
0.782674 0.918804 0.097976
0.918177 0.918177 0.098279
1.000000 0.917786 0.099164
0.000000 1.000000 0.099906
0.099446 1.000000 0.099446
0.228351 1.000000 0.098907
0.365584 1.000000 0.098332
0.507919 1.000000 0.097737
0.647595 1.000000 0.097163
0.781487 1.000000 0.096678
0.917075 1.000000 0.096505
1.000000 1.000000 0.096851
0.003086 0.003086 0.250792
0.116005 0.001739 0.250092
0.249110 0.000000 0.249110
0.387072 0.000000 0.245610
0.527263 0.000000 0.242748
0.661963 0.000810 0.240709
0.795307 0.000417 0.240079
0.930708 0.000000 0.239517
1.000000 0.000000 0.239174
0.000000 0.113019 0.247934
0.111543 0.111543 0.246808
0.245325 0.109648 0.245325
0.385241 0.108499 0.242540
0.527318 0.108134 0.240419
0.663834 0.108558 0.239139
0.793381 0.109286 0.238581
0.928624 0.108819 0.238067
1.000000 0.108535 0.237756
0.000000 0.241940 0.241940
0.105350 0.240887 0.240887
0.239052 0.239052 0.239052
0.379540 0.237599 0.237599
0.523092 0.236674 0.236674
0.661822 0.236345 0.236345
0.792812 0.236565 0.236565
0.925134 0.236882 0.236882
1.000000 0.236617 0.236617
0.000000 0.378243 0.236897
0.101058 0.377850 0.235123
0.232442 0.376790 0.232442
0.374746 0.374746 0.231493
0.515289 0.373990 0.237756
0.653618 0.373764 0.237579
0.787220 0.373315 0.236738
0.921513 0.373090 0.236621
1.000000 0.373142 0.236924
0.000000 0.518672 0.234034
0.098973 0.518963 0.231512
0.227954 0.518705 0.227954
0.369370 0.516914 0.227114
0.515197 0.515197 0.227351
0.654349 0.514099 0.233376
0.785091 0.514046 0.237044
0.918425 0.514027 0.237709
1.000000 0.513969 0.237687
0.000000 0.655541 0.233567
0.099271 0.656503 0.230312
0.225893 0.657034 0.225893
0.366392 0.655447 0.225730
0.511344 0.654007 0.225792
0.652736 0.652736 0.226948
0.786148 0.651828 0.231214
0.919155 0.651564 0.235266
1.000000 0.651571 0.236754
0.000000 0.787702 0.232262
0.101735 0.787474 0.231341
0.226097 0.788760 0.226097
0.365717 0.787369 0.226583
0.509753 0.786135 0.227298
0.650336 0.785123 0.228264
0.784331 0.784331 0.229671
0.919131 0.783755 0.231543
1.000000 0.783529 0.233131
0.000000 0.921960 0.230353
0.100449 0.921500 0.229893
0.228477 0.921309 0.228477
0.366586 0.920386 0.228779
0.508922 0.919790 0.228183
0.648597 0.919204 0.227607
0.782488 0.918630 0.227155
0.918007 0.918007 0.227371
1.000000 0.917619 0.228301
0.000000 1.000000 0.229167
0.099263 1.000000 0.228707
0.228168 1.000000 0.228168
0.365400 1.000000 0.227593
0.507736 1.000000 0.226997
0.647410 1.000000 0.226416
0.781299 1.000000 0.225896
0.916897 1.000000 0.225635
1.000000 1.000000 0.225943
0.002963 0.002963 0.387479
0.114574 0.001934 0.387471
0.246144 0.000565 0.387300
0.386926 0.000000 0.386926
0.527410 0.000000 0.382378
0.662420 0.000385 0.378680
0.795315 0.000160 0.377703
0.930861 0.000000 0.377126
1.000000 0.000000 0.376768
0.000000 0.112342 0.386948
0.111185 0.111185 0.386514
0.243432 0.109665 0.385842
0.384935 0.107854 0.384935
0.527465 0.107524 0.381133
0.664466 0.107974 0.378164
0.793724 0.108936 0.376150
0.929212 0.108402 0.375575
1.000000 0.108079 0.375222
0.000000 0.241329 0.384084
0.105377 0.240115 0.383559
0.238419 0.238419 0.382300
0.380767 0.236420 0.380767
0.525681 0.235294 0.377837
0.664893 0.235001 0.375720
0.795634 0.235447 0.374433
0.927020 0.236139 0.373802
1.000000 0.235845 0.373476
0.000000 0.377701 0.377701
0.100749 0.377235 0.377235
0.231900 0.376089 0.376089
0.374157 0.374157 0.374157
0.519830 0.372661 0.372661
0.660640 0.371769 0.371769
0.793624 0.371451 0.371451
0.926332 0.371664 0.371664
1.000000 0.372068 0.372068
0.000000 0.518200 0.373447
0.098899 0.518418 0.372234
0.227646 0.518075 0.370210
0.367345 0.516999 0.367345
0.514891 0.514891 0.366385
0.652878 0.514111 0.372699
0.785216 0.513943 0.372796
0.920477 0.513506 0.371931
1.000000 0.513314 0.371723
0.000000 0.655138 0.371617
0.099427 0.656028 0.369669
0.225816 0.656473 0.366785
0.363004 0.656235 0.363004
0.509646 0.654385 0.362148
0.652707 0.652707 0.362418
0.786198 0.651626 0.368168
0.918630 0.651550 0.372057
1.000000 0.651566 0.372759
0.000000 0.787507 0.369875
0.102112 0.787065 0.369390
0.226240 0.788265 0.365681
0.361021 0.788832 0.361021
0.506752 0.787185 0.360838
0.648995 0.785772 0.360892
0.784545 0.784545 0.362020
0.919663 0.783623 0.366382
1.000000 0.783407 0.369130
0.000000 0.921765 0.367965
0.100254 0.921305 0.367505
0.228843 0.920882 0.366737
0.361187 0.922263 0.361187
0.505995 0.920822 0.361686
0.647328 0.919614 0.362386
0.782096 0.918641 0.363304
0.917826 0.917826 0.364804
1.000000 0.917444 0.365799
0.000000 1.000000 0.366779
0.099068 1.000000 0.366319
0.227972 1.000000 0.365780
0.362391 1.000000 0.362391
0.506626 1.000000 0.363315
0.647214 1.000000 0.364025
0.781100 1.000000 0.363480
0.916704 1.000000 0.363121
1.000000 1.000000 0.363376
0.003146 0.003146 0.525264
0.113400 0.002448 0.525973
0.243378 0.001466 0.526644
0.382466 0.000230 0.527167
0.527499 0.000000 0.527499
0.662778 0.000000 0.522079
0.795139 0.000000 0.520439
0.930730 0.000000 0.519868
1.000000 0.000000 0.519512
0.000292 0.111950 0.527147
0.111123 0.111123 0.527430
0.241779 0.109991 0.527600
0.381587 0.108595 0.527589
0.527368 0.106936 0.527368
0.664657 0.107475 0.522681
0.793610 0.108705 0.518900
0.929173 0.108150 0.518318
1.000000 0.107804 0.517961
0.000000 0.240357 0.527525
0.106621 0.239380 0.527307
0.238071 0.238071 0.526890
0.378725 0.236486 0.526253
0.525384 0.234633 0.525384
0.665030 0.234384 0.521557
0.796228 0.234863 0.518597
0.927318 0.235791 0.516497
1.000000 0.235455 0.516139
0.000000 0.377162 0.523430
0.100453 0.376620 0.524320
0.231951 0.375292 0.523961
0.373506 0.373506 0.522659
0.521098 0.371445 0.521098
0.663238 0.370362 0.518182
0.796716 0.370077 0.516090
0.929203 0.370516 0.514709
1.000000 0.371131 0.514222
0.000000 0.517734 0.517734
0.098846 0.517877 0.517877
0.227351 0.517445 0.517445
0.366791 0.516275 0.516275
0.514286 0.514286 0.514286
0.657254 0.512812 0.512812
0.792307 0.511935 0.511935
0.927109 0.511583 0.511583
1.000000 0.511635 0.511635
0.000000 0.654747 0.514489
0.099613 0.655558 0.513898
0.225759 0.655915 0.512605
0.362689 0.655583 0.510518
0.507579 0.654464 0.507579
0.652390 0.652390 0.506624
0.784697 0.651619 0.512786
0.918711 0.651451 0.512930
1.000000 0.651170 0.512325
0.000000 0.787304 0.512603
0.101961 0.786845 0.512144
0.226412 0.787776 0.510145
0.360935 0.788249 0.507179
0.503329 0.787964 0.503329
0.647293 0.786134 0.502446
0.784504 0.784504 0.502684
0.919645 0.783418 0.508597
1.000000 0.783342 0.511409
0.000000 0.921562 0.510694
0.100051 0.921102 0.510234
0.228956 0.920563 0.509694
0.361333 0.921750 0.505972
0.501198 0.922310 0.501198
0.644256 0.920682 0.500984
0.780674 0.919310 0.500994
0.918047 0.918047 0.502089
1.000000 0.917381 0.504636
0.000000 1.000000 0.509508
0.098866 1.000000 0.509048
0.227770 1.000000 0.508509
0.362681 1.000000 0.506323
0.500976 1.000000 0.500976
0.643471 1.000000 0.501178
0.779347 1.000000 0.501567
0.916262 1.000000 0.502304
1.000000 1.000000 0.503441
0.003065 0.003065 0.663814
0.112914 0.002605 0.663354
0.241818 0.002065 0.662815
0.379051 0.001491 0.662240
0.521705 0.000756 0.662086
0.663100 0.000000 0.663100
0.794942 0.000000 0.660499
0.930541 0.000000 0.659931
1.000000 0.000000 0.659578
0.001518 0.111827 0.662267
0.111367 0.111367 0.661807
0.240464 0.110619 0.662762
0.378609 0.109628 0.663631
0.522666 0.108390 0.664323
0.664795 0.106969 0.664795
0.793998 0.108288 0.659393
0.928994 0.107945 0.658384
1.000000 0.107593 0.658030
0.000000 0.239618 0.663937
0.108149 0.238965 0.664423
0.238038 0.238038 0.664832
0.377029 0.236858 0.665075
0.521963 0.235425 0.665117
0.664952 0.233812 0.664952
0.796416 0.234376 0.660376
0.927176 0.235574 0.656568
1.000000 0.235224 0.656213
0.000000 0.376483 0.665126
0.102548 0.375670 0.665079
0.233282 0.374554 0.664862
0.373173 0.373173 0.664439
0.519041 0.371533 0.663791
0.662948 0.369716 0.662948
0.796817 0.369476 0.659249
0.929753 0.369950 0.656209
1.000000 0.370608 0.654681
0.000000 0.517301 0.659016
0.098818 0.517370 0.660490
0.227085 0.516851 0.661620
0.366807 0.515500 0.661411
0.513644 0.513644 0.660047
0.658501 0.511615 0.658501
0.794851 0.510546 0.655708
0.930184 0.510216 0.653580
1.000000 0.510385 0.652632
0.000000 0.654548 0.654548
0.099819 0.655122 0.655122
0.225727 0.655391 0.655391
0.362403 0.654967 0.654967
0.507031 0.653753 0.653753
0.651794 0.651794 0.651794
0.788876 0.650369 0.650369
0.925734 0.649462 0.649462
1.000000 0.649170 0.649170
0.000000 0.787106 0.652663
0.101762 0.786646 0.652203
0.226605 0.787320 0.651600
0.360874 0.787700 0.650297
0.503005 0.787320 0.648172
0.645319 0.786179 0.645319
0.784178 0.784178 0.644377
0.918106 0.783435 0.650469
1.000000 0.783367 0.650715
0.000000 0.921364 0.650753
0.099853 0.920904 0.650293
0.228757 0.920364 0.649754
0.361500 0.921270 0.647742
0.501102 0.921734 0.644693
0.640934 0.921422 0.640934
0.778971 0.919658 0.640065
0.917996 0.917996 0.640262
1.000000 0.917145 0.643770
0.000000 1.000000 0.649567
0.098667 1.000000 0.649108
0.227572 1.000000 0.648568
0.362989 1.000000 0.647256
0.501022 1.000000 0.643634
0.639313 1.000000 0.639313
0.776810 1.000000 0.638841
0.915369 1.000000 0.638632
1.000000 1.000000 0.639427
0.002874 0.002874 0.798067
0.112723 0.002414 0.797607
0.241628 0.001875 0.797067
0.378861 0.001300 0.796493
0.521196 0.000705 0.795897
0.660869 0.000120 0.795312
0.794752 0.000000 0.794752
0.930352 0.000000 0.794184
1.000000 0.000000 0.793832
0.001327 0.111636 0.796520
0.111176 0.111176 0.796060
0.240081 0.110637 0.795521
0.377314 0.110062 0.794946
0.519649 0.109467 0.794350
0.659322 0.108882 0.793766
0.794345 0.107868 0.794345
0.928805 0.107754 0.792637
1.000000 0.107401 0.792285
0.000000 0.239265 0.794705
0.109361 0.238805 0.794245
0.238266 0.238266 0.793705
0.375688 0.237500 0.794474
0.518968 0.236470 0.795391
0.660336 0.235253 0.796084
0.796556 0.233893 0.796556
0.927311 0.235263 0.791057
1.000000 0.235031 0.790469
0.000000 0.375384 0.795052
0.105605 0.374882 0.795679
0.234842 0.374131 0.796254
0.373140 0.373140 0.796674
0.517355 0.371903 0.796900
0.659639 0.370481 0.796915
0.796737 0.368926 0.796737
0.929930 0.369482 0.792128
1.000000 0.370188 0.789625
0.000000 0.516908 0.794155
0.098814 0.516906 0.796904
0.228899 0.515966 0.796859
0.368130 0.514767 0.796588
0.513313 0.513313 0.796098
0.656548 0.511681 0.795410
0.794558 0.509923 0.794558
0.930278 0.509634 0.790871
1.000000 0.509818 0.788939
0.000000 0.654358 0.788801
0.100039 0.654726 0.790206
0.225719 0.654912 0.791973
0.362152 0.654399 0.793142
0.507005 0.653013 0.792967
0.651172 0.651172 0.791589
0.790076 0.649215 0.790076
0.928258 0.648104 0.787288
1.000000 0.647796 0.785910
0.000000 0.786915 0.786915
0.101572 0.786456 0.786456
0.226812 0.786906 0.786906
0.360838 0.787197 0.787197
0.502718 0.786724 0.786724
0.644783 0.785493 0.785493
0.783601 0.783601 0.783601
0.922429 0.782161 0.782161
1.000000 0.781539 0.781539
0.000000 0.921173 0.785006
0.099662 0.920714 0.784546
0.228567 0.920174 0.784007
0.361682 0.920832 0.783349
0.501033 0.921204 0.781953
0.640617 0.920802 0.779817
0.777056 0.919704 0.777056
0.917681 0.917681 0.776111
1.000000 0.916931 0.780640
0.000000 1.000000 0.783820
0.098477 1.000000 0.783360
0.227381 1.000000 0.782821
0.363307 1.000000 0.782061
0.501087 1.000000 0.780092
0.639131 1.000000 0.777393
0.774094 1.000000 0.774094
0.914220 1.000000 0.772983
1.000000 1.000000 0.773180
0.002681 0.002681 0.934042
0.112531 0.002222 0.933582
0.241435 0.001682 0.933042
0.378668 0.001108 0.932468
0.521003 0.000512 0.931872
0.660677 0.000000 0.931287
0.794559 0.000000 0.930727
0.930159 0.000000 0.930159
1.000000 0.000000 0.929807
0.001135 0.111444 0.932495
0.110984 0.110984 0.932035
0.239888 0.110444 0.931495
0.377121 0.109870 0.930921
0.519457 0.109274 0.930325
0.659130 0.108689 0.929740
0.793012 0.108129 0.929180
0.928612 0.107561 0.928612
1.000000 0.107209 0.928260
0.000000 0.239073 0.930679
0.109168 0.238613 0.930220
0.238073 0.238073 0.929680
0.375306 0.237499 0.929105
0.517641 0.236903 0.928510
0.657314 0.236318 0.927925
0.791197 0.235758 0.927365
0.927673 0.234841 0.927673
1.000000 0.234838 0.926444
0.000000 0.374947 0.928747
0.107236 0.374488 0.928287
0.236141 0.373948 0.927747
0.373373 0.373373 0.927173
0.515931 0.372562 0.928059
0.656572 0.371541 0.928943
0.792096 0.370370 0.929598
0.930069 0.368992 0.930069
1.000000 0.369753 0.926576
0.000000 0.516044 0.927772
0.103540 0.515690 0.928530
0.232138 0.515114 0.929257
0.369755 0.514308 0.929840
0.513264 0.513264 0.930236
0.654855 0.512031 0.930417
0.791290 0.510658 0.930397
0.930186 0.509074 0.930186
1.000000 0.509310 0.927266
0.000000 0.654165 0.924776
0.100284 0.654347 0.926738
0.225733 0.654448 0.930021
0.363843 0.653523 0.930336
0.508303 0.652267 0.930028
0.650827 0.650827 0.929519
0.788156 0.649254 0.928839
0.927957 0.647469 0.927957
1.000000 0.647191 0.925600
0.000000 0.786723 0.922890
0.101379 0.786263 0.922430
0.227044 0.786508 0.923662
0.360824 0.786709 0.925567
0.502448 0.786143 0.926769
0.644787 0.784736 0.926480
0.782973 0.782973 0.925166
0.923642 0.780995 0.923642
1.000000 0.780224 0.921823
0.000000 0.920981 0.920981
0.099470 0.920521 0.920521
0.228374 0.919981 0.919981
0.361888 0.920411 0.920411
0.500984 0.920690 0.920690
0.640318 0.920197 0.920197
0.776517 0.919011 0.919011
0.917098 0.917098 0.917098
1.000000 0.916141 0.916141
0.000000 1.000000 0.919795
0.098284 1.000000 0.919335
0.227188 1.000000 0.918795
0.363650 1.000000 0.918310
0.501176 1.000000 0.918016
0.638970 1.000000 0.916960
0.773692 1.000000 0.915235
0.912777 1.000000 0.912777
1.000000 1.000000 0.912045
0.002562 0.002562 1.000000
0.112411 0.002102 1.000000
0.241316 0.001562 1.000000
0.378548 0.000988 1.000000
0.520884 0.000392 1.000000
0.660557 0.000000 1.000000
0.794440 0.000000 1.000000
0.930039 0.000000 1.000000
1.000000 0.000000 1.000000
0.001015 0.111324 1.000000
0.110864 0.110864 1.000000
0.239769 0.110324 1.000000
0.377002 0.109750 1.000000
0.519337 0.109154 1.000000
0.659010 0.108569 1.000000
0.792893 0.108009 1.000000
0.928492 0.107441 1.000000
1.000000 0.107089 1.000000
0.000000 0.238953 1.000000
0.109049 0.238493 1.000000
0.237953 0.237953 1.000000
0.375186 0.237379 1.000000
0.517522 0.236783 1.000000
0.657195 0.236198 1.000000
0.791077 0.235638 1.000000
0.926677 0.235070 1.000000
1.000000 0.234718 1.000000
0.000000 0.374828 1.000000
0.107116 0.374368 1.000000
0.236021 0.373828 1.000000
0.373254 0.373254 1.000000
0.515589 0.372658 1.000000
0.655262 0.372073 1.000000
0.789357 0.371411 1.000000
0.926340 0.370275 1.000000
1.000000 0.369472 1.000000
0.000000 0.515754 1.000000
0.105112 0.515295 1.000000
0.234016 0.514755 1.000000
0.370908 0.514168 1.000000
0.513377 0.513377 1.000000
0.653948 0.512394 1.000000
0.789405 0.511258 1.000000
0.927310 0.509917 1.000000
1.000000 0.508986 1.000000
0.000000 0.654045 1.000000
0.100448 0.654122 1.000000
0.228302 0.653716 1.000000
0.365834 0.652951 1.000000
0.509253 0.651948 1.000000
0.650757 0.650757 1.000000
0.787108 0.649423 1.000000
0.925919 0.647879 1.000000
1.000000 0.646824 1.000000
0.000000 0.786603 1.000000
0.101260 0.786143 1.000000
0.227199 0.786272 1.000000
0.360827 0.786417 1.000000
0.503121 0.785642 1.000000
0.645519 0.784252 1.000000
0.782727 0.782727 1.000000
0.922406 0.780991 1.000000
1.000000 0.779815 1.000000
0.000000 0.920861 1.000000
0.099350 0.920401 1.000000
0.228255 0.919861 1.000000
0.362028 0.920160 1.000000
0.500965 0.920381 1.000000
0.640144 0.919832 1.000000
0.776194 0.918591 1.000000
0.916675 0.916675 1.000000
1.000000 0.915377 1.000000
0.000000 1.000000 1.000000
0.098164 1.000000 1.000000
0.227069 1.000000 1.000000
0.363875 1.000000 1.000000
0.501242 1.000000 1.000000
0.638880 1.000000 1.000000
0.773453 1.000000 1.000000
0.912387 1.000000 1.000000
1.000000 1.000000 1.000000
